; generated by PrusaSlicer 2.0.0+win64 on 2020-06-02 at 20:06:03

; 

; external perimeters extrusion width = 0.60mm
; perimeters extrusion width = 0.50mm
; infill extrusion width = 0.50mm
; solid infill extrusion width = 0.50mm
; top infill extrusion width = 0.45mm
; support material extrusion width = 0.35mm
; first layer extrusion width = 0.42mm

M73 P0 R132
M73 Q0 S134
M201 X1000 Y1000 Z1000 E5000 ; sets maximum accelerations, mm/sec^2
M203 X200 Y200 Z12 E120 ; sets maximum feedrates, mm/sec
M204 P1250 R1250 T1250 ; sets acceleration (P, T) and retract acceleration (R), mm/sec^2
M205 X8.00 Y8.00 Z0.40 E1.50 ; sets the jerk limits, mm/sec
M205 S0 T0 ; sets the minimum extruding and travel feed rate, mm/sec
M107
M115 U3.8.0 ; tell printer latest fw version
G90 ; use absolute coordinates
M83 ; extruder relative mode
M104 S215 ; set extruder temp
M140 S67 ; set bed temp
M190 S67 ; wait for bed temp
M109 S215 ; wait for extruder temp
G28 W ; home all without mesh bed level
G80 ; mesh bed leveling
G1 Y-3.0 F1000.0 ; go outside print area
G92 E0.0
G1 X60.0 E9.0 F1000.0 ; intro line
M73 Q0 S134
M73 P0 R132
G1 X100.0 E12.5 F1000.0 ; intro line
G92 E0.0
M221 S95
M900 K30 ; Filament gcode
G21 ; set units to millimeters
G90 ; use absolute coordinates
M83 ; use relative distances for extrusion
;BEFORE_LAYER_CHANGE
G92 E0.0
;0.2


G1 E-0.80000 F2100.00000
G1 Z0.600 F10800.000
;AFTER_LAYER_CHANGE
;0.2
G1 X4.536 Y70.090
G1 Z0.200
G1 E0.80000 F2100.00000
M204 S1000
G1 F1200
G1 X4.536 Y137.880 E2.12550
G1 X5.290 Y137.880 E0.02365
G1 X5.290 Y70.260 E2.12018
G1 X6.044 Y70.260 E0.02365
G1 X6.044 Y137.880 E2.12018
G1 X6.798 Y137.880 E0.02365
G1 X6.798 Y70.260 E2.12018
G1 X7.552 Y70.260 E0.02365
G1 X7.552 Y137.880 E2.12018
G1 X8.306 Y137.880 E0.02365
G1 X8.306 Y70.260 E2.12018
G1 X9.060 Y70.260 E0.02365
G1 X9.060 Y72.883 E0.08223
G1 X8.752 Y72.883 E0.00967
G1 X8.752 Y135.257 E1.95571
G1 X9.060 Y135.257 E0.00967
G1 X9.060 Y137.880 E0.08224
G1 X9.815 Y137.880 E0.02365
G1 X9.815 Y135.257 E0.08224
G1 X10.569 Y135.258 E0.02365
G1 X10.569 Y137.880 E0.08223
G1 X11.323 Y137.880 E0.02365
G1 X11.323 Y135.258 E0.08223
G1 X11.701 Y135.258 E0.01184
G1 X11.701 Y134.989 E0.00843
G1 X12.077 Y134.989 E0.01180
G1 X12.077 Y137.880 E0.09067
G1 X12.831 Y137.880 E0.02365
G1 X12.831 Y134.989 E0.09067
G1 X13.585 Y134.989 E0.02365
G1 X13.585 Y138.050 E0.09599
G1 F8640
G1 X13.585 Y134.989 E-0.70689
G1 X13.355 Y134.989 E-0.05311
G1 E-0.04000 F2100.00000
G1 Z0.800 F10800.000
G1 X13.585 Y75.181
G1 Z0.200
G1 E0.80000 F2100.00000
G1 F1200
G1 X13.585 Y70.260 E0.15429
G1 X12.831 Y70.260 E0.02365
G1 X12.831 Y75.011 E0.14897
G1 X12.077 Y75.011 E0.02365
G1 X12.077 Y70.260 E0.14897
G1 X11.323 Y70.260 E0.02365
G1 X11.323 Y72.883 E0.08224
G1 X10.569 Y72.883 E0.02365
G1 X10.569 Y70.260 E0.08224
G1 X9.815 Y70.260 E0.02365
G1 X9.815 Y73.053 E0.08756
G1 X9.226 Y73.086 F10800.000
G1 F1200
G1 X9.226 Y134.926 E1.57902
G1 X9.712 Y134.926 E0.01240
G1 X9.712 Y73.214 E1.57573
G1 X10.197 Y73.214 E0.01240
G1 X10.197 Y75.057 E0.04705
G1 X10.683 Y75.057 E0.01240
G1 X10.683 Y73.214 E0.04705
G1 X11.169 Y73.214 E0.01240
G1 X11.169 Y75.186 E0.05034
G1 F8640
G1 X11.169 Y73.214 E-0.45520
G1 X10.683 Y73.214 E-0.11213
G1 X10.683 Y74.049 E-0.19267
G1 E-0.04000 F2100.00000
G1 Z0.800 F10800.000
G1 X235.308 Y75.181
G1 Z0.200
G1 E0.80000 F2100.00000
G1 F1200
G1 X235.308 Y70.260 E0.15429
G1 X236.062 Y70.260 E0.02365
G1 X236.062 Y75.011 E0.14897
G1 X236.817 Y75.011 E0.02365
G1 X236.817 Y70.260 E0.14897
G1 X237.571 Y70.260 E0.02365
G1 X237.571 Y75.011 E0.14897
G1 X238.325 Y75.011 E0.02365
G1 X238.325 Y70.260 E0.14897
G1 X239.079 Y70.260 E0.02365
G1 X239.079 Y75.011 E0.14897
G1 X239.600 Y75.011 E0.01633
G1 X239.600 Y72.883 E0.06674
G1 X239.833 Y72.883 E0.00732
G1 X239.833 Y70.260 E0.08224
G1 X240.587 Y70.260 E0.02365
G1 X240.587 Y72.883 E0.08224
G1 X241.341 Y72.883 E0.02365
G1 X241.341 Y70.260 E0.08223
G1 X242.096 Y70.260 E0.02365
G1 X242.096 Y73.053 E0.08755
G1 F8640
G1 X242.096 Y70.260 E-0.64478
G1 X241.597 Y70.260 E-0.11522
G1 E-0.04000 F2100.00000
G1 Z0.800 F10800.000
G1 X241.838 Y135.055
G1 Z0.200
G1 E0.80000 F2100.00000
G1 F1200
G1 X241.838 Y73.214 E1.57902
G1 X241.352 Y73.214 E0.01240
G1 X241.352 Y134.926 E1.57573
G1 X240.866 Y134.926 E0.01240
G1 X240.866 Y73.214 E1.57573
G1 X240.381 Y73.214 E0.01240
G1 X240.381 Y135.055 E1.57902
G1 F8640
G1 X240.381 Y131.763 E-0.76000
G1 E-0.04000 F2100.00000
G1 Z0.800 F10800.000
G1 X245.112 Y138.050
G1 Z0.200
G1 E0.80000 F2100.00000
G1 F1200
G1 X245.112 Y70.260 E2.12550
M73 Q0 S133
G1 X244.358 Y70.260 E0.02365
G1 X244.358 Y137.880 E2.12018
M73 P0 R131
G1 X243.604 Y137.880 E0.02365
G1 X243.604 Y70.260 E2.12018
G1 X242.850 Y70.260 E0.02365
G1 X242.850 Y137.880 E2.12018
G1 X242.096 Y137.880 E0.02365
G1 X242.096 Y135.257 E0.08224
G1 X241.341 Y135.257 E0.02365
G1 X241.341 Y137.880 E0.08224
G1 X240.587 Y137.880 E0.02365
G1 X240.587 Y135.258 E0.08223
G1 X239.833 Y135.258 E0.02365
G1 X239.833 Y137.880 E0.08223
G1 X239.079 Y137.880 E0.02365
G1 X239.079 Y134.989 E0.09067
G1 X238.325 Y134.989 E0.02365
G1 X238.325 Y137.880 E0.09067
G1 X237.571 Y137.880 E0.02365
G1 X237.571 Y134.989 E0.09067
G1 X236.817 Y134.989 E0.02365
G1 X236.817 Y137.880 E0.09067
G1 X236.062 Y137.880 E0.02365
G1 X236.062 Y134.989 E0.09067
G1 X235.308 Y134.989 E0.02365
G1 X235.308 Y138.050 E0.09599
G1 F8640
G1 X235.308 Y134.989 E-0.70689
G1 X235.538 Y134.989 E-0.05311
G1 E-0.04000 F2100.00000
G1 Z0.800 F10800.000
G1 X127.794 Y88.515
G1 Z0.200
G1 E0.80000 F2100.00000
G1 F1200
G1 X127.576 Y88.984 E0.01622
G1 X127.279 Y89.408 E0.01622
G1 X126.913 Y89.773 E0.01622
G1 X126.489 Y90.070 E0.01622
G1 X126.020 Y90.289 E0.01622
G1 X125.521 Y90.423 E0.01622
G1 X125.005 Y90.468 E0.01622
G1 X124.490 Y90.423 E0.01622
G1 X123.990 Y90.289 E0.01622
G1 X123.521 Y90.070 E0.01622
G1 X123.098 Y89.774 E0.01622
G1 X122.732 Y89.408 E0.01622
G1 X122.435 Y88.984 E0.01622
G1 X122.216 Y88.515 E0.01622
G1 X122.083 Y88.015 E0.01622
G1 X122.037 Y87.500 E0.01622
G1 X122.083 Y86.985 E0.01622
G1 X122.216 Y86.485 E0.01622
G1 X122.435 Y86.016 E0.01622
G1 X122.732 Y85.592 E0.01622
G1 X123.098 Y85.226 E0.01622
G1 X123.521 Y84.930 E0.01622
G1 X123.990 Y84.711 E0.01622
G1 X124.490 Y84.577 E0.01622
G1 X124.991 Y84.533 E0.01577
G1 X125.518 Y84.577 E0.01658
G1 X126.020 Y84.711 E0.01631
G1 X126.489 Y84.930 E0.01622
G1 X126.913 Y85.227 E0.01622
G1 X127.279 Y85.592 E0.01622
G1 X127.576 Y86.016 E0.01622
G1 X127.788 Y86.472 E0.01577
G1 X127.928 Y86.982 E0.01658
G1 X127.973 Y87.500 E0.01631
G1 X127.928 Y88.015 E0.01622
G1 X127.810 Y88.457 E0.01434
G1 X127.445 Y88.360 F10800.000
G1 F1200
G1 X127.248 Y88.795 E0.01499
G1 X126.989 Y89.164 E0.01415
G1 X126.670 Y89.484 E0.01415
G1 X126.300 Y89.742 E0.01415
G1 X125.891 Y89.933 E0.01415
G1 X125.455 Y90.050 E0.01415
G1 X125.005 Y90.089 E0.01415
G1 X124.556 Y90.050 E0.01415
G1 X124.120 Y89.933 E0.01415
G1 X123.711 Y89.742 E0.01415
G1 X123.341 Y89.484 E0.01415
G1 X123.022 Y89.164 E0.01415
G1 X122.763 Y88.795 E0.01415
G1 X122.572 Y88.386 E0.01415
G1 X122.455 Y87.950 E0.01415
G1 X122.416 Y87.500 E0.01415
G1 X122.455 Y87.050 E0.01415
G1 X122.572 Y86.614 E0.01415
G1 X122.763 Y86.205 E0.01415
G1 X123.022 Y85.836 E0.01415
G1 X123.341 Y85.516 E0.01415
G1 X123.711 Y85.258 E0.01415
G1 X124.120 Y85.067 E0.01415
G1 X124.556 Y84.950 E0.01415
G1 X124.992 Y84.912 E0.01374
G1 X125.453 Y84.950 E0.01451
G1 X125.891 Y85.067 E0.01420
G1 X126.300 Y85.258 E0.01415
G1 X126.670 Y85.516 E0.01415
G1 X126.989 Y85.836 E0.01415
G1 X127.248 Y86.205 E0.01415
G1 X127.433 Y86.602 E0.01374
G1 X127.555 Y87.049 E0.01451
G1 X127.595 Y87.500 E0.01420
G1 X127.555 Y87.950 E0.01415
G1 X127.461 Y88.302 E0.01142
G1 X127.083 Y88.256 F10800.000
G1 F1200
G1 X126.920 Y88.605 E0.01208
G1 X126.699 Y88.921 E0.01208
G1 X126.426 Y89.194 E0.01208
G1 X126.111 Y89.415 E0.01208
G1 X125.761 Y89.577 E0.01208
G1 X125.389 Y89.677 E0.01208
G1 X125.005 Y89.711 E0.01208
G1 X124.621 Y89.677 E0.01208
G1 X124.249 Y89.577 E0.01208
G1 X123.900 Y89.415 E0.01208
G1 X123.584 Y89.194 E0.01208
G1 X123.312 Y88.921 E0.01208
G1 X123.091 Y88.605 E0.01208
G1 X122.928 Y88.256 E0.01208
G1 X122.828 Y87.884 E0.01208
G1 X122.794 Y87.500 E0.01208
G1 X122.828 Y87.116 E0.01208
G1 X122.928 Y86.744 E0.01208
G1 X123.091 Y86.395 E0.01208
G1 X123.312 Y86.079 E0.01208
G1 X123.584 Y85.806 E0.01208
G1 X123.900 Y85.585 E0.01208
G1 X124.249 Y85.423 E0.01208
G1 X124.621 Y85.323 E0.01208
G1 X124.993 Y85.290 E0.01170
G1 X125.389 Y85.323 E0.01244
G1 X125.761 Y85.423 E0.01210
G1 X126.111 Y85.585 E0.01208
G1 X126.426 Y85.806 E0.01208
G1 X126.699 Y86.079 E0.01208
G1 X126.920 Y86.395 E0.01208
G1 X127.078 Y86.733 E0.01170
G1 X127.182 Y87.116 E0.01244
G1 X127.216 Y87.500 E0.01210
G1 X127.182 Y87.884 E0.01208
G1 X127.098 Y88.198 E0.01020
G1 X127.330 Y88.551 F10800.000
G1 F8640
G1 X126.920 Y88.605 E-0.10265
G1 X126.699 Y88.921 E-0.08898
G1 X126.426 Y89.194 E-0.08898
G1 X126.111 Y89.415 E-0.08898
G1 X125.761 Y89.577 E-0.08898
G1 X125.389 Y89.677 E-0.08898
G1 X125.005 Y89.711 E-0.08898
G1 X124.621 Y89.677 E-0.08898
G1 X124.477 Y89.639 E-0.03447
G1 E-0.04000 F2100.00000
G1 Z0.800 F10800.000
G1 X96.724 Y116.282
G1 Z0.200
G1 E0.80000 F2100.00000
G1 F1200
G1 X96.724 Y130.718 E0.45265
G1 X81.287 Y130.718 E0.48400
G1 X81.287 Y116.282 E0.45265
G1 X96.664 Y116.282 E0.48212
G1 X96.347 Y116.659 F10800.000
G1 F1200
G1 X96.347 Y130.341 E0.42900
G1 X81.664 Y130.341 E0.46036
G1 X81.664 Y116.659 E0.42900
G1 X96.287 Y116.659 E0.45848
G1 X95.969 Y117.036 F10800.000
G1 F1200
G1 X95.969 Y129.964 E0.40536
G1 X82.041 Y129.964 E0.43671
G1 X82.041 Y117.036 E0.40536
G1 X95.909 Y117.036 E0.43483
G1 X95.592 Y117.413 F10800.000
G1 F1200
G1 X95.592 Y129.587 E0.38171
G1 X82.418 Y129.587 E0.41307
G1 X82.418 Y117.413 E0.38171
G1 X95.532 Y117.413 E0.41119
G1 X95.215 Y117.790 F10800.000
G1 F1200
G1 X95.215 Y129.210 E0.35807
G1 X82.795 Y129.210 E0.38942
G1 X82.795 Y117.790 E0.35807
G1 X95.155 Y117.790 E0.38754
G1 X95.603 Y117.692 F10800.000
G1 F8640
G1 X95.173 Y121.081 E-0.76000
G1 E-0.04000 F2100.00000
G1 Z0.800 F10800.000
G1 X71.619 Y121.306
G1 Z0.200
G1 E0.80000 F2100.00000
G1 F1200
G1 X71.724 Y122.262 E0.03013
G1 X71.691 Y123.203 E0.02953
G1 X71.528 Y124.126 E0.02941
G1 X71.238 Y125.018 E0.02941
G1 X70.827 Y125.861 E0.02941
G1 X70.303 Y126.639 E0.02941
G1 X69.675 Y127.336 E0.02941
G1 X68.957 Y127.939 E0.02941
G1 X68.161 Y128.436 E0.02941
G1 X67.305 Y128.817 E0.02941
G1 X66.403 Y129.076 E0.02941
G1 X65.474 Y129.206 E0.02941
G1 X64.536 Y129.206 E0.02941
G1 X63.608 Y129.076 E0.02941
G1 X62.706 Y128.817 E0.02941
G1 X61.849 Y128.436 E0.02941
G1 X61.054 Y127.939 E0.02941
G1 X60.335 Y127.336 E0.02941
G1 X59.708 Y126.639 E0.02941
G1 X59.183 Y125.861 E0.02941
G1 X58.784 Y125.043 E0.02856
G1 X58.483 Y124.130 E0.03013
G1 X58.320 Y123.203 E0.02953
G1 X58.287 Y122.265 E0.02941
G1 X58.385 Y121.333 E0.02941
G1 X58.612 Y120.423 E0.02941
G1 X58.963 Y119.553 E0.02941
G1 X59.432 Y118.741 E0.02941
G1 X60.009 Y118.002 E0.02941
G1 X60.684 Y117.350 E0.02941
G1 X61.443 Y116.799 E0.02941
G1 X62.271 Y116.359 E0.02941
G1 X63.152 Y116.038 E0.02941
G1 X64.070 Y115.843 E0.02941
G1 X64.978 Y115.779 E0.02856
G1 X65.937 Y115.842 E0.03013
G1 X66.858 Y116.038 E0.02953
G1 X67.740 Y116.359 E0.02941
G1 X68.568 Y116.799 E0.02941
G1 X69.326 Y117.350 E0.02941
G1 X70.001 Y118.002 E0.02941
G1 X70.562 Y118.719 E0.02856
G1 X71.046 Y119.549 E0.03013
G1 X71.399 Y120.423 E0.02953
G1 X71.605 Y121.248 E0.02667
G1 X71.239 Y121.339 F10800.000
G1 F1200
G1 X71.346 Y122.276 E0.02955
G1 X71.315 Y123.163 E0.02785
G1 X71.161 Y124.035 E0.02775
G1 X70.888 Y124.877 E0.02775
G1 X70.500 Y125.672 E0.02775
G1 X70.005 Y126.406 E0.02775
G1 X69.413 Y127.064 E0.02775
G1 X68.734 Y127.633 E0.02775
G1 X67.984 Y128.102 E0.02775
G1 X67.175 Y128.462 E0.02775
G1 X66.324 Y128.706 E0.02775
G1 X65.448 Y128.829 E0.02775
G1 X64.563 Y128.829 E0.02775
G1 X63.686 Y128.706 E0.02775
G1 X62.835 Y128.462 E0.02775
G1 X62.027 Y128.102 E0.02775
G1 X61.276 Y127.633 E0.02775
G1 X60.598 Y127.064 E0.02775
G1 X60.006 Y126.406 E0.02775
G1 X59.511 Y125.672 E0.02775
G1 X59.134 Y124.900 E0.02693
G1 X58.850 Y124.038 E0.02848
G1 X58.696 Y123.163 E0.02785
G1 X58.665 Y122.279 E0.02775
G1 X58.757 Y121.398 E0.02775
G1 X58.971 Y120.539 E0.02775
G1 X59.303 Y119.719 E0.02775
G1 X59.745 Y118.952 E0.02775
G1 X60.290 Y118.255 E0.02775
G1 X60.927 Y117.640 E0.02775
G1 X61.643 Y117.120 E0.02775
G1 X62.425 Y116.704 E0.02775
G1 X63.256 Y116.401 E0.02775
G1 X64.122 Y116.217 E0.02775
G1 X64.979 Y116.157 E0.02693
G1 X65.885 Y116.217 E0.02848
G1 X66.754 Y116.401 E0.02785
G1 X67.586 Y116.704 E0.02775
G1 X68.367 Y117.120 E0.02775
G1 X69.083 Y117.640 E0.02775
G1 X69.720 Y118.255 E0.02775
G1 X70.249 Y118.931 E0.02693
G1 X70.707 Y119.716 E0.02848
G1 X71.039 Y120.539 E0.02785
G1 X71.224 Y121.281 E0.02397
G1 X70.858 Y121.372 F10800.000
G1 F1200
G1 X70.968 Y122.290 E0.02897
G1 X70.939 Y123.124 E0.02617
G1 X70.795 Y123.943 E0.02610
G1 X70.537 Y124.735 E0.02610
G1 X70.172 Y125.483 E0.02610
G1 X69.707 Y126.173 E0.02610
G1 X69.150 Y126.792 E0.02610
G1 X68.512 Y127.327 E0.02610
G1 X67.806 Y127.768 E0.02610
G1 X67.046 Y128.107 E0.02610
G1 X66.246 Y128.336 E0.02610
G1 X65.421 Y128.452 E0.02610
G1 X64.589 Y128.452 E0.02610
G1 X63.765 Y128.336 E0.02610
G1 X62.965 Y128.107 E0.02610
G1 X62.204 Y127.768 E0.02610
G1 X61.498 Y127.327 E0.02610
G1 X60.861 Y126.792 E0.02610
G1 X60.304 Y126.173 E0.02610
G1 X59.838 Y125.483 E0.02610
G1 X59.484 Y124.758 E0.02530
G1 X59.216 Y123.946 E0.02682
G1 X59.071 Y123.124 E0.02617
G1 X59.042 Y122.292 E0.02610
G1 X59.129 Y121.464 E0.02610
G1 X59.331 Y120.656 E0.02610
G1 X59.643 Y119.884 E0.02610
G1 X60.059 Y119.164 E0.02610
G1 X60.571 Y118.508 E0.02610
G1 X61.170 Y117.929 E0.02610
G1 X61.844 Y117.440 E0.02610
G1 X62.578 Y117.049 E0.02610
G1 X63.361 Y116.765 E0.02610
G1 X64.175 Y116.592 E0.02610
G1 X64.980 Y116.535 E0.02530
G1 X65.834 Y116.591 E0.02682
G1 X66.650 Y116.765 E0.02617
G1 X67.432 Y117.049 E0.02610
G1 X68.167 Y117.440 E0.02610
G1 X68.840 Y117.929 E0.02610
G1 X69.439 Y118.508 E0.02610
G1 X69.936 Y119.144 E0.02530
G1 X70.367 Y119.882 E0.02682
G1 X70.680 Y120.656 E0.02617
G1 X70.844 Y121.314 E0.02126
G1 X70.478 Y121.405 F10800.000
G1 F1200
G1 X70.590 Y122.304 E0.02839
G1 X70.563 Y123.084 E0.02449
G1 X70.428 Y123.852 E0.02445
G1 X70.187 Y124.594 E0.02445
G1 X69.845 Y125.294 E0.02445
G1 X69.409 Y125.941 E0.02445
G1 X68.887 Y126.520 E0.02445
G1 X68.290 Y127.021 E0.02445
G1 X67.629 Y127.434 E0.02445
G1 X66.917 Y127.751 E0.02445
G1 X66.167 Y127.966 E0.02445
G1 X65.395 Y128.075 E0.02445
G1 X64.615 Y128.075 E0.02445
G1 X63.843 Y127.966 E0.02445
G1 X63.094 Y127.751 E0.02445
G1 X62.382 Y127.434 E0.02445
G1 X61.720 Y127.021 E0.02445
G1 X61.123 Y126.520 E0.02445
G1 X60.601 Y125.941 E0.02445
G1 X60.165 Y125.294 E0.02445
G1 X59.834 Y124.616 E0.02368
G1 X59.583 Y123.853 E0.02517
G1 X59.447 Y123.084 E0.02449
G1 X59.420 Y122.305 E0.02445
G1 X59.502 Y121.530 E0.02445
G1 X59.690 Y120.773 E0.02445
G1 X59.982 Y120.050 E0.02445
G1 X60.372 Y119.375 E0.02445
G1 X60.852 Y118.761 E0.02445
G1 X61.413 Y118.219 E0.02445
G1 X62.044 Y117.761 E0.02445
G1 X62.732 Y117.395 E0.02445
G1 X63.465 Y117.128 E0.02445
G1 X64.228 Y116.966 E0.02445
G1 X64.981 Y116.913 E0.02368
G1 X65.782 Y116.966 E0.02517
G1 X66.546 Y117.128 E0.02449
G1 X67.278 Y117.395 E0.02445
G1 X67.967 Y117.761 E0.02445
G1 X68.598 Y118.219 E0.02445
G1 X69.158 Y118.761 E0.02445
G1 X69.623 Y119.356 E0.02368
G1 X70.028 Y120.049 E0.02517
G1 X70.320 Y120.773 E0.02449
G1 X70.463 Y121.347 E0.01855
G1 X70.098 Y121.438 F10800.000
G1 F1200
G1 X70.131 Y121.572 E0.00432
G1 X70.213 Y122.318 E0.02351
G1 X70.187 Y123.045 E0.02281
G1 X70.061 Y123.761 E0.02279
G1 X69.836 Y124.452 E0.02279
G1 X69.518 Y125.105 E0.02279
G1 X69.111 Y125.708 E0.02279
G1 X68.625 Y126.248 E0.02279
G1 X68.068 Y126.715 E0.02279
G1 X67.451 Y127.101 E0.02279
G1 X66.787 Y127.396 E0.02279
G1 X66.089 Y127.597 E0.02279
G1 X65.369 Y127.698 E0.02279
G1 X64.642 Y127.698 E0.02279
G1 X63.922 Y127.597 E0.02279
G1 X63.223 Y127.396 E0.02279
G1 X62.559 Y127.101 E0.02279
G1 X61.943 Y126.715 E0.02279
G1 X61.386 Y126.248 E0.02279
G1 X60.899 Y125.708 E0.02279
