; generated by PrusaSlicer 2.0.0+win64 on 2020-06-03 at 00:51:15

; 

; external perimeters extrusion width = 0.60mm
; perimeters extrusion width = 0.50mm
; infill extrusion width = 0.50mm
; solid infill extrusion width = 0.50mm
; top infill extrusion width = 0.45mm
; support material extrusion width = 0.35mm
; first layer extrusion width = 0.42mm

M73 P0 R209
M73 Q0 S212
M201 X1000 Y1000 Z1000 E5000 ; sets maximum accelerations, mm/sec^2
M203 X200 Y200 Z12 E120 ; sets maximum feedrates, mm/sec
M204 P1250 R1250 T1250 ; sets acceleration (P, T) and retract acceleration (R), mm/sec^2
M205 X8.00 Y8.00 Z0.40 E1.50 ; sets the jerk limits, mm/sec
M205 S0 T0 ; sets the minimum extruding and travel feed rate, mm/sec
M107
M115 U3.8.0 ; tell printer latest fw version
G90 ; use absolute coordinates
M83 ; extruder relative mode
M104 S215 ; set extruder temp
M140 S67 ; set bed temp
M190 S67 ; wait for bed temp
M109 S215 ; wait for extruder temp
G28 W ; home all without mesh bed level
G80 ; mesh bed leveling
G1 Y-3.0 F1000.0 ; go outside print area
G92 E0.0
G1 X60.0 E9.0 F1000.0 ; intro line
M73 Q0 S212
M73 P0 R209
G1 X100.0 E12.5 F1000.0 ; intro line
G92 E0.0
M221 S95
M900 K30 ; Filament gcode
G21 ; set units to millimeters
G90 ; use absolute coordinates
M83 ; use relative distances for extrusion
;BEFORE_LAYER_CHANGE
G92 E0.0
;0.2


G1 E-0.80000 F2100.00000
G1 Z0.600 F10800.000
;AFTER_LAYER_CHANGE
;0.2
G1 X9.517 Y71.612
G1 Z0.200
G1 E0.80000 F2100.00000
M204 S1000
G1 F1200
G1 X9.517 Y72.904 E0.04049
G1 X9.529 Y73.039 E0.00428
G1 X9.642 Y73.462 E0.01372
G1 X9.827 Y73.858 E0.01372
G1 X10.078 Y74.217 E0.01372
G1 X10.271 Y74.410 E0.00857
G1 X10.271 Y70.797 E0.11328
G1 X10.387 Y70.681 E0.00515
G1 X10.745 Y70.430 E0.01372
G1 X11.025 Y70.300 E0.00968
G1 X11.025 Y74.908 E0.14447
G1 X11.142 Y74.962 E0.00404
G1 X11.564 Y75.075 E0.01372
G1 X11.779 Y75.094 E0.00676
G1 X11.779 Y70.113 E0.15616
G1 X12.000 Y70.094 E0.00695
G1 X12.436 Y70.132 E0.01372
G1 X12.533 Y70.158 E0.00316
G1 X12.533 Y75.049 E0.15334
G1 X12.858 Y74.962 E0.01055
G1 X13.287 Y74.754 E0.01495
G1 X13.287 Y70.453 E0.13486
G1 X13.613 Y70.681 E0.01247
G1 X13.922 Y70.991 E0.01372
G1 X14.042 Y71.161 E0.00651
G1 X14.042 Y74.338 E0.09961
G1 F8640
G1 X14.042 Y71.161 E-0.73357
G1 X13.976 Y71.067 E-0.02643
G1 E-0.04000 F2100.00000
G1 Z0.800 F10800.000
G1 X22.337 Y129.423
G1 Z0.200
G1 E0.80000 F2100.00000
G1 F1200
G1 X22.337 Y145.776 E0.51275
G1 X23.091 Y145.776 E0.02365
G1 X23.091 Y129.592 E0.50743
G1 X23.846 Y129.592 E0.02365
G1 X23.846 Y145.776 E0.50743
G1 X24.600 Y145.776 E0.02365
G1 X24.600 Y129.592 E0.50743
G1 X25.354 Y129.592 E0.02365
G1 X25.354 Y145.776 E0.50743
G1 X26.108 Y145.776 E0.02365
G1 X26.108 Y129.592 E0.50743
G1 X26.862 Y129.592 E0.02365
G1 X26.862 Y145.776 E0.50743
G1 X27.616 Y145.776 E0.02365
G1 X27.616 Y129.592 E0.50743
G1 X28.371 Y129.592 E0.02365
G1 X28.371 Y145.776 E0.50743
G1 X29.125 Y145.776 E0.02365
G1 X29.125 Y129.592 E0.50743
G1 X29.879 Y129.592 E0.02365
G1 X29.879 Y145.776 E0.50743
G1 X30.633 Y145.776 E0.02365
G1 X30.633 Y129.592 E0.50743
G1 X31.387 Y129.592 E0.02365
G1 X31.387 Y145.776 E0.50743
G1 X32.141 Y145.776 E0.02365
G1 X32.141 Y129.592 E0.50743
G1 X32.896 Y129.592 E0.02365
G1 X32.896 Y145.776 E0.50743
G1 X33.650 Y145.776 E0.02365
G1 X33.650 Y129.592 E0.50743
G1 X34.404 Y129.592 E0.02365
G1 X34.404 Y145.776 E0.50743
G1 X35.158 Y145.776 E0.02365
G1 X35.158 Y129.592 E0.50743
G1 X35.912 Y129.592 E0.02365
G1 X35.912 Y145.776 E0.50743
G1 X36.666 Y145.776 E0.02365
G1 X36.666 Y129.592 E0.50743
G1 X37.421 Y129.592 E0.02365
G1 X37.421 Y145.776 E0.50743
G1 X38.175 Y145.776 E0.02365
G1 X38.175 Y129.592 E0.50743
G1 X38.929 Y129.592 E0.02365
G1 X38.929 Y145.776 E0.50743
G1 X39.683 Y145.776 E0.02365
G1 X39.683 Y129.592 E0.50743
G1 X40.437 Y129.592 E0.02365
G1 X40.437 Y145.776 E0.50743
G1 X41.191 Y145.776 E0.02365
G1 X41.191 Y129.592 E0.50743
G1 X41.945 Y129.592 E0.02365
G1 X41.945 Y145.776 E0.50743
G1 X42.700 Y145.776 E0.02365
G1 X42.700 Y129.592 E0.50743
G1 X43.454 Y129.592 E0.02365
G1 X43.454 Y145.776 E0.50743
G1 X44.208 Y145.776 E0.02365
G1 X44.208 Y129.592 E0.50743
G1 X44.962 Y129.592 E0.02365
G1 X44.962 Y145.776 E0.50743
G1 X45.716 Y145.776 E0.02365
G1 X45.716 Y129.592 E0.50743
G1 X46.470 Y129.592 E0.02365
G1 X46.470 Y145.776 E0.50743
G1 X47.225 Y145.776 E0.02365
G1 X47.225 Y129.592 E0.50743
G1 X47.979 Y129.592 E0.02365
G1 X47.979 Y145.946 E0.51275
G1 F8640
G1 X47.979 Y142.654 E-0.76000
G1 E-0.04000 F2100.00000
G1 Z0.800 F10800.000
G1 X111.328 Y129.423
G1 Z0.200
G1 E0.80000 F2100.00000
G1 F1200
G1 X111.328 Y145.776 E0.51275
G1 X112.082 Y145.776 E0.02365
G1 X112.082 Y129.592 E0.50743
G1 X112.836 Y129.592 E0.02365
G1 X112.836 Y145.776 E0.50743
G1 X113.591 Y145.776 E0.02365
G1 X113.591 Y129.592 E0.50743
G1 X114.345 Y129.592 E0.02365
G1 X114.345 Y145.776 E0.50743
G1 X115.099 Y145.776 E0.02365
G1 X115.099 Y129.592 E0.50743
G1 X115.853 Y129.592 E0.02365
G1 X115.853 Y145.776 E0.50743
G1 X116.607 Y145.776 E0.02365
G1 X116.607 Y129.592 E0.50743
G1 X117.361 Y129.592 E0.02365
G1 X117.361 Y145.776 E0.50743
G1 X118.116 Y145.776 E0.02365
G1 X118.116 Y129.592 E0.50743
G1 X118.870 Y129.592 E0.02365
G1 X118.870 Y145.776 E0.50743
G1 X119.624 Y145.776 E0.02365
G1 X119.624 Y129.592 E0.50743
G1 X120.378 Y129.592 E0.02365
G1 X120.378 Y145.776 E0.50743
G1 X121.132 Y145.776 E0.02365
G1 X121.132 Y129.592 E0.50743
G1 X121.886 Y129.592 E0.02365
G1 X121.886 Y145.776 E0.50743
G1 X122.640 Y145.776 E0.02365
G1 X122.640 Y129.592 E0.50743
G1 X123.395 Y129.592 E0.02365
G1 X123.395 Y145.776 E0.50743
G1 X124.149 Y145.776 E0.02365
G1 X124.149 Y129.592 E0.50743
G1 X124.903 Y129.592 E0.02365
G1 X124.903 Y145.776 E0.50743
G1 X125.657 Y145.776 E0.02365
G1 X125.657 Y129.592 E0.50743
G1 X126.411 Y129.592 E0.02365
G1 X126.411 Y145.776 E0.50743
G1 X127.165 Y145.776 E0.02365
G1 X127.165 Y129.592 E0.50743
G1 X127.920 Y129.592 E0.02365
G1 X127.920 Y145.776 E0.50743
G1 X128.674 Y145.776 E0.02365
G1 X128.674 Y129.592 E0.50743
G1 X129.428 Y129.592 E0.02365
G1 X129.428 Y145.776 E0.50743
G1 X130.182 Y145.776 E0.02365
G1 X130.182 Y129.592 E0.50743
G1 X130.936 Y129.592 E0.02365
G1 X130.936 Y145.776 E0.50743
M73 Q0 S211
M73 P0 R208
G1 X131.690 Y145.776 E0.02365
G1 X131.690 Y129.592 E0.50743
G1 X132.445 Y129.592 E0.02365
G1 X132.445 Y145.776 E0.50743
G1 X133.199 Y145.776 E0.02365
G1 X133.199 Y129.592 E0.50743
G1 X133.953 Y129.592 E0.02365
G1 X133.953 Y145.776 E0.50743
G1 X134.707 Y145.776 E0.02365
G1 X134.707 Y129.592 E0.50743
G1 X135.461 Y129.592 E0.02365
G1 X135.461 Y145.776 E0.50743
G1 X136.215 Y145.776 E0.02365
G1 X136.215 Y129.592 E0.50743
G1 X136.970 Y129.592 E0.02365
G1 X136.969 Y145.946 E0.51275
G1 F8640
G1 X136.969 Y142.654 E-0.76000
G1 E-0.04000 F2100.00000
G1 Z0.800 F10800.000
G1 X202.581 Y129.423
G1 Z0.200
G1 E0.80000 F2100.00000
G1 F1200
G1 X202.581 Y145.776 E0.51275
G1 X203.335 Y145.776 E0.02365
G1 X203.335 Y129.592 E0.50743
G1 X204.090 Y129.592 E0.02365
G1 X204.090 Y145.776 E0.50743
G1 X204.844 Y145.776 E0.02365
G1 X204.844 Y129.592 E0.50743
G1 X205.598 Y129.592 E0.02365
G1 X205.598 Y145.776 E0.50743
G1 X206.352 Y145.776 E0.02365
G1 X206.352 Y129.592 E0.50743
G1 X207.106 Y129.592 E0.02365
G1 X207.106 Y145.776 E0.50743
G1 X207.860 Y145.776 E0.02365
G1 X207.860 Y129.592 E0.50743
G1 X208.615 Y129.592 E0.02365
G1 X208.615 Y145.776 E0.50743
G1 X209.369 Y145.776 E0.02365
G1 X209.369 Y129.592 E0.50743
G1 X210.123 Y129.592 E0.02365
G1 X210.123 Y145.776 E0.50743
G1 X210.877 Y145.776 E0.02365
G1 X210.877 Y129.592 E0.50743
G1 X211.631 Y129.592 E0.02365
G1 X211.631 Y145.776 E0.50743
G1 X212.385 Y145.776 E0.02365
G1 X212.385 Y129.592 E0.50743
G1 X213.140 Y129.592 E0.02365
G1 X213.140 Y145.776 E0.50743
G1 X213.894 Y145.776 E0.02365
G1 X213.894 Y129.592 E0.50743
G1 X214.648 Y129.592 E0.02365
G1 X214.648 Y145.776 E0.50743
G1 X215.402 Y145.776 E0.02365
G1 X215.402 Y129.592 E0.50743
G1 X216.156 Y129.592 E0.02365
G1 X216.156 Y145.776 E0.50743
G1 X216.910 Y145.776 E0.02365
G1 X216.910 Y129.592 E0.50743
G1 X217.665 Y129.592 E0.02365
G1 X217.665 Y145.776 E0.50743
G1 X218.419 Y145.776 E0.02365
G1 X218.419 Y129.592 E0.50743
G1 X219.173 Y129.592 E0.02365
G1 X219.173 Y145.776 E0.50743
G1 X219.927 Y145.776 E0.02365
G1 X219.927 Y129.592 E0.50743
G1 X220.681 Y129.592 E0.02365
G1 X220.681 Y145.776 E0.50743
G1 X221.435 Y145.776 E0.02365
G1 X221.435 Y129.592 E0.50743
G1 X222.189 Y129.592 E0.02365
G1 X222.189 Y145.776 E0.50743
G1 X222.944 Y145.776 E0.02365
G1 X222.944 Y129.592 E0.50743
G1 X223.698 Y129.592 E0.02365
G1 X223.698 Y145.776 E0.50743
G1 X224.452 Y145.776 E0.02365
G1 X224.452 Y129.592 E0.50743
G1 X225.206 Y129.592 E0.02365
G1 X225.206 Y145.776 E0.50743
G1 X225.960 Y145.776 E0.02365
G1 X225.960 Y129.592 E0.50743
G1 X226.714 Y129.592 E0.02365
G1 X226.714 Y145.776 E0.50743
G1 X227.469 Y145.776 E0.02365
G1 X227.469 Y129.592 E0.50743
G1 X228.223 Y129.592 E0.02365
G1 X228.223 Y145.946 E0.51275
G1 F8640
G1 X228.223 Y142.654 E-0.76000
G1 E-0.04000 F2100.00000
G1 Z0.800 F10800.000
G1 X240.289 Y73.989
G1 Z0.200
G1 E0.80000 F2100.00000
G1 F1200
G1 X240.289 Y71.597 E0.07498
G1 X240.173 Y71.349 E0.00860
G1 X239.922 Y70.991 E0.01372
G1 X239.613 Y70.681 E0.01372
G1 X239.535 Y70.627 E0.00299
G1 X239.535 Y74.581 E0.12398
G1 X239.255 Y74.777 E0.01073
G1 X238.781 Y74.983 E0.01619
G1 X238.781 Y70.225 E0.14918
G1 X238.436 Y70.132 E0.01121
G1 X238.027 Y70.096 E0.01287
G1 X238.027 Y75.111 E0.15723
G1 X237.564 Y75.075 E0.01455
G1 X237.273 Y74.997 E0.00946
G1 X237.273 Y70.210 E0.15008
G1 X237.142 Y70.245 E0.00425
G1 X236.745 Y70.430 E0.01372
G1 X236.518 Y70.589 E0.00868
G1 X236.518 Y74.618 E0.12633
G1 X236.387 Y74.526 E0.00504
G1 X236.078 Y74.217 E0.01372
G1 X235.827 Y73.858 E0.01372
G1 X235.764 Y73.725 E0.00462
G1 X235.764 Y71.142 E0.08098
G1 F8640
G1 X235.764 Y73.725 E-0.59640
G1 X235.827 Y73.858 E-0.03403
G1 X236.078 Y74.217 E-0.10101
G1 X236.165 Y74.304 E-0.02856
G1 E-0.04000 F2100.00000
G1 Z0.800 F10800.000
G1 X15.968 Y72.604
G1 Z0.200
G1 E0.80000 F2100.00000
G1 F1200
G1 X15.908 Y73.293 E0.02169
G1 X15.729 Y73.961 E0.02169
G1 X15.436 Y74.588 E0.02169
G1 X15.040 Y75.154 E0.02169
G1 X14.550 Y75.643 E0.02168
G1 X13.984 Y76.040 E0.02169
G1 X13.357 Y76.332 E0.02169
G1 X12.689 Y76.511 E0.02168
G1 X12.000 Y76.572 E0.02169
G1 X11.311 Y76.511 E0.02169
G1 X10.643 Y76.332 E0.02168
G1 X10.016 Y76.040 E0.02169
G1 X9.450 Y75.643 E0.02169
G1 X8.960 Y75.154 E0.02168
G1 X8.564 Y74.588 E0.02169
G1 X8.271 Y73.961 E0.02169
G1 X8.100 Y73.322 E0.02074
G1 X8.032 Y72.608 E0.02249
G1 X8.092 Y71.915 E0.02181
G1 X8.271 Y71.247 E0.02169
G1 X8.564 Y70.620 E0.02169
G1 X8.960 Y70.053 E0.02169
G1 X9.450 Y69.564 E0.02168
G1 X10.016 Y69.167 E0.02169
G1 X10.643 Y68.875 E0.02169
G1 X11.311 Y68.696 E0.02169
G1 X11.970 Y68.638 E0.02074
G1 X12.685 Y68.695 E0.02249
G1 X13.357 Y68.875 E0.02181
G1 X13.984 Y69.167 E0.02169
G1 X14.550 Y69.564 E0.02169
G1 X15.040 Y70.053 E0.02168
G1 X15.436 Y70.620 E0.02169
G1 X15.729 Y71.247 E0.02169
G1 X15.908 Y71.915 E0.02169
G1 X15.963 Y72.544 E0.01980
G1 X15.587 Y72.577 F10800.000
G1 F1200
G1 X15.535 Y73.227 E0.02045
G1 X15.373 Y73.831 E0.01962
G1 X15.108 Y74.398 E0.01962
G1 X14.750 Y74.911 E0.01962
G1 X14.307 Y75.353 E0.01962
G1 X13.795 Y75.712 E0.01962
G1 X13.228 Y75.977 E0.01962
G1 X12.623 Y76.138 E0.01962
G1 X12.000 Y76.193 E0.01962
G1 X11.377 Y76.138 E0.01962
G1 X10.772 Y75.977 E0.01962
G1 X10.205 Y75.712 E0.01962
G1 X9.693 Y75.353 E0.01962
G1 X9.250 Y74.911 E0.01962
G1 X8.892 Y74.398 E0.01962
G1 X8.627 Y73.831 E0.01962
G1 X8.473 Y73.255 E0.01872
G1 X8.410 Y72.606 E0.02042
G1 X8.465 Y71.980 E0.01969
G1 X8.627 Y71.376 E0.01962
G1 X8.892 Y70.809 E0.01962
G1 X9.250 Y70.297 E0.01962
G1 X9.693 Y69.854 E0.01962
G1 X10.205 Y69.495 E0.01962
G1 X10.772 Y69.231 E0.01962
G1 X11.377 Y69.069 E0.01962
G1 X11.972 Y69.017 E0.01872
G1 X12.621 Y69.068 E0.02043
G1 X13.228 Y69.231 E0.01969
G1 X13.795 Y69.495 E0.01962
G1 X14.307 Y69.854 E0.01962
G1 X14.750 Y70.297 E0.01962
G1 X15.108 Y70.809 E0.01962
G1 X15.373 Y71.376 E0.01962
G1 X15.535 Y71.980 E0.01962
G1 X15.582 Y72.517 E0.01689
G1 X15.206 Y72.550 F10800.000
G1 F1200
G1 X15.162 Y73.161 E0.01922
G1 X15.017 Y73.702 E0.01755
G1 X14.781 Y74.209 E0.01755
G1 X14.460 Y74.668 E0.01755
G1 X14.064 Y75.063 E0.01755
G1 X13.605 Y75.384 E0.01755
G1 X13.098 Y75.621 E0.01755
G1 X12.558 Y75.766 E0.01755
G1 X12.000 Y75.814 E0.01755
G1 X11.442 Y75.766 E0.01755
G1 X10.902 Y75.621 E0.01755
G1 X10.395 Y75.384 E0.01755
G1 X9.936 Y75.063 E0.01755
G1 X9.540 Y74.668 E0.01755
G1 X9.219 Y74.209 E0.01755
G1 X8.983 Y73.702 E0.01755
G1 X8.845 Y73.187 E0.01670
G1 X8.789 Y72.605 E0.01836
G1 X8.838 Y72.046 E0.01758
G1 X8.983 Y71.506 E0.01755
G1 X9.219 Y70.998 E0.01755
G1 X9.540 Y70.540 E0.01755
G1 X9.936 Y70.144 E0.01755
G1 X10.395 Y69.823 E0.01755
G1 X10.902 Y69.587 E0.01755
G1 X11.442 Y69.442 E0.01755
G1 X11.973 Y69.395 E0.01670
G1 X12.557 Y69.441 E0.01836
G1 X13.098 Y69.587 E0.01758
G1 X13.605 Y69.823 E0.01755
G1 X14.064 Y70.144 E0.01755
G1 X14.460 Y70.540 E0.01755
G1 X14.781 Y70.998 E0.01755
G1 X15.017 Y71.506 E0.01755
G1 X15.162 Y72.046 E0.01755
G1 X15.201 Y72.490 E0.01397
G1 X15.555 Y72.746 F10800.000
G1 F8640
G1 X15.162 Y73.161 E-0.15522
G1 X15.017 Y73.702 E-0.12923
G1 X14.781 Y74.209 E-0.12923
G1 X14.460 Y74.668 E-0.12923
G1 X14.064 Y75.063 E-0.12923
G1 X13.752 Y75.282 E-0.08785
G1 E-0.04000 F2100.00000
G1 Z0.800 F10800.000
G1 X8.833 Y69.115
G1 Z0.200
G1 E0.80000 F2100.00000
G1 F1200
G1 X8.381 Y69.567 E0.02004
G1 X8.218 Y69.798 E0.00887
G1 X8.218 Y69.115 E0.02144
G1 X8.773 Y69.115 E0.01738
G1 F8640
G1 X8.381 Y69.567 E-0.13814
G1 X8.218 Y69.798 E-0.06531
G1 X8.218 Y69.115 E-0.15786
G1 X8.773 Y69.115 E-0.12797
G1 E-0.31072 F2100.00000
G1 Z0.800 F10800.000
G1 X7.841 Y68.738
G1 Z0.200
G1 E0.80000 F2100.00000
G1 F1200
G1 X10.046 Y68.738 E0.06912
G1 X9.827 Y68.840 E0.00758
G1 X9.206 Y69.274 E0.02375
G1 X8.671 Y69.810 E0.02375
G1 X8.236 Y70.431 E0.02376
G1 X7.916 Y71.117 E0.02375
G1 X7.841 Y71.395 E0.00903
G1 X7.841 Y68.798 E0.08145
G1 F8640
G1 X10.046 Y68.738 E-0.50922
G1 X9.827 Y68.840 E-0.05579
G1 X9.206 Y69.274 E-0.17493
G1 X9.145 Y69.336 E-0.02006
G1 E-0.04000 F2100.00000
G1 Z0.800 F10800.000
G1 X8.218 Y75.409
G1 Z0.200
G1 E0.80000 F2100.00000
G1 F1200
G1 X8.381 Y75.641 E0.00887
G1 X8.963 Y76.223 E0.02582
G1 X9.638 Y76.696 E0.02583
G1 X10.384 Y77.044 E0.02582
G1 X11.179 Y77.257 E0.02582
G1 X12.000 Y77.329 E0.02582
G1 X12.821 Y77.257 E0.02582
G1 X13.616 Y77.044 E0.02582
G1 X14.362 Y76.696 E0.02582
G1 X15.037 Y76.223 E0.02583
G1 X15.619 Y75.641 E0.02582
G1 X16.092 Y74.966 E0.02582
G1 X16.440 Y74.220 E0.02582
G1 X16.653 Y73.424 E0.02582
G1 X16.725 Y72.604 E0.02582
G1 X16.653 Y71.783 E0.02582
G1 X16.440 Y70.988 E0.02582
G1 X16.092 Y70.241 E0.02582
G1 X15.619 Y69.567 E0.02582
G1 X15.167 Y69.115 E0.02004
G1 X234.833 Y69.115 E6.88744
M73 Q0 S210
G1 X234.381 Y69.567 E0.02004
G1 X233.908 Y70.241 E0.02583
G1 X233.560 Y70.988 E0.02582
G1 X233.347 Y71.783 E0.02582
G1 X233.275 Y72.604 E0.02582
G1 X233.347 Y73.424 E0.02582
G1 X233.560 Y74.220 E0.02582
G1 X233.908 Y74.966 E0.02582
G1 X234.381 Y75.641 E0.02582
G1 X234.963 Y76.223 E0.02582
G1 X235.638 Y76.696 E0.02582
G1 X236.384 Y77.044 E0.02582
G1 X237.180 Y77.257 E0.02582
G1 X238.000 Y77.329 E0.02582
G1 X238.820 Y77.257 E0.02582
G1 X239.616 Y77.044 E0.02582
G1 X240.362 Y76.696 E0.02582
M73 P0 R207
G1 X241.037 Y76.223 E0.02582
G1 X241.619 Y75.641 E0.02582
G1 X241.782 Y75.409 E0.00887
G1 X241.782 Y127.385 E1.62968
G1 X8.218 Y127.385 E7.32322
G1 X8.218 Y75.469 E1.62780
G1 F8640
G1 X8.381 Y75.641 E-0.05454
G1 X8.963 Y76.223 E-0.19016
G1 X9.638 Y76.696 E-0.19018
G1 X10.384 Y77.044 E-0.19017
G1 X10.949 Y77.195 E-0.13494
G1 E-0.04000 F2100.00000
G1 Z0.800 F10800.000
G1 X7.841 Y73.812
G1 Z0.200
G1 E0.80000 F2100.00000
G1 F1200
G1 X7.916 Y74.090 E0.00903
G1 X8.236 Y74.777 E0.02376
G1 X8.671 Y75.397 E0.02375
G1 X9.206 Y75.933 E0.02375
G1 X9.827 Y76.368 E0.02376
G1 X10.513 Y76.688 E0.02375
G1 X11.245 Y76.884 E0.02375
G1 X12.000 Y76.950 E0.02376
G1 X12.755 Y76.884 E0.02376
G1 X13.487 Y76.688 E0.02375
G1 X14.173 Y76.368 E0.02375
G1 X14.794 Y75.933 E0.02376
G1 X15.329 Y75.397 E0.02375
