; generated by PrusaSlicer 2.0.0+win64 on 2020-05-24 at 13:44:37

; 

; external perimeters extrusion width = 0.45mm
; perimeters extrusion width = 0.45mm
; infill extrusion width = 0.45mm
; solid infill extrusion width = 0.45mm
; top infill extrusion width = 0.40mm
; support material extrusion width = 0.35mm
; first layer extrusion width = 0.42mm

; external perimeters extrusion width = 0.45mm
; perimeters extrusion width = 0.45mm
; infill extrusion width = 0.45mm
; solid infill extrusion width = 0.45mm
; top infill extrusion width = 0.40mm
; support material extrusion width = 0.35mm
; first layer extrusion width = 0.42mm

M73 P0 R162
M73 Q0 S163
M201 X1000 Y1000 Z1000 E5000 ; sets maximum accelerations, mm/sec^2
M203 X200 Y200 Z12 E120 ; sets maximum feedrates, mm/sec
M204 P1250 R1250 T1250 ; sets acceleration (P, T) and retract acceleration (R), mm/sec^2
M205 X8.00 Y8.00 Z0.40 E1.50 ; sets the jerk limits, mm/sec
M205 S0 T0 ; sets the minimum extruding and travel feed rate, mm/sec
M107
M115 U3.8.0 ; tell printer latest fw version
G90 ; use absolute coordinates
M83 ; extruder relative mode
M104 S215 ; set extruder temp
M140 S67 ; set bed temp
M190 S67 ; wait for bed temp
M109 S215 ; wait for extruder temp
G28 W ; home all without mesh bed level
G80 ; mesh bed leveling
G1 Y-3.0 F1000.0 ; go outside print area
G92 E0.0
G1 X60.0 E9.0 F1000.0 ; intro line
M73 Q0 S163
M73 P0 R162
G1 X100.0 E12.5 F1000.0 ; intro line
G92 E0.0
M221 S95
M900 K30 ; Filament gcode
G21 ; set units to millimeters
G90 ; use absolute coordinates
M83 ; use relative distances for extrusion
;BEFORE_LAYER_CHANGE
G92 E0.0
;0.2


G1 E-0.80000 F2100.00000
G1 Z0.600 F10800.000
;AFTER_LAYER_CHANGE
;0.2
G1 X176.340 Y48.725
G1 Z0.200
G1 E0.80000 F2100.00000
M204 S1000
G1 F1200
G1 X176.340 Y28.783 E0.62527
G1 X177.094 Y28.783 E0.02365
G1 X177.094 Y48.555 E0.61995
G1 X177.849 Y48.555 E0.02365
G1 X177.849 Y28.783 E0.61995
G1 X178.603 Y28.783 E0.02365
G1 X178.603 Y48.555 E0.61995
G1 X179.357 Y48.555 E0.02365
G1 X179.357 Y28.783 E0.61995
G1 X180.111 Y28.783 E0.02365
G1 X180.111 Y48.555 E0.61995
G1 X180.865 Y48.555 E0.02365
G1 X180.865 Y28.783 E0.61995
G1 X181.619 Y28.783 E0.02365
G1 X181.619 Y48.725 E0.62527
G1 F8640
G1 X181.619 Y45.434 E-0.76000
G1 E-0.04000 F2100.00000
G1 Z0.800 F10800.000
G1 X214.048 Y28.613
G1 Z0.200
G1 E0.80000 F2100.00000
G1 F1200
G1 X214.048 Y48.555 E0.62527
G1 X214.802 Y48.555 E0.02365
G1 X214.802 Y28.783 E0.61995
G1 X215.557 Y28.783 E0.02365
G1 X215.557 Y48.555 E0.61995
G1 X216.311 Y48.555 E0.02365
G1 X216.311 Y28.783 E0.61995
G1 X217.065 Y28.783 E0.02365
G1 X217.065 Y48.555 E0.61995
G1 X217.819 Y48.555 E0.02365
G1 X217.819 Y28.783 E0.61995
G1 X218.573 Y28.783 E0.02365
G1 X218.573 Y48.555 E0.61995
G1 X219.327 Y48.555 E0.02365
G1 X219.327 Y28.783 E0.61995
G1 X220.082 Y28.783 E0.02365
G1 X220.082 Y48.725 E0.62527
G1 F8640
G1 X220.082 Y45.434 E-0.76000
G1 E-0.04000 F2100.00000
G1 Z0.800 F10800.000
G1 X211.149 Y51.108
G1 Z0.200
G1 E0.80000 F2100.00000
G1 F1200
G1 X184.584 Y51.108 E0.83295
G1 X184.584 Y26.545 E0.77017
G1 X211.149 Y26.545 E0.83295
G1 X211.149 Y51.048 E0.76829
G1 X211.526 Y51.486 F10800.000
G1 F1200
G1 X184.206 Y51.486 E0.85659
G1 X184.206 Y26.168 E0.79381
G1 X211.526 Y26.168 E0.85659
G1 X211.526 Y51.426 E0.79193
G1 X211.903 Y51.863 F10800.000
G1 F1200
G1 X183.829 Y51.863 E0.88024
G1 X183.829 Y25.791 E0.81746
G1 X211.903 Y25.791 E0.88024
G1 X211.903 Y51.803 E0.81558
G1 X212.280 Y52.240 F10800.000
G1 F1200
G1 X183.452 Y52.240 E0.90388
G1 X183.452 Y25.414 E0.84111
G1 X212.280 Y25.414 E0.90388
G1 X212.280 Y52.180 E0.83922
G1 X212.657 Y52.617 F10800.000
G1 F1200
G1 X183.075 Y52.617 E0.92753
G1 X183.075 Y25.037 E0.86475
G1 X212.657 Y25.037 E0.92753
G1 X212.657 Y52.557 E0.86287
G1 X212.270 Y52.518 F10800.000
G1 F8640
G1 X209.366 Y52.563 E-0.76000
G1 E-0.04000 F2100.00000
G1 Z0.800 F10800.000
G1 X211.036 Y27.422
G1 Z0.200
G1 E0.80000 F2100.00000
G1 F1200
G1 X210.442 Y26.828 E0.02639
G1 X209.908 Y26.828 E0.01678
G1 X210.866 Y27.786 E0.04258
G1 X210.866 Y28.321 E0.01678
G1 X209.374 Y26.828 E0.06631
G1 X208.839 Y26.828 E0.01678
G1 X210.866 Y28.855 E0.09004
G1 X210.866 Y29.389 E0.01678
G1 X208.305 Y26.828 E0.11377
G1 X207.771 Y26.828 E0.01678
G1 X210.866 Y29.923 E0.13751
G1 X210.866 Y30.458 E0.01678
G1 X207.237 Y26.828 E0.16124
G1 X206.702 Y26.828 E0.01678
G1 X210.866 Y30.992 E0.18497
G1 X210.866 Y31.526 E0.01678
G1 X206.168 Y26.828 E0.20870
G1 X205.634 Y26.828 E0.01678
G1 X210.866 Y32.060 E0.23243
G1 X210.866 Y32.595 E0.01678
G1 X205.100 Y26.828 E0.25616
G1 X204.565 Y26.828 E0.01678
G1 X210.866 Y33.129 E0.27989
G1 X210.866 Y33.663 E0.01678
G1 X204.031 Y26.828 E0.30363
G1 X203.497 Y26.828 E0.01678
G1 X210.866 Y34.197 E0.32736
G1 X210.866 Y34.731 E0.01678
G1 X202.963 Y26.828 E0.35109
G1 X202.429 Y26.828 E0.01678
G1 X210.866 Y35.266 E0.37482
G1 X210.866 Y35.800 E0.01678
G1 X201.894 Y26.828 E0.39855
G1 X201.360 Y26.828 E0.01678
G1 X210.866 Y36.334 E0.42228
G1 X210.866 Y36.868 E0.01678
G1 X200.826 Y26.828 E0.44601
G1 X200.292 Y26.828 E0.01678
G1 X210.866 Y37.403 E0.46974
G1 X210.866 Y37.937 E0.01678
G1 X199.757 Y26.828 E0.49348
G1 X199.223 Y26.828 E0.01678
G1 X210.866 Y38.471 E0.51721
M73 Q0 S162
M73 P0 R161
G1 X210.866 Y39.005 E0.01678
G1 X198.689 Y26.828 E0.54094
G1 X198.155 Y26.828 E0.01678
G1 X210.866 Y39.540 E0.56467
G1 X210.866 Y40.074 E0.01678
G1 X197.620 Y26.828 E0.58840
G1 X197.086 Y26.828 E0.01678
G1 X210.866 Y40.608 E0.61213
G1 X210.866 Y41.142 E0.01678
G1 X196.552 Y26.828 E0.63586
G1 X196.018 Y26.828 E0.01678
G1 X210.866 Y41.676 E0.65959
G1 X210.866 Y42.211 E0.01678
G1 X195.484 Y26.828 E0.68333
G1 X194.949 Y26.828 E0.01678
G1 X210.866 Y42.745 E0.70706
G1 X210.866 Y43.279 E0.01678
G1 X194.415 Y26.828 E0.73079
G1 X193.881 Y26.828 E0.01678
G1 X210.866 Y43.813 E0.75452
G1 X210.866 Y44.348 E0.01678
G1 X193.347 Y26.828 E0.77825
G1 X192.812 Y26.828 E0.01678
G1 X210.866 Y44.882 E0.80198
G1 X210.866 Y45.416 E0.01678
G1 X192.278 Y26.828 E0.82571
G1 X191.744 Y26.828 E0.01678
G1 X210.866 Y45.950 E0.84944
G1 X210.866 Y46.485 E0.01678
G1 X191.210 Y26.828 E0.87318
G1 X190.675 Y26.828 E0.01678
G1 X210.866 Y47.019 E0.89691
G1 X210.866 Y47.553 E0.01678
G1 X190.141 Y26.828 E0.92064
G1 X189.607 Y26.828 E0.01678
G1 X210.866 Y48.087 E0.94437
G1 X210.866 Y48.621 E0.01678
G1 X189.073 Y26.828 E0.96810
G1 X188.539 Y26.828 E0.01678
G1 X210.866 Y49.156 E0.99183
G1 X210.866 Y49.690 E0.01678
G1 X188.004 Y26.828 E1.01556
G1 X187.470 Y26.828 E0.01678
G1 X210.866 Y50.224 E1.03930
G1 X210.866 Y50.758 E0.01678
G1 X186.936 Y26.828 E1.06303
G1 X186.402 Y26.828 E0.01678
G1 X210.399 Y50.826 E1.06602
G1 X209.865 Y50.826 E0.01678
G1 X185.867 Y26.828 E1.06602
G1 X185.333 Y26.828 E0.01678
G1 X209.331 Y50.826 E1.06602
G1 X208.797 Y50.826 E0.01678
G1 X184.866 Y26.895 E1.06302
G1 X184.866 Y27.430 E0.01678
G1 X208.263 Y50.826 E1.03929
G1 X207.728 Y50.826 E0.01678
G1 X184.866 Y27.964 E1.01556
G1 X184.866 Y28.498 E0.01678
G1 X207.194 Y50.826 E0.99183
G1 X206.660 Y50.826 E0.01678
G1 X184.866 Y29.032 E0.96810
G1 X184.866 Y29.566 E0.01678
G1 X206.126 Y50.826 E0.94437
G1 X205.591 Y50.826 E0.01678
G1 X184.866 Y30.101 E0.92064
G1 X184.866 Y30.635 E0.01678
G1 X205.057 Y50.826 E0.89691
G1 X204.523 Y50.826 E0.01678
G1 X184.866 Y31.169 E0.87317
G1 X184.866 Y31.703 E0.01678
G1 X203.989 Y50.826 E0.84944
G1 X203.454 Y50.826 E0.01678
G1 X184.866 Y32.238 E0.82571
G1 X184.866 Y32.772 E0.01678
G1 X202.920 Y50.826 E0.80198
G1 X202.386 Y50.826 E0.01678
G1 X184.866 Y33.306 E0.77825
G1 X184.866 Y33.840 E0.01678
G1 X201.852 Y50.826 E0.75452
G1 X201.318 Y50.826 E0.01678
G1 X184.866 Y34.375 E0.73079
G1 X184.866 Y34.909 E0.01678
G1 X200.783 Y50.826 E0.70705
G1 X200.249 Y50.826 E0.01678
G1 X184.866 Y35.443 E0.68332
G1 X184.866 Y35.977 E0.01678
G1 X199.715 Y50.826 E0.65959
M73 Q1 S161
M73 P1 R160
G1 X199.181 Y50.826 E0.01678
G1 X184.866 Y36.511 E0.63586
G1 X184.866 Y37.046 E0.01678
G1 X198.646 Y50.826 E0.61213
G1 X198.112 Y50.826 E0.01678
G1 X184.866 Y37.580 E0.58840
G1 X184.866 Y38.114 E0.01678
G1 X197.578 Y50.826 E0.56467
G1 X197.044 Y50.826 E0.01678
G1 X184.866 Y38.648 E0.54094
G1 X184.866 Y39.183 E0.01678
G1 X196.509 Y50.826 E0.51720
G1 X195.975 Y50.826 E0.01678
G1 X184.866 Y39.717 E0.49347
G1 X184.866 Y40.251 E0.01678
G1 X195.441 Y50.826 E0.46974
G1 X194.907 Y50.826 E0.01678
G1 X184.866 Y40.785 E0.44601
G1 X184.866 Y41.319 E0.01678
G1 X194.373 Y50.826 E0.42228
G1 X193.838 Y50.826 E0.01678
G1 X184.866 Y41.854 E0.39855
G1 X184.866 Y42.388 E0.01678
G1 X193.304 Y50.826 E0.37482
G1 X192.770 Y50.826 E0.01678
G1 X184.866 Y42.922 E0.35109
G1 X184.866 Y43.456 E0.01678
G1 X192.236 Y50.826 E0.32735
G1 X191.701 Y50.826 E0.01678
G1 X184.866 Y43.991 E0.30362
G1 X184.866 Y44.525 E0.01678
G1 X191.167 Y50.826 E0.27989
G1 X190.633 Y50.826 E0.01678
G1 X184.866 Y45.059 E0.25616
G1 X184.866 Y45.593 E0.01678
G1 X190.099 Y50.826 E0.23243
G1 X189.564 Y50.826 E0.01678
G1 X184.866 Y46.128 E0.20870
G1 X184.866 Y46.662 E0.01678
G1 X189.030 Y50.826 E0.18497
G1 X188.496 Y50.826 E0.01678
G1 X184.866 Y47.196 E0.16124
G1 X184.866 Y47.730 E0.01678
G1 X187.962 Y50.826 E0.13750
G1 X187.428 Y50.826 E0.01678
G1 X184.866 Y48.264 E0.11377
G1 X184.866 Y48.799 E0.01678
G1 X186.893 Y50.826 E0.09004
G1 X186.359 Y50.826 E0.01678
G1 X184.866 Y49.333 E0.06631
G1 X184.866 Y49.867 E0.01678
G1 X185.825 Y50.826 E0.04258
G1 X185.291 Y50.826 E0.01678
G1 X184.697 Y50.232 E0.02639
M106 S255
;BEFORE_LAYER_CHANGE
G92 E0.0
;0.4


G1 F8640
G1 X185.291 Y50.826 E-0.19396
G1 X185.825 Y50.826 E-0.12336
G1 X184.866 Y49.867 E-0.31300
G1 X184.866 Y49.333 E-0.12336
G1 X184.886 Y49.352 E-0.00633
G1 E-0.04000 F2100.00000
G1 Z0.800 F10800.000
;AFTER_LAYER_CHANGE
;0.4
M140 S64 ; set bed temperature
G1 X184.719 Y50.973
G1 Z0.400
G1 E0.80000 F2100.00000
M204 S800
G1 F2700
G1 X184.719 Y26.680 E0.82230
G1 X211.014 Y26.680 E0.89007
G1 X211.014 Y50.973 E0.82230
G1 X184.779 Y50.973 E0.88804
M204 S1000
G1 X184.311 Y51.381 F10800.000
M204 S800
G1 F2700
G1 X184.311 Y26.273 E0.84986
G1 X211.421 Y26.273 E0.91763
G1 X211.421 Y51.381 E0.84986
G1 X184.371 Y51.381 E0.91560
M204 S1000
G1 X183.904 Y51.788 F10800.000
M204 S800
G1 F2700
G1 X183.904 Y25.866 E0.87742
G1 X211.828 Y25.866 E0.94519
G1 X211.828 Y51.788 E0.87742
G1 X183.964 Y51.788 E0.94316
M204 S1000
G1 X183.497 Y52.195 F10800.000
M204 S800
G1 F2700
G1 X183.497 Y25.459 E0.90498
G1 X212.235 Y25.459 E0.97275
G1 X212.235 Y52.195 E0.90498
G1 X183.557 Y52.195 E0.97072
M204 S1000
G1 X183.090 Y52.602 F10800.000
M204 S800
G1 F1500
G1 X183.090 Y25.052 E0.93254
G1 X212.642 Y25.052 E1.00031
G1 X212.642 Y52.602 E0.93254
G1 X183.150 Y52.602 E0.99828
M204 S1000
G1 X183.198 Y52.217 F10800.000
G1 F8640
G1 X183.143 Y49.310 E-0.76000
G1 E-0.04000 F2100.00000
G1 Z1.000 F10800.000
G1 X185.665 Y26.802
G1 Z0.400
G1 E0.80000 F2100.00000
M204 S1250
G1 F4800
G1 X185.024 Y27.444 E0.03076
G1 X185.024 Y28.020 E0.01956
G1 X186.059 Y26.985 E0.04964
G1 X186.636 Y26.985 E0.01956
G1 X185.024 Y28.597 E0.07730
G1 X185.024 Y29.174 E0.01956
G1 X187.212 Y26.985 E0.10497
G1 X187.789 Y26.985 E0.01956
G1 X185.024 Y29.751 E0.13263
G1 X185.024 Y30.328 E0.01956
G1 X188.366 Y26.985 E0.16030
G1 X188.943 Y26.985 E0.01956
G1 X185.024 Y30.904 E0.18796
G1 X185.024 Y31.481 E0.01956
G1 X189.520 Y26.985 E0.21562
G1 X190.096 Y26.985 E0.01956
G1 X185.024 Y32.058 E0.24329
G1 X185.024 Y32.635 E0.01956
G1 X190.673 Y26.985 E0.27095
G1 X191.250 Y26.985 E0.01956
G1 X185.024 Y33.212 E0.29862
G1 X185.024 Y33.788 E0.01956
G1 X191.827 Y26.985 E0.32628
G1 X192.404 Y26.985 E0.01956
G1 X185.024 Y34.365 E0.35395
G1 X185.024 Y34.942 E0.01956
G1 X192.980 Y26.985 E0.38161
G1 X193.557 Y26.985 E0.01956
G1 X185.024 Y35.519 E0.40927
G1 X185.024 Y36.096 E0.01956
G1 X194.134 Y26.985 E0.43694
G1 X194.711 Y26.985 E0.01956
G1 X185.024 Y36.672 E0.46460
G1 X185.024 Y37.249 E0.01956
G1 X195.288 Y26.985 E0.49227
G1 X195.864 Y26.985 E0.01956
G1 X185.024 Y37.826 E0.51993
G1 X185.024 Y38.403 E0.01956
G1 X196.441 Y26.985 E0.54759
G1 X197.018 Y26.985 E0.01956
G1 X185.024 Y38.980 E0.57526
G1 X185.024 Y39.556 E0.01956
G1 X197.595 Y26.985 E0.60292
G1 X198.172 Y26.985 E0.01956
G1 X185.024 Y40.133 E0.63059
G1 X185.024 Y40.710 E0.01956
G1 X198.748 Y26.985 E0.65825
G1 X199.325 Y26.985 E0.01956
G1 X185.024 Y41.287 E0.68592
G1 X185.024 Y41.864 E0.01956
G1 X199.902 Y26.985 E0.71358
G1 X200.479 Y26.985 E0.01956
G1 X185.024 Y42.440 E0.74124
G1 X185.024 Y43.017 E0.01956
G1 X201.056 Y26.985 E0.76891
G1 X201.632 Y26.985 E0.01956
G1 X185.024 Y43.594 E0.79657
G1 X185.024 Y44.171 E0.01956
G1 X202.209 Y26.985 E0.82424
G1 X202.786 Y26.985 E0.01956
G1 X185.024 Y44.748 E0.85190
G1 X185.024 Y45.324 E0.01956
G1 X203.363 Y26.985 E0.87957
G1 X203.940 Y26.985 E0.01956
G1 X185.024 Y45.901 E0.90723
G1 X185.024 Y46.478 E0.01956
G1 X204.517 Y26.985 E0.93489
G1 X205.093 Y26.985 E0.01956
G1 X185.024 Y47.055 E0.96256
G1 X185.024 Y47.632 E0.01956
G1 X205.670 Y26.985 E0.99022
G1 X206.247 Y26.985 E0.01956
G1 X185.024 Y48.208 E1.01789
G1 X185.024 Y48.785 E0.01956
G1 X206.824 Y26.985 E1.04555
G1 X207.401 Y26.985 E0.01956
G1 X185.024 Y49.362 E1.07321
G1 X185.024 Y49.939 E0.01956
G1 X207.977 Y26.985 E1.10088
G1 X208.554 Y26.985 E0.01956
G1 X185.024 Y50.516 E1.12854
G1 X185.024 Y50.668 E0.00517
G1 X185.448 Y50.668 E0.01439
G1 X209.131 Y26.985 E1.13586
G1 X209.708 Y26.985 E0.01956
G1 X186.025 Y50.668 E1.13586
G1 X186.602 Y50.668 E0.01956
G1 X210.285 Y26.985 E1.13586
G1 X210.709 Y26.985 E0.01439
G1 X210.709 Y27.138 E0.00517
G1 X187.179 Y50.668 E1.12854
G1 X187.755 Y50.668 E0.01956
G1 X210.709 Y27.715 E1.10088
G1 X210.709 Y28.291 E0.01956
G1 X188.332 Y50.668 E1.07322
G1 X188.909 Y50.668 E0.01956
G1 X210.709 Y28.868 E1.04555
G1 X210.709 Y29.445 E0.01956
G1 X189.486 Y50.668 E1.01789
G1 X190.063 Y50.668 E0.01956
G1 X210.709 Y30.022 E0.99022
G1 X210.709 Y30.599 E0.01956
G1 X190.639 Y50.668 E0.96256
G1 X191.216 Y50.668 E0.01956
G1 X210.709 Y31.176 E0.93489
G1 X210.709 Y31.752 E0.01956
G1 X191.793 Y50.668 E0.90723
G1 X192.370 Y50.668 E0.01956
G1 X210.709 Y32.329 E0.87957
G1 X210.709 Y32.906 E0.01956
G1 X192.947 Y50.668 E0.85190
G1 X193.523 Y50.668 E0.01956
G1 X210.709 Y33.483 E0.82424
G1 X210.709 Y34.060 E0.01956
G1 X194.100 Y50.668 E0.79657
G1 X194.677 Y50.668 E0.01956
G1 X210.709 Y34.636 E0.76891
G1 X210.709 Y35.213 E0.01956
G1 X195.254 Y50.668 E0.74125
G1 X195.831 Y50.668 E0.01956
G1 X210.709 Y35.790 E0.71358
G1 X210.709 Y36.367 E0.01956
G1 X196.407 Y50.668 E0.68592
G1 X196.984 Y50.668 E0.01956
G1 X210.709 Y36.944 E0.65825
G1 X210.709 Y37.520 E0.01956
G1 X197.561 Y50.668 E0.63059
G1 X198.138 Y50.668 E0.01956
G1 X210.709 Y38.097 E0.60292
G1 X210.709 Y38.674 E0.01956
G1 X198.715 Y50.668 E0.57526
G1 X199.291 Y50.668 E0.01956
G1 X210.709 Y39.251 E0.54760
G1 X210.709 Y39.828 E0.01956
G1 X199.868 Y50.668 E0.51993
G1 X200.445 Y50.668 E0.01956
G1 X210.709 Y40.404 E0.49227
G1 X210.709 Y40.981 E0.01956
G1 X201.022 Y50.668 E0.46460
G1 X201.599 Y50.668 E0.01956
G1 X210.709 Y41.558 E0.43694
G1 X210.709 Y42.135 E0.01956
G1 X202.175 Y50.668 E0.40927
G1 X202.752 Y50.668 E0.01956
G1 X210.709 Y42.712 E0.38161
G1 X210.709 Y43.288 E0.01956
G1 X203.329 Y50.668 E0.35395
G1 X203.906 Y50.668 E0.01956
G1 X210.709 Y43.865 E0.32628
G1 X210.709 Y44.442 E0.01956
G1 X204.483 Y50.668 E0.29862
G1 X205.059 Y50.668 E0.01956
G1 X210.709 Y45.019 E0.27095
G1 X210.709 Y45.596 E0.01956
G1 X205.636 Y50.668 E0.24329
G1 X206.213 Y50.668 E0.01956
G1 X210.709 Y46.172 E0.21563
G1 X210.709 Y46.749 E0.01956
G1 X206.790 Y50.668 E0.18796
G1 X207.367 Y50.668 E0.01956
G1 X210.709 Y47.326 E0.16030
G1 X210.709 Y47.903 E0.01956
G1 X207.943 Y50.668 E0.13263
G1 X208.520 Y50.668 E0.01956
G1 X210.709 Y48.480 E0.10497
G1 X210.709 Y49.056 E0.01956
G1 X209.097 Y50.668 E0.07730
G1 X209.674 Y50.668 E0.01956
G1 X210.709 Y49.633 E0.04964
G1 X210.709 Y50.210 E0.01956
G1 X210.067 Y50.851 E0.03076
M204 S1000
;BEFORE_LAYER_CHANGE
G92 E0.0
;0.439571


G1 F8640
G1 X210.709 Y50.210 E-0.20944
G1 X210.709 Y49.633 E-0.13319
G1 X209.674 Y50.668 E-0.33798
G1 X209.330 Y50.668 E-0.07940
G1 E-0.04000 F2100.00000
G1 Z1.000 F10800.000
;AFTER_LAYER_CHANGE
;0.439571
G1 X213.220 Y45.591
G1 Z0.440
