; generated by PrusaSlicer 2.0.0+win64 on 2020-05-19 at 12:02:26

; 

; external perimeters extrusion width = 0.45mm
; perimeters extrusion width = 0.45mm
; infill extrusion width = 0.45mm
; solid infill extrusion width = 0.45mm
; top infill extrusion width = 0.40mm
; support material extrusion width = 0.35mm
; first layer extrusion width = 0.42mm

; external perimeters extrusion width = 0.45mm
; perimeters extrusion width = 0.45mm
; infill extrusion width = 0.45mm
; solid infill extrusion width = 0.45mm
; top infill extrusion width = 0.40mm
; support material extrusion width = 0.35mm
; first layer extrusion width = 0.42mm

M73 P0 R33
M73 Q0 S33
M201 X1000 Y1000 Z1000 E5000 ; sets maximum accelerations, mm/sec^2
M203 X200 Y200 Z12 E120 ; sets maximum feedrates, mm/sec
M204 P1250 R1250 T1250 ; sets acceleration (P, T) and retract acceleration (R), mm/sec^2
M205 X8.00 Y8.00 Z0.40 E1.50 ; sets the jerk limits, mm/sec
M205 S0 T0 ; sets the minimum extruding and travel feed rate, mm/sec
M107
M115 U3.8.0 ; tell printer latest fw version
G90 ; use absolute coordinates
M83 ; extruder relative mode
M104 S215 ; set extruder temp
M140 S67 ; set bed temp
M190 S67 ; wait for bed temp
M109 S215 ; wait for extruder temp
G28 W ; home all without mesh bed level
G80 ; mesh bed leveling
G1 Y-3.0 F1000.0 ; go outside print area
G92 E0.0
G1 X60.0 E9.0 F1000.0 ; intro line
M73 Q0 S33
M73 P0 R33
G1 X100.0 E12.5 F1000.0 ; intro line
G92 E0.0
M221 S95
M900 K30 ; Filament gcode
G21 ; set units to millimeters
G90 ; use absolute coordinates
M83 ; use relative distances for extrusion
;BEFORE_LAYER_CHANGE
G92 E0.0
;0.2


G1 E-0.80000 F2100.00000
G1 Z0.600 F10800.000
;AFTER_LAYER_CHANGE
;0.2
G1 X158.949 Y75.684
G1 Z0.200
G1 E0.80000 F2100.00000
M204 S1000
G1 F1200
G1 X158.949 Y55.742 E0.62527
G1 X159.703 Y55.742 E0.02365
G1 X159.703 Y75.514 E0.61995
G1 X160.457 Y75.514 E0.02365
G1 X160.457 Y55.742 E0.61995
G1 X161.211 Y55.742 E0.02365
G1 X161.211 Y75.514 E0.61995
G1 X161.965 Y75.514 E0.02365
G1 X161.965 Y55.742 E0.61995
G1 X162.720 Y55.742 E0.02365
G1 X162.720 Y75.514 E0.61995
G1 X163.474 Y75.514 E0.02365
G1 X163.474 Y55.742 E0.61995
G1 X164.228 Y55.742 E0.02365
G1 X164.228 Y75.684 E0.62527
G1 F8640
G1 X164.228 Y72.392 E-0.76000
G1 E-0.04000 F2100.00000
G1 Z0.800 F10800.000
G1 X196.657 Y55.572
G1 Z0.200
G1 E0.80000 F2100.00000
G1 F1200
G1 X196.657 Y75.514 E0.62527
G1 X197.411 Y75.514 E0.02365
G1 X197.411 Y55.742 E0.61995
G1 X198.165 Y55.742 E0.02365
G1 X198.165 Y75.514 E0.61995
G1 X198.919 Y75.514 E0.02365
G1 X198.919 Y55.742 E0.61995
G1 X199.673 Y55.742 E0.02365
G1 X199.673 Y75.514 E0.61995
G1 X200.428 Y75.514 E0.02365
G1 X200.428 Y55.742 E0.61995
G1 X201.182 Y55.742 E0.02365
G1 X201.182 Y75.514 E0.61995
G1 X201.936 Y75.514 E0.02365
G1 X201.936 Y55.742 E0.61995
G1 X202.690 Y55.742 E0.02365
G1 X202.690 Y75.684 E0.62527
G1 F8640
G1 X202.690 Y72.392 E-0.76000
G1 E-0.04000 F2100.00000
G1 Z0.800 F10800.000
G1 X193.758 Y78.067
G1 Z0.200
G1 E0.80000 F2100.00000
G1 F1200
G1 X167.192 Y78.067 E0.83295
G1 X167.192 Y53.504 E0.77017
G1 X193.758 Y53.504 E0.83295
G1 X193.758 Y78.007 E0.76829
G1 X194.135 Y78.444 F10800.000
G1 F1200
G1 X166.815 Y78.444 E0.85659
G1 X166.815 Y53.127 E0.79381
G1 X194.135 Y53.127 E0.85659
G1 X194.135 Y78.384 E0.79193
G1 X194.512 Y78.821 F10800.000
G1 F1200
G1 X166.438 Y78.821 E0.88024
G1 X166.438 Y52.750 E0.81746
G1 X194.512 Y52.750 E0.88024
G1 X194.512 Y78.761 E0.81558
G1 X194.889 Y79.199 F10800.000
G1 F1200
G1 X166.061 Y79.199 E0.90388
G1 X166.061 Y52.373 E0.84111
G1 X194.889 Y52.373 E0.90388
G1 X194.889 Y79.139 E0.83922
G1 X195.266 Y79.576 F10800.000
G1 F1200
G1 X165.684 Y79.576 E0.92753
G1 X165.684 Y51.996 E0.86475
G1 X195.266 Y51.996 E0.92753
G1 X195.266 Y79.516 E0.86287
G1 X194.878 Y79.477 F10800.000
G1 F8640
G1 X191.975 Y79.522 E-0.76000
G1 E-0.04000 F2100.00000
G1 Z0.800 F10800.000
G1 X193.645 Y54.381
G1 Z0.200
G1 E0.80000 F2100.00000
G1 F1200
G1 X193.051 Y53.787 E0.02639
G1 X192.516 Y53.787 E0.01678
G1 X193.475 Y54.745 E0.04258
G1 X193.475 Y55.280 E0.01678
G1 X191.982 Y53.787 E0.06631
G1 X191.448 Y53.787 E0.01678
G1 X193.475 Y55.814 E0.09004
G1 X193.475 Y56.348 E0.01678
G1 X190.914 Y53.787 E0.11377
G1 X190.379 Y53.787 E0.01678
G1 X193.475 Y56.882 E0.13751
G1 X193.475 Y57.416 E0.01678
G1 X189.845 Y53.787 E0.16124
G1 X189.311 Y53.787 E0.01678
G1 X193.475 Y57.951 E0.18497
G1 X193.475 Y58.485 E0.01678
G1 X188.777 Y53.787 E0.20870
G1 X188.242 Y53.787 E0.01678
G1 X193.475 Y59.019 E0.23243
G1 X193.475 Y59.553 E0.01678
G1 X187.708 Y53.787 E0.25616
G1 X187.174 Y53.787 E0.01678
G1 X193.475 Y60.088 E0.27989
G1 X193.475 Y60.622 E0.01678
G1 X186.640 Y53.787 E0.30363
G1 X186.106 Y53.787 E0.01678
G1 X193.475 Y61.156 E0.32736
G1 X193.475 Y61.690 E0.01678
G1 X185.571 Y53.787 E0.35109
G1 X185.037 Y53.787 E0.01678
G1 X193.475 Y62.225 E0.37482
G1 X193.475 Y62.759 E0.01678
G1 X184.503 Y53.787 E0.39855
G1 X183.969 Y53.787 E0.01678
G1 X193.475 Y63.293 E0.42228
G1 X193.475 Y63.827 E0.01678
G1 X183.434 Y53.787 E0.44601
G1 X182.900 Y53.787 E0.01678
G1 X193.475 Y64.361 E0.46974
G1 X193.475 Y64.896 E0.01678
G1 X182.366 Y53.787 E0.49348
G1 X181.832 Y53.787 E0.01678
G1 X193.475 Y65.430 E0.51721
M73 Q3 S32
M73 P3 R32
G1 X193.475 Y65.964 E0.01678
G1 X181.297 Y53.787 E0.54094
G1 X180.763 Y53.787 E0.01678
G1 X193.475 Y66.498 E0.56467
G1 X193.475 Y67.033 E0.01678
G1 X180.229 Y53.787 E0.58840
G1 X179.695 Y53.787 E0.01678
G1 X193.475 Y67.567 E0.61213
G1 X193.475 Y68.101 E0.01678
G1 X179.161 Y53.787 E0.63586
G1 X178.626 Y53.787 E0.01678
G1 X193.475 Y68.635 E0.65959
G1 X193.475 Y69.170 E0.01678
G1 X178.092 Y53.787 E0.68333
G1 X177.558 Y53.787 E0.01678
G1 X193.475 Y69.704 E0.70706
G1 X193.475 Y70.238 E0.01678
G1 X177.024 Y53.787 E0.73079
G1 X176.489 Y53.787 E0.01678
G1 X193.475 Y70.772 E0.75452
G1 X193.475 Y71.306 E0.01678
G1 X175.955 Y53.787 E0.77825
G1 X175.421 Y53.787 E0.01678
G1 X193.475 Y71.841 E0.80198
G1 X193.475 Y72.375 E0.01678
G1 X174.887 Y53.787 E0.82571
G1 X174.352 Y53.787 E0.01678
G1 X193.475 Y72.909 E0.84944
G1 X193.475 Y73.443 E0.01678
G1 X173.818 Y53.787 E0.87318
G1 X173.284 Y53.787 E0.01678
G1 X193.475 Y73.978 E0.89691
G1 X193.475 Y74.512 E0.01678
G1 X172.750 Y53.787 E0.92064
G1 X172.216 Y53.787 E0.01678
G1 X193.475 Y75.046 E0.94437
G1 X193.475 Y75.580 E0.01678
G1 X171.681 Y53.787 E0.96810
G1 X171.147 Y53.787 E0.01678
G1 X193.475 Y76.114 E0.99183
G1 X193.475 Y76.649 E0.01678
G1 X170.613 Y53.787 E1.01556
G1 X170.079 Y53.787 E0.01678
G1 X193.475 Y77.183 E1.03930
G1 X193.475 Y77.717 E0.01678
G1 X169.544 Y53.787 E1.06303
G1 X169.010 Y53.787 E0.01678
G1 X193.008 Y77.785 E1.06602
G1 X192.474 Y77.785 E0.01678
G1 X168.476 Y53.787 E1.06602
G1 X167.942 Y53.787 E0.01678
G1 X191.939 Y77.785 E1.06602
G1 X191.405 Y77.785 E0.01678
G1 X167.475 Y53.854 E1.06302
G1 X167.475 Y54.388 E0.01678
G1 X190.871 Y77.785 E1.03929
G1 X190.337 Y77.785 E0.01678
G1 X167.475 Y54.923 E1.01556
G1 X167.475 Y55.457 E0.01678
G1 X189.803 Y77.785 E0.99183
G1 X189.268 Y77.785 E0.01678
G1 X167.475 Y55.991 E0.96810
G1 X167.475 Y56.525 E0.01678
G1 X188.734 Y77.785 E0.94437
G1 X188.200 Y77.785 E0.01678
G1 X167.475 Y57.059 E0.92064
G1 X167.475 Y57.594 E0.01678
G1 X187.666 Y77.785 E0.89691
G1 X187.131 Y77.785 E0.01678
G1 X167.475 Y58.128 E0.87317
G1 X167.475 Y58.662 E0.01678
G1 X186.597 Y77.785 E0.84944
G1 X186.063 Y77.785 E0.01678
G1 X167.475 Y59.196 E0.82571
G1 X167.475 Y59.731 E0.01678
G1 X185.529 Y77.785 E0.80198
G1 X184.994 Y77.785 E0.01678
G1 X167.475 Y60.265 E0.77825
G1 X167.475 Y60.799 E0.01678
G1 X184.460 Y77.785 E0.75452
G1 X183.926 Y77.785 E0.01678
G1 X167.475 Y61.333 E0.73079
G1 X167.475 Y61.868 E0.01678
G1 X183.392 Y77.785 E0.70705
G1 X182.858 Y77.785 E0.01678
G1 X167.475 Y62.402 E0.68332
G1 X167.475 Y62.936 E0.01678
G1 X182.323 Y77.785 E0.65959
M73 Q6 S31
M73 P6 R31
G1 X181.789 Y77.785 E0.01678
G1 X167.475 Y63.470 E0.63586
G1 X167.475 Y64.004 E0.01678
G1 X181.255 Y77.785 E0.61213
G1 X180.721 Y77.785 E0.01678
G1 X167.475 Y64.539 E0.58840
G1 X167.475 Y65.073 E0.01678
G1 X180.186 Y77.785 E0.56467
G1 X179.652 Y77.785 E0.01678
G1 X167.475 Y65.607 E0.54094
G1 X167.475 Y66.141 E0.01678
G1 X179.118 Y77.785 E0.51720
G1 X178.584 Y77.785 E0.01678
G1 X167.475 Y66.676 E0.49347
G1 X167.475 Y67.210 E0.01678
G1 X178.049 Y77.785 E0.46974
G1 X177.515 Y77.785 E0.01678
G1 X167.475 Y67.744 E0.44601
G1 X167.475 Y68.278 E0.01678
G1 X176.981 Y77.785 E0.42228
G1 X176.447 Y77.785 E0.01678
G1 X167.475 Y68.813 E0.39855
G1 X167.475 Y69.347 E0.01678
G1 X175.913 Y77.785 E0.37482
G1 X175.378 Y77.785 E0.01678
G1 X167.475 Y69.881 E0.35109
G1 X167.475 Y70.415 E0.01678
G1 X174.844 Y77.785 E0.32735
G1 X174.310 Y77.785 E0.01678
G1 X167.475 Y70.949 E0.30362
G1 X167.475 Y71.484 E0.01678
G1 X173.776 Y77.785 E0.27989
G1 X173.241 Y77.785 E0.01678
G1 X167.475 Y72.018 E0.25616
G1 X167.475 Y72.552 E0.01678
G1 X172.707 Y77.785 E0.23243
G1 X172.173 Y77.785 E0.01678
G1 X167.475 Y73.086 E0.20870
G1 X167.475 Y73.621 E0.01678
G1 X171.639 Y77.785 E0.18497
G1 X171.105 Y77.785 E0.01678
G1 X167.475 Y74.155 E0.16124
G1 X167.475 Y74.689 E0.01678
G1 X170.570 Y77.785 E0.13750
G1 X170.036 Y77.785 E0.01678
G1 X167.475 Y75.223 E0.11377
G1 X167.475 Y75.758 E0.01678
G1 X169.502 Y77.785 E0.09004
G1 X168.968 Y77.785 E0.01678
G1 X167.475 Y76.292 E0.06631
G1 X167.475 Y76.826 E0.01678
G1 X168.433 Y77.785 E0.04258
G1 X167.899 Y77.785 E0.01678
G1 X167.305 Y77.191 E0.02639
M106 S255
;BEFORE_LAYER_CHANGE
G92 E0.0
;0.4


G1 F8640
G1 X167.899 Y77.785 E-0.19396
G1 X168.433 Y77.785 E-0.12336
G1 X167.475 Y76.826 E-0.31300
G1 X167.475 Y76.292 E-0.12336
G1 X167.494 Y76.311 E-0.00633
G1 E-0.04000 F2100.00000
G1 Z0.800 F10800.000
;AFTER_LAYER_CHANGE
;0.4
M140 S64 ; set bed temperature
G1 X167.327 Y77.932
G1 Z0.400
G1 E0.80000 F2100.00000
M204 S800
G1 F2700
G1 X167.327 Y53.639 E0.82230
G1 X193.623 Y53.639 E0.89007
G1 X193.623 Y77.932 E0.82230
G1 X167.387 Y77.932 E0.88804
M204 S1000
G1 X166.920 Y78.339 F10800.000
M204 S800
G1 F2700
G1 X166.920 Y53.232 E0.84986
G1 X194.030 Y53.232 E0.91763
G1 X194.030 Y78.339 E0.84986
G1 X166.980 Y78.339 E0.91560
M204 S1000
G1 X166.513 Y78.746 F10800.000
M204 S800
G1 F2700
G1 X166.513 Y52.825 E0.87742
G1 X194.437 Y52.825 E0.94519
G1 X194.437 Y78.746 E0.87742
G1 X166.573 Y78.746 E0.94316
M204 S1000
G1 X166.106 Y79.154 F10800.000
M204 S800
G1 F2700
G1 X166.106 Y52.418 E0.90498
G1 X194.844 Y52.418 E0.97275
G1 X194.844 Y79.154 E0.90498
G1 X166.166 Y79.154 E0.97072
M204 S1000
G1 X165.699 Y79.561 F10800.000
M204 S800
G1 F1500
G1 X165.699 Y52.011 E0.93254
G1 X195.251 Y52.011 E1.00031
G1 X195.251 Y79.561 E0.93254
G1 X165.759 Y79.561 E0.99828
M204 S1000
G1 X165.807 Y79.175 F10800.000
G1 F8640
G1 X165.752 Y76.269 E-0.76000
G1 E-0.04000 F2100.00000
G1 Z1.000 F10800.000
G1 X168.274 Y53.761
G1 Z0.400
G1 E0.80000 F2100.00000
M204 S1250
G1 F4800
G1 X167.632 Y54.402 E0.03076
G1 X167.632 Y54.979 E0.01956
G1 X168.667 Y53.944 E0.04964
G1 X169.244 Y53.944 E0.01956
G1 X167.632 Y55.556 E0.07730
G1 X167.632 Y56.133 E0.01956
G1 X169.821 Y53.944 E0.10497
G1 X170.398 Y53.944 E0.01956
G1 X167.632 Y56.710 E0.13263
G1 X167.632 Y57.286 E0.01956
G1 X170.975 Y53.944 E0.16030
G1 X171.551 Y53.944 E0.01956
G1 X167.632 Y57.863 E0.18796
G1 X167.632 Y58.440 E0.01956
G1 X172.128 Y53.944 E0.21562
G1 X172.705 Y53.944 E0.01956
G1 X167.632 Y59.017 E0.24329
G1 X167.632 Y59.594 E0.01956
G1 X173.282 Y53.944 E0.27095
G1 X173.859 Y53.944 E0.01956
G1 X167.632 Y60.170 E0.29862
G1 X167.632 Y60.747 E0.01956
G1 X174.435 Y53.944 E0.32628
G1 X175.012 Y53.944 E0.01956
G1 X167.632 Y61.324 E0.35395
G1 X167.632 Y61.901 E0.01956
G1 X175.589 Y53.944 E0.38161
G1 X176.166 Y53.944 E0.01956
G1 X167.632 Y62.478 E0.40927
G1 X167.632 Y63.054 E0.01956
G1 X176.743 Y53.944 E0.43694
G1 X177.319 Y53.944 E0.01956
G1 X167.632 Y63.631 E0.46460
G1 X167.632 Y64.208 E0.01956
G1 X177.896 Y53.944 E0.49227
G1 X178.473 Y53.944 E0.01956
G1 X167.632 Y64.785 E0.51993
G1 X167.632 Y65.362 E0.01956
G1 X179.050 Y53.944 E0.54759
G1 X179.627 Y53.944 E0.01956
G1 X167.632 Y65.938 E0.57526
G1 X167.632 Y66.515 E0.01956
G1 X180.203 Y53.944 E0.60292
G1 X180.780 Y53.944 E0.01956
G1 X167.632 Y67.092 E0.63059
G1 X167.632 Y67.669 E0.01956
G1 X181.357 Y53.944 E0.65825
G1 X181.934 Y53.944 E0.01956
G1 X167.632 Y68.246 E0.68592
G1 X167.632 Y68.822 E0.01956
G1 X182.511 Y53.944 E0.71358
G1 X183.087 Y53.944 E0.01956
G1 X167.632 Y69.399 E0.74124
G1 X167.632 Y69.976 E0.01956
G1 X183.664 Y53.944 E0.76891
G1 X184.241 Y53.944 E0.01956
G1 X167.632 Y70.553 E0.79657
G1 X167.632 Y71.130 E0.01956
G1 X184.818 Y53.944 E0.82424
G1 X185.395 Y53.944 E0.01956
G1 X167.632 Y71.706 E0.85190
G1 X167.632 Y72.283 E0.01956
G1 X185.971 Y53.944 E0.87957
G1 X186.548 Y53.944 E0.01956
G1 X167.632 Y72.860 E0.90723
G1 X167.632 Y73.437 E0.01956
G1 X187.125 Y53.944 E0.93489
G1 X187.702 Y53.944 E0.01956
G1 X167.632 Y74.014 E0.96256
G1 X167.632 Y74.590 E0.01956
G1 X188.279 Y53.944 E0.99022
G1 X188.855 Y53.944 E0.01956
G1 X167.632 Y75.167 E1.01789
G1 X167.632 Y75.744 E0.01956
G1 X189.432 Y53.944 E1.04555
G1 X190.009 Y53.944 E0.01956
G1 X167.632 Y76.321 E1.07321
G1 X167.632 Y76.898 E0.01956
G1 X190.586 Y53.944 E1.10088
G1 X191.163 Y53.944 E0.01956
G1 X167.632 Y77.474 E1.12854
G1 X167.632 Y77.627 E0.00517
G1 X168.057 Y77.627 E0.01439
G1 X191.739 Y53.944 E1.13586
G1 X192.316 Y53.944 E0.01956
G1 X168.633 Y77.627 E1.13586
G1 X169.210 Y77.627 E0.01956
G1 X192.893 Y53.944 E1.13586
G1 X193.317 Y53.944 E0.01439
G1 X193.317 Y54.097 E0.00517
G1 X169.787 Y77.627 E1.12854
G1 X170.364 Y77.627 E0.01956
G1 X193.317 Y54.674 E1.10088
G1 X193.317 Y55.250 E0.01956
G1 X170.941 Y77.627 E1.07322
G1 X171.517 Y77.627 E0.01956
G1 X193.317 Y55.827 E1.04555
G1 X193.317 Y56.404 E0.01956
G1 X172.094 Y77.627 E1.01789
G1 X172.671 Y77.627 E0.01956
G1 X193.317 Y56.981 E0.99022
G1 X193.317 Y57.558 E0.01956
G1 X173.248 Y77.627 E0.96256
G1 X173.825 Y77.627 E0.01956
G1 X193.317 Y58.134 E0.93489
G1 X193.317 Y58.711 E0.01956
G1 X174.401 Y77.627 E0.90723
G1 X174.978 Y77.627 E0.01956
G1 X193.317 Y59.288 E0.87957
G1 X193.317 Y59.865 E0.01956
G1 X175.555 Y77.627 E0.85190
G1 X176.132 Y77.627 E0.01956
G1 X193.317 Y60.442 E0.82424
G1 X193.317 Y61.018 E0.01956
G1 X176.709 Y77.627 E0.79657
G1 X177.285 Y77.627 E0.01956
G1 X193.317 Y61.595 E0.76891
G1 X193.317 Y62.172 E0.01956
G1 X177.862 Y77.627 E0.74125
G1 X178.439 Y77.627 E0.01956
G1 X193.317 Y62.749 E0.71358
G1 X193.317 Y63.326 E0.01956
G1 X179.016 Y77.627 E0.68592
G1 X179.593 Y77.627 E0.01956
G1 X193.317 Y63.902 E0.65825
G1 X193.317 Y64.479 E0.01956
G1 X180.169 Y77.627 E0.63059
G1 X180.746 Y77.627 E0.01956
G1 X193.317 Y65.056 E0.60292
G1 X193.317 Y65.633 E0.01956
G1 X181.323 Y77.627 E0.57526
G1 X181.900 Y77.627 E0.01956
G1 X193.317 Y66.210 E0.54760
G1 X193.317 Y66.786 E0.01956
G1 X182.477 Y77.627 E0.51993
G1 X183.053 Y77.627 E0.01956
G1 X193.317 Y67.363 E0.49227
G1 X193.317 Y67.940 E0.01956
G1 X183.630 Y77.627 E0.46460
G1 X184.207 Y77.627 E0.01956
G1 X193.317 Y68.517 E0.43694
G1 X193.317 Y69.094 E0.01956
G1 X184.784 Y77.627 E0.40927
G1 X185.361 Y77.627 E0.01956
G1 X193.317 Y69.670 E0.38161
G1 X193.317 Y70.247 E0.01956
G1 X185.938 Y77.627 E0.35395
G1 X186.514 Y77.627 E0.01956
G1 X193.317 Y70.824 E0.32628
G1 X193.317 Y71.401 E0.01956
G1 X187.091 Y77.627 E0.29862
G1 X187.668 Y77.627 E0.01956
G1 X193.317 Y71.978 E0.27095
G1 X193.317 Y72.554 E0.01956
G1 X188.245 Y77.627 E0.24329
G1 X188.822 Y77.627 E0.01956
G1 X193.317 Y73.131 E0.21563
G1 X193.317 Y73.708 E0.01956
G1 X189.398 Y77.627 E0.18796
G1 X189.975 Y77.627 E0.01956
G1 X193.317 Y74.285 E0.16030
G1 X193.317 Y74.862 E0.01956
G1 X190.552 Y77.627 E0.13263
G1 X191.129 Y77.627 E0.01956
G1 X193.317 Y75.438 E0.10497
G1 X193.317 Y76.015 E0.01956
G1 X191.706 Y77.627 E0.07730
G1 X192.282 Y77.627 E0.01956
G1 X193.317 Y76.592 E0.04964
G1 X193.317 Y77.169 E0.01956
G1 X192.676 Y77.810 E0.03076
M204 S1000
;BEFORE_LAYER_CHANGE
G92 E0.0
;0.439571


G1 F8640
G1 X193.317 Y77.169 E-0.20944
G1 X193.317 Y76.592 E-0.13319
G1 X192.282 Y77.627 E-0.33798
G1 X191.938 Y77.627 E-0.07940
G1 E-0.04000 F2100.00000
G1 Z1.000 F10800.000
;AFTER_LAYER_CHANGE
;0.439571
G1 X195.829 Y72.549
G1 Z0.440
G1 E0.80000 F2100.00000
