; generated by PrusaSlicer 2.0.0+win64 on 2020-06-02 at 19:50:36

; 

; external perimeters extrusion width = 0.60mm
; perimeters extrusion width = 0.50mm
; infill extrusion width = 0.50mm
; solid infill extrusion width = 0.50mm
; top infill extrusion width = 0.45mm
; support material extrusion width = 0.35mm
; first layer extrusion width = 0.42mm

M73 P0 R187
M73 Q0 S190
M201 X1000 Y1000 Z1000 E5000 ; sets maximum accelerations, mm/sec^2
M203 X200 Y200 Z12 E120 ; sets maximum feedrates, mm/sec
M204 P1250 R1250 T1250 ; sets acceleration (P, T) and retract acceleration (R), mm/sec^2
M205 X8.00 Y8.00 Z0.40 E1.50 ; sets the jerk limits, mm/sec
M205 S0 T0 ; sets the minimum extruding and travel feed rate, mm/sec
M107
M115 U3.8.0 ; tell printer latest fw version
G90 ; use absolute coordinates
M83 ; extruder relative mode
M104 S215 ; set extruder temp
M140 S67 ; set bed temp
M190 S67 ; wait for bed temp
M109 S215 ; wait for extruder temp
G28 W ; home all without mesh bed level
G80 ; mesh bed leveling
G1 Y-3.0 F1000.0 ; go outside print area
G92 E0.0
G1 X60.0 E9.0 F1000.0 ; intro line
M73 Q0 S189
M73 P0 R187
G1 X100.0 E12.5 F1000.0 ; intro line
G92 E0.0
M221 S95
M900 K30 ; Filament gcode
G21 ; set units to millimeters
G90 ; use absolute coordinates
M83 ; use relative distances for extrusion
;BEFORE_LAYER_CHANGE
G92 E0.0
;0.2


G1 E-0.80000 F2100.00000
G1 Z0.600 F10800.000
;AFTER_LAYER_CHANGE
;0.2
G1 X96.786 Y40.283
G1 Z0.200
G1 E0.80000 F2100.00000
M204 S1000
G1 F1200
G1 X96.786 Y45.353 E0.15897
G1 X97.541 Y45.353 E0.02365
G1 X97.541 Y40.452 E0.15365
G1 X98.295 Y40.452 E0.02365
G1 X98.295 Y45.353 E0.15365
G1 X99.049 Y45.353 E0.02365
G1 X99.049 Y40.452 E0.15365
G1 X99.803 Y40.452 E0.02365
G1 X99.803 Y45.353 E0.15365
G1 X100.557 Y45.353 E0.02365
G1 X100.557 Y40.452 E0.15365
G1 X101.311 Y40.452 E0.02365
G1 X101.311 Y45.353 E0.15365
G1 X102.065 Y45.353 E0.02365
G1 X102.065 Y40.452 E0.15365
G1 X102.820 Y40.452 E0.02365
G1 X102.820 Y45.353 E0.15365
G1 X103.574 Y45.353 E0.02365
G1 X103.574 Y40.452 E0.15365
G1 X104.328 Y40.452 E0.02365
G1 X104.328 Y45.353 E0.15365
G1 X105.082 Y45.353 E0.02365
G1 X105.082 Y40.452 E0.15365
G1 X105.836 Y40.452 E0.02365
G1 X105.836 Y45.353 E0.15365
G1 X106.590 Y45.353 E0.02365
G1 X106.590 Y40.452 E0.15365
G1 X107.345 Y40.452 E0.02365
G1 X107.345 Y45.353 E0.15365
G1 X108.099 Y45.353 E0.02365
G1 X108.099 Y40.452 E0.15365
G1 X108.853 Y40.452 E0.02365
G1 X108.853 Y45.522 E0.15897
G1 F8640
G1 X108.853 Y42.231 E-0.76000
G1 E-0.04000 F2100.00000
G1 Z0.800 F10800.000
G1 X139.773 Y40.283
G1 Z0.200
G1 E0.80000 F2100.00000
G1 F1200
G1 X139.773 Y45.353 E0.15897
G1 X140.528 Y45.353 E0.02365
G1 X140.528 Y40.452 E0.15365
G1 X141.282 Y40.452 E0.02365
G1 X141.282 Y45.353 E0.15365
G1 X142.036 Y45.353 E0.02365
G1 X142.036 Y40.452 E0.15365
G1 X142.790 Y40.452 E0.02365
G1 X142.790 Y45.353 E0.15365
G1 X143.544 Y45.353 E0.02365
G1 X143.544 Y40.452 E0.15365
G1 X144.298 Y40.452 E0.02365
G1 X144.298 Y45.353 E0.15365
G1 X145.053 Y45.353 E0.02365
G1 X145.053 Y40.452 E0.15365
G1 X145.807 Y40.452 E0.02365
G1 X145.807 Y45.353 E0.15365
G1 X146.561 Y45.353 E0.02365
G1 X146.561 Y40.452 E0.15365
G1 X147.315 Y40.452 E0.02365
G1 X147.315 Y45.353 E0.15365
G1 X148.069 Y45.353 E0.02365
G1 X148.069 Y40.452 E0.15365
G1 X148.823 Y40.452 E0.02365
G1 X148.823 Y45.353 E0.15365
G1 X149.578 Y45.353 E0.02365
G1 X149.578 Y40.452 E0.15365
G1 X150.332 Y40.452 E0.02365
G1 X150.332 Y45.353 E0.15365
G1 X151.086 Y45.353 E0.02365
G1 X151.086 Y40.452 E0.15365
G1 X151.840 Y40.452 E0.02365
G1 X151.840 Y45.522 E0.15897
G1 F8640
G1 X151.840 Y42.231 E-0.76000
G1 E-0.04000 F2100.00000
G1 Z0.800 F10800.000
G1 X147.315 Y109.003
G1 Z0.200
G1 E0.80000 F2100.00000
G1 F1200
G1 X147.315 Y99.878 E0.28610
G1 X146.561 Y99.878 E0.02365
G1 X146.561 Y108.833 E0.28078
G1 X145.807 Y108.833 E0.02365
G1 X145.807 Y99.878 E0.28078
G1 X145.053 Y99.878 E0.02365
G1 X145.053 Y108.833 E0.28078
G1 X144.298 Y108.833 E0.02365
G1 X144.298 Y99.878 E0.28078
G1 X143.544 Y99.878 E0.02365
G1 X143.544 Y108.833 E0.28078
G1 X142.790 Y108.833 E0.02365
G1 X142.790 Y99.878 E0.28078
G1 X142.036 Y99.878 E0.02365
G1 X142.036 Y108.833 E0.28078
G1 X141.282 Y108.833 E0.02365
G1 X141.282 Y99.878 E0.28078
G1 X140.528 Y99.878 E0.02365
G1 X140.528 Y108.833 E0.28078
G1 X139.773 Y108.833 E0.02365
G1 X139.773 Y99.878 E0.28078
G1 X139.019 Y99.878 E0.02365
G1 X139.019 Y108.833 E0.28078
G1 X138.265 Y108.833 E0.02365
G1 X138.265 Y99.878 E0.28078
G1 X137.511 Y99.878 E0.02365
G1 X137.511 Y108.833 E0.28078
G1 X136.757 Y108.833 E0.02365
G1 X136.757 Y99.878 E0.28078
G1 X136.003 Y99.878 E0.02365
G1 X136.003 Y108.833 E0.28078
G1 X135.248 Y108.833 E0.02365
G1 X135.248 Y99.878 E0.28078
G1 X134.494 Y99.878 E0.02365
G1 X134.494 Y108.833 E0.28078
G1 X133.740 Y108.833 E0.02365
G1 X133.740 Y99.878 E0.28078
G1 X132.986 Y99.878 E0.02365
G1 X132.986 Y108.833 E0.28078
G1 X132.232 Y108.833 E0.02365
G1 X132.232 Y99.878 E0.28078
G1 X131.478 Y99.878 E0.02365
G1 X131.478 Y108.833 E0.28078
G1 X130.724 Y108.833 E0.02365
G1 X130.724 Y99.878 E0.28078
G1 X129.969 Y99.878 E0.02365
G1 X129.969 Y108.833 E0.28078
G1 X129.215 Y108.833 E0.02365
G1 X129.215 Y95.307 E0.42411
G1 X128.461 Y95.307 E0.02365
G1 X128.461 Y108.833 E0.42411
G1 X127.707 Y108.833 E0.02365
G1 X127.707 Y95.307 E0.42411
G1 X126.953 Y95.307 E0.02365
G1 X126.953 Y108.833 E0.42411
G1 X126.199 Y108.833 E0.02365
G1 X126.199 Y95.307 E0.42411
G1 X125.444 Y95.307 E0.02365
G1 X125.444 Y108.833 E0.42411
G1 X124.690 Y108.833 E0.02365
G1 X124.690 Y95.307 E0.42411
G1 X123.936 Y95.307 E0.02365
G1 X123.936 Y108.833 E0.42411
G1 X123.182 Y108.833 E0.02365
G1 X123.182 Y95.307 E0.42411
G1 X122.428 Y95.307 E0.02365
G1 X122.428 Y108.833 E0.42411
G1 X121.674 Y108.833 E0.02365
G1 X121.674 Y95.307 E0.42411
G1 X120.919 Y95.307 E0.02365
G1 X120.919 Y108.833 E0.42411
G1 X120.165 Y108.833 E0.02365
G1 X120.165 Y95.307 E0.42411
G1 X119.411 Y95.307 E0.02365
G1 X119.411 Y108.833 E0.42411
G1 X118.657 Y108.833 E0.02365
G1 X118.657 Y99.878 E0.28078
G1 X117.903 Y99.878 E0.02365
G1 X117.903 Y108.833 E0.28078
G1 X117.149 Y108.833 E0.02365
G1 X117.149 Y99.878 E0.28078
G1 X116.395 Y99.878 E0.02365
G1 X116.395 Y108.833 E0.28078
G1 X115.640 Y108.833 E0.02365
G1 X115.640 Y99.878 E0.28078
G1 X114.886 Y99.878 E0.02365
G1 X114.886 Y108.833 E0.28078
G1 X114.132 Y108.833 E0.02365
G1 X114.132 Y99.878 E0.28078
G1 X113.378 Y99.878 E0.02365
G1 X113.378 Y108.833 E0.28078
G1 X112.624 Y108.833 E0.02365
G1 X112.624 Y99.878 E0.28078
G1 X111.870 Y99.878 E0.02365
G1 X111.870 Y108.833 E0.28078
G1 X111.115 Y108.833 E0.02365
G1 X111.115 Y99.878 E0.28078
G1 X110.361 Y99.878 E0.02365
G1 X110.361 Y108.833 E0.28078
G1 X109.607 Y108.833 E0.02365
G1 X109.607 Y99.878 E0.28078
G1 X108.853 Y99.878 E0.02365
G1 X108.853 Y108.833 E0.28078
G1 X108.099 Y108.833 E0.02365
G1 X108.099 Y99.878 E0.28078
G1 X107.345 Y99.878 E0.02365
G1 X107.345 Y108.833 E0.28078
G1 X106.590 Y108.833 E0.02365
G1 X106.590 Y99.878 E0.28078
G1 X105.836 Y99.878 E0.02365
G1 X105.836 Y108.833 E0.28078
G1 X105.082 Y108.833 E0.02365
G1 X105.082 Y99.878 E0.28078
G1 X104.328 Y99.878 E0.02365
G1 X104.328 Y108.833 E0.28078
G1 X103.574 Y108.833 E0.02365
G1 X103.574 Y99.878 E0.28078
G1 X102.820 Y99.878 E0.02365
G1 X102.820 Y108.833 E0.28078
G1 X102.065 Y108.833 E0.02365
G1 X102.065 Y99.878 E0.28078
G1 X101.311 Y99.878 E0.02365
G1 X101.311 Y109.003 E0.28610
G1 F8640
G1 X101.311 Y105.712 E-0.76000
G1 E-0.04000 F2100.00000
G1 Z0.800 F10800.000
G1 X75.670 Y116.384
G1 Z0.200
G1 E0.80000 F2100.00000
G1 F1200
G1 X75.670 Y113.592 E0.08755
G1 X74.916 Y113.592 E0.02365
G1 X74.916 Y116.215 E0.08223
G1 X74.162 Y116.215 E0.02365
G1 X74.162 Y113.422 E0.08755
G1 X71.899 Y113.422 F10800.000
G1 F1200
G1 X71.899 Y124.072 E0.33390
G1 X72.653 Y124.072 E0.02365
G1 X72.653 Y113.592 E0.32858
G1 X73.407 Y113.592 E0.02365
G1 X73.407 Y124.072 E0.32858
G1 X74.162 Y124.072 E0.02365
G1 X74.162 Y121.449 E0.08224
G1 X74.916 Y121.449 E0.02365
G1 X74.916 Y124.072 E0.08224
G1 X75.670 Y124.072 E0.02365
G1 X75.670 Y121.449 E0.08224
G1 X76.424 Y121.449 E0.02365
G1 X76.424 Y124.072 E0.08224
G1 X77.178 Y124.072 E0.02365
G1 X77.178 Y121.449 E0.08224
G1 X77.932 Y121.449 E0.02365
G1 X77.932 Y124.072 E0.08224
G1 X78.687 Y124.072 E0.02365
G1 X78.687 Y121.449 E0.08224
G1 X79.441 Y121.449 E0.02365
G1 X79.441 Y124.072 E0.08224
G1 X80.195 Y124.072 E0.02365
G1 X80.195 Y121.449 E0.08224
G1 X80.949 Y121.449 E0.02365
G1 X80.949 Y124.072 E0.08224
G1 X81.703 Y124.072 E0.02365
G1 X81.703 Y121.449 E0.08224
G1 X82.457 Y121.449 E0.02365
G1 X82.457 Y124.072 E0.08224
G1 X83.212 Y124.072 E0.02365
G1 X83.212 Y121.449 E0.08224
G1 X83.966 Y121.449 E0.02365
G1 X83.966 Y124.072 E0.08224
G1 X84.720 Y124.072 E0.02365
G1 X84.720 Y121.449 E0.08224
G1 X85.474 Y121.449 E0.02365
G1 X85.474 Y124.072 E0.08224
G1 X86.228 Y124.072 E0.02365
G1 X86.228 Y121.449 E0.08224
G1 X86.982 Y121.449 E0.02365
G1 X86.982 Y124.072 E0.08224
G1 X87.736 Y124.072 E0.02365
G1 X87.736 Y121.449 E0.08224
G1 X88.491 Y121.449 E0.02365
G1 X88.491 Y124.072 E0.08224
G1 X89.245 Y124.072 E0.02365
G1 X89.245 Y121.449 E0.08224
G1 X89.999 Y121.449 E0.02365
G1 X89.999 Y124.072 E0.08224
G1 X90.753 Y124.072 E0.02365
G1 X90.753 Y121.449 E0.08224
G1 X91.507 Y121.449 E0.02365
G1 X91.507 Y124.072 E0.08224
G1 X92.261 Y124.072 E0.02365
G1 X92.261 Y121.449 E0.08224
G1 X93.016 Y121.449 E0.02365
G1 X93.016 Y124.072 E0.08224
G1 X93.770 Y124.072 E0.02365
G1 X93.770 Y121.449 E0.08224
G1 X94.524 Y121.449 E0.02365
G1 X94.524 Y124.072 E0.08224
G1 X95.278 Y124.072 E0.02365
G1 X95.278 Y121.449 E0.08224
G1 X96.032 Y121.449 E0.02365
G1 X96.032 Y124.072 E0.08224
G1 X96.786 Y124.072 E0.02365
G1 X96.786 Y121.449 E0.08224
G1 X97.541 Y121.449 E0.02365
G1 X97.541 Y124.072 E0.08224
G1 X98.295 Y124.072 E0.02365
G1 X98.295 Y121.449 E0.08224
G1 X99.049 Y121.449 E0.02365
G1 X99.049 Y124.072 E0.08224
G1 X99.803 Y124.072 E0.02365
G1 X99.803 Y121.449 E0.08224
G1 X100.557 Y121.449 E0.02365
G1 X100.557 Y124.072 E0.08224
G1 X101.311 Y124.072 E0.02365
G1 X101.311 Y121.449 E0.08224
G1 X102.065 Y121.449 E0.02365
G1 X102.065 Y124.072 E0.08224
G1 X102.820 Y124.072 E0.02365
G1 X102.820 Y121.449 E0.08224
G1 X103.574 Y121.449 E0.02365
G1 X103.574 Y124.072 E0.08224
G1 X104.328 Y124.072 E0.02365
G1 X104.328 Y121.449 E0.08224
G1 X105.082 Y121.449 E0.02365
G1 X105.082 Y124.072 E0.08224
G1 X105.836 Y124.072 E0.02365
G1 X105.836 Y121.449 E0.08224
M73 Q0 S188
G1 X106.590 Y121.449 E0.02365
G1 X106.590 Y124.072 E0.08224
G1 X107.345 Y124.072 E0.02365
G1 X107.345 Y121.449 E0.08224
G1 X108.099 Y121.449 E0.02365
G1 X108.099 Y124.072 E0.08224
M73 P0 R186
G1 X108.853 Y124.072 E0.02365
G1 X108.853 Y121.449 E0.08224
G1 X109.607 Y121.449 E0.02365
G1 X109.607 Y124.072 E0.08224
G1 X110.361 Y124.072 E0.02365
G1 X110.361 Y121.449 E0.08224
G1 X111.115 Y121.449 E0.02365
G1 X111.115 Y124.072 E0.08224
G1 X111.870 Y124.072 E0.02365
G1 X111.870 Y121.449 E0.08224
G1 X112.624 Y121.449 E0.02365
G1 X112.624 Y124.072 E0.08224
G1 X113.378 Y124.072 E0.02365
G1 X113.378 Y121.449 E0.08224
G1 X114.132 Y121.449 E0.02365
G1 X114.132 Y124.072 E0.08224
G1 X114.886 Y124.072 E0.02365
G1 X114.886 Y121.449 E0.08224
G1 X115.640 Y121.449 E0.02365
G1 X115.640 Y124.072 E0.08224
G1 X116.395 Y124.072 E0.02365
G1 X116.395 Y121.449 E0.08224
G1 X117.149 Y121.449 E0.02365
G1 X117.149 Y124.072 E0.08224
G1 X117.903 Y124.072 E0.02365
G1 X117.903 Y121.449 E0.08224
G1 X118.657 Y121.449 E0.02365
G1 X118.657 Y124.072 E0.08224
G1 X119.411 Y124.072 E0.02365
G1 X119.411 Y121.449 E0.08224
G1 X120.165 Y121.449 E0.02365
G1 X120.165 Y124.072 E0.08224
G1 X120.919 Y124.072 E0.02365
G1 X120.919 Y121.449 E0.08224
G1 X121.674 Y121.449 E0.02365
G1 X121.674 Y124.072 E0.08224
G1 X122.428 Y124.072 E0.02365
G1 X122.428 Y121.449 E0.08224
G1 X123.182 Y121.449 E0.02365
G1 X123.182 Y124.072 E0.08224
G1 X123.936 Y124.072 E0.02365
G1 X123.936 Y121.449 E0.08224
G1 X124.690 Y121.449 E0.02365
G1 X124.690 Y124.072 E0.08224
G1 X125.444 Y124.072 E0.02365
G1 X125.444 Y121.449 E0.08224
G1 X126.199 Y121.449 E0.02365
G1 X126.199 Y124.072 E0.08224
G1 X126.953 Y124.072 E0.02365
G1 X126.953 Y121.449 E0.08224
G1 X127.707 Y121.449 E0.02365
G1 X127.707 Y124.072 E0.08224
G1 X128.461 Y124.072 E0.02365
G1 X128.461 Y121.449 E0.08224
G1 X129.215 Y121.449 E0.02365
G1 X129.215 Y124.072 E0.08224
G1 X129.969 Y124.072 E0.02365
G1 X129.969 Y121.449 E0.08224
G1 X130.724 Y121.449 E0.02365
G1 X130.724 Y124.072 E0.08224
G1 X131.478 Y124.072 E0.02365
G1 X131.478 Y121.449 E0.08224
G1 X132.232 Y121.449 E0.02365
G1 X132.232 Y124.072 E0.08224
G1 X132.986 Y124.072 E0.02365
G1 X132.986 Y121.449 E0.08224
G1 X133.740 Y121.449 E0.02365
G1 X133.740 Y124.072 E0.08223
G1 X134.494 Y124.072 E0.02365
G1 X134.494 Y121.449 E0.08223
G1 X135.248 Y121.449 E0.02365
G1 X135.248 Y124.072 E0.08223
G1 X136.003 Y124.072 E0.02365
G1 X136.003 Y121.449 E0.08223
G1 X136.757 Y121.449 E0.02365
G1 X136.757 Y124.072 E0.08223
G1 X137.511 Y124.072 E0.02365
G1 X137.511 Y121.449 E0.08223
G1 X138.265 Y121.449 E0.02365
G1 X138.265 Y124.072 E0.08223
G1 X139.019 Y124.072 E0.02365
G1 X139.019 Y121.449 E0.08223
G1 X139.773 Y121.449 E0.02365
G1 X139.773 Y124.072 E0.08223
G1 X140.528 Y124.072 E0.02365
G1 X140.528 Y121.449 E0.08223
G1 X141.282 Y121.449 E0.02365
G1 X141.282 Y124.072 E0.08223
G1 X142.036 Y124.072 E0.02365
G1 X142.036 Y121.449 E0.08223
G1 X142.790 Y121.449 E0.02365
G1 X142.790 Y124.072 E0.08223
G1 X143.544 Y124.072 E0.02365
G1 X143.544 Y121.449 E0.08223
G1 X144.298 Y121.449 E0.02365
G1 X144.298 Y124.072 E0.08223
G1 X145.053 Y124.072 E0.02365
G1 X145.053 Y121.449 E0.08223
G1 X145.807 Y121.449 E0.02365
G1 X145.807 Y124.072 E0.08223
G1 X146.561 Y124.072 E0.02365
G1 X146.561 Y121.449 E0.08223
G1 X147.315 Y121.449 E0.02365
G1 X147.315 Y124.072 E0.08223
G1 X148.069 Y124.072 E0.02365
G1 X148.069 Y121.449 E0.08223
G1 X148.823 Y121.449 E0.02365
G1 X148.823 Y124.072 E0.08223
G1 X149.578 Y124.072 E0.02365
G1 X149.578 Y121.449 E0.08223
G1 X150.332 Y121.449 E0.02365
G1 X150.332 Y124.072 E0.08223
G1 X151.086 Y124.072 E0.02365
G1 X151.086 Y121.449 E0.08223
G1 X151.840 Y121.449 E0.02365
G1 X151.840 Y124.072 E0.08223
G1 X152.594 Y124.072 E0.02365
G1 X152.594 Y121.449 E0.08223
G1 X153.348 Y121.449 E0.02365
G1 X153.348 Y124.072 E0.08223
G1 X154.102 Y124.072 E0.02365
G1 X154.102 Y121.449 E0.08223
G1 X154.857 Y121.449 E0.02365
G1 X154.857 Y124.072 E0.08223
G1 X155.611 Y124.072 E0.02365
G1 X155.611 Y121.449 E0.08223
G1 X156.365 Y121.449 E0.02365
G1 X156.365 Y124.072 E0.08223
G1 X157.119 Y124.072 E0.02365
G1 X157.119 Y121.449 E0.08223
G1 X157.873 Y121.449 E0.02365
G1 X157.873 Y124.072 E0.08223
G1 X158.627 Y124.072 E0.02365
G1 X158.627 Y121.449 E0.08223
G1 X159.382 Y121.449 E0.02365
G1 X159.382 Y124.072 E0.08223
G1 X160.136 Y124.072 E0.02365
G1 X160.136 Y121.449 E0.08223
G1 X160.890 Y121.449 E0.02365
G1 X160.890 Y124.072 E0.08223
G1 X161.644 Y124.072 E0.02365
G1 X161.644 Y121.449 E0.08223
G1 X162.398 Y121.449 E0.02365
G1 X162.398 Y124.072 E0.08223
G1 X163.152 Y124.072 E0.02365
G1 X163.152 Y121.449 E0.08223
G1 X163.907 Y121.449 E0.02365
G1 X163.907 Y124.072 E0.08223
G1 X164.661 Y124.072 E0.02365
G1 X164.661 Y121.449 E0.08223
G1 X165.415 Y121.449 E0.02365
G1 X165.415 Y124.072 E0.08223
G1 X166.169 Y124.072 E0.02365
G1 X166.169 Y121.449 E0.08223
G1 X166.923 Y121.449 E0.02365
G1 X166.923 Y124.072 E0.08223
G1 X167.677 Y124.072 E0.02365
G1 X167.677 Y121.449 E0.08223
G1 X168.431 Y121.449 E0.02365
G1 X168.431 Y124.072 E0.08223
G1 X169.186 Y124.072 E0.02365
G1 X169.186 Y121.449 E0.08223
G1 X169.940 Y121.449 E0.02365
G1 X169.940 Y124.072 E0.08223
G1 X170.694 Y124.072 E0.02365
G1 X170.694 Y121.449 E0.08223
G1 X171.448 Y121.449 E0.02365
G1 X171.448 Y124.072 E0.08223
G1 X172.202 Y124.072 E0.02365
G1 X172.202 Y121.449 E0.08223
G1 X172.956 Y121.449 E0.02365
G1 X172.956 Y124.072 E0.08223
G1 X173.711 Y124.072 E0.02365
G1 X173.711 Y121.449 E0.08223
G1 X174.465 Y121.449 E0.02365
G1 X174.465 Y124.072 E0.08223
G1 X175.219 Y124.072 E0.02365
G1 X175.219 Y113.592 E0.32858
G1 X175.973 Y113.592 E0.02365
G1 X175.973 Y124.072 E0.32858
G1 X176.727 Y124.072 E0.02365
G1 X176.727 Y113.592 E0.32858
G1 X177.481 Y113.592 E0.02365
