; generated by PrusaSlicer 2.0.0+win64 on 2020-06-03 at 15:40:38

; 

; external perimeters extrusion width = 0.60mm
; perimeters extrusion width = 0.50mm
; infill extrusion width = 0.50mm
; solid infill extrusion width = 0.50mm
; top infill extrusion width = 0.45mm
; first layer extrusion width = 0.42mm

M73 P0 R22
M73 Q0 S22
M201 X1000 Y1000 Z1000 E5000 ; sets maximum accelerations, mm/sec^2
M203 X200 Y200 Z12 E120 ; sets maximum feedrates, mm/sec
M204 P1250 R1250 T1250 ; sets acceleration (P, T) and retract acceleration (R), mm/sec^2
M205 X8.00 Y8.00 Z0.40 E1.50 ; sets the jerk limits, mm/sec
M205 S0 T0 ; sets the minimum extruding and travel feed rate, mm/sec
M107
M115 U3.8.0 ; tell printer latest fw version
G90 ; use absolute coordinates
M83 ; extruder relative mode
M104 S215 ; set extruder temp
M140 S67 ; set bed temp
M190 S67 ; wait for bed temp
M109 S215 ; wait for extruder temp
G28 W ; home all without mesh bed level
G80 ; mesh bed leveling
G1 Y-3.0 F1000.0 ; go outside print area
G92 E0.0
G1 X60.0 E9.0 F1000.0 ; intro line
M73 Q0 S22
M73 P0 R22
G1 X100.0 E12.5 F1000.0 ; intro line
G92 E0.0
M221 S95
M900 K30 ; Filament gcode
G21 ; set units to millimeters
G90 ; use absolute coordinates
M83 ; use relative distances for extrusion
;BEFORE_LAYER_CHANGE
G92 E0.0
;0.2


G1 E-0.80000 F2100.00000
G1 Z0.600 F10800.000
;AFTER_LAYER_CHANGE
;0.2
G1 X126.246 Y132.884
G1 Z0.200
G1 E0.80000 F2100.00000
M204 S1000
G1 F1200
G1 X126.641 Y132.340 E0.02108
G1 X126.964 Y132.038 E0.01386
G1 X127.495 Y131.700 E0.01974
G1 X127.906 Y131.538 E0.01386
G1 X128.524 Y131.420 E0.01974
G1 X128.966 Y131.420 E0.01386
G1 X129.585 Y131.538 E0.01974
G1 X129.996 Y131.700 E0.01386
G1 X130.527 Y132.038 E0.01974
G1 X130.849 Y132.340 E0.01386
G1 X131.219 Y132.850 E0.01974
G1 X131.408 Y133.250 E0.01386
G1 X131.575 Y133.901 E0.02108
G1 X131.575 Y134.616 E0.02241
G1 X131.408 Y135.267 E0.02108
G1 X131.219 Y135.667 E0.01386
G1 X130.825 Y136.210 E0.02105
G1 X130.316 Y136.632 E0.02074
G1 X129.922 Y136.851 E0.01412
G1 X129.320 Y137.046 E0.01984
G1 X128.882 Y137.102 E0.01386
G1 X128.254 Y137.062 E0.01974
G1 X127.867 Y136.963 E0.01253
G1 X127.495 Y136.816 E0.01253
G1 X126.964 Y136.478 E0.01974
G1 X126.641 Y136.176 E0.01386
G1 X126.247 Y135.633 E0.02105
G1 X126.003 Y135.018 E0.02074
G1 X125.916 Y134.576 E0.01412
G1 X125.916 Y133.943 E0.01984
G1 X125.999 Y133.509 E0.01386
G1 X126.224 Y132.940 E0.01920
G1 X126.575 Y133.079 F10800.000
G1 F1200
G1 X126.926 Y132.591 E0.01884
G1 X127.196 Y132.337 E0.01162
G1 X127.667 Y132.038 E0.01750
G1 X128.012 Y131.902 E0.01162
G1 X128.560 Y131.797 E0.01750
G1 X128.931 Y131.797 E0.01162
G1 X129.479 Y131.902 E0.01750
G1 X129.824 Y132.038 E0.01162
G1 X130.295 Y132.337 E0.01750
G1 X130.565 Y132.591 E0.01162
G1 X130.893 Y133.042 E0.01750
G1 X131.051 Y133.378 E0.01162
G1 X131.198 Y133.948 E0.01847
G1 X131.198 Y134.568 E0.01943
G1 X131.051 Y135.138 E0.01847
G1 X130.893 Y135.474 E0.01162
G1 X130.548 Y135.950 E0.01845
G1 X130.102 Y136.319 E0.01816
G1 X129.771 Y136.503 E0.01188
G1 X129.238 Y136.677 E0.01758
G1 X128.870 Y136.723 E0.01162
G1 X128.313 Y136.688 E0.01750
G1 X127.983 Y136.603 E0.01067
G1 X127.667 Y136.478 E0.01067
G1 X127.196 Y136.179 E0.01750
G1 X126.926 Y135.925 E0.01162
G1 X126.580 Y135.449 E0.01845
G1 X126.366 Y134.911 E0.01816
G1 X126.293 Y134.540 E0.01188
G1 X126.293 Y133.979 E0.01758
G1 X126.363 Y133.615 E0.01162
G1 X126.553 Y133.135 E0.01620
G1 X126.903 Y133.273 F10800.000
G1 F1200
G1 X127.210 Y132.841 E0.01661
G1 X127.428 Y132.636 E0.00939
G1 X127.839 Y132.375 E0.01527
G1 X128.117 Y132.265 E0.00939
G1 X128.596 Y132.174 E0.01527
G1 X128.895 Y132.174 E0.00939
G1 X129.373 Y132.265 E0.01527
G1 X129.652 Y132.375 E0.00939
G1 X130.063 Y132.636 E0.01527
G1 X130.281 Y132.841 E0.00939
G1 X130.567 Y133.235 E0.01527
G1 X130.695 Y133.506 E0.00939
G1 X130.821 Y133.996 E0.01586
G1 X130.821 Y134.520 E0.01644
G1 X130.695 Y135.010 E0.01586
G1 X130.567 Y135.281 E0.00939
G1 X130.270 Y135.690 E0.01584
G1 X129.888 Y136.007 E0.01557
G1 X129.620 Y136.156 E0.00963
G1 X129.155 Y136.307 E0.01531
G1 X128.858 Y136.345 E0.00939
G1 X128.372 Y136.314 E0.01527
G1 X128.100 Y136.244 E0.00880
G1 X127.839 Y136.141 E0.00880
G1 X127.428 Y135.880 E0.01527
G1 X127.210 Y135.675 E0.00939
G1 X126.913 Y135.266 E0.01584
G1 X126.729 Y134.805 E0.01557
G1 X126.670 Y134.503 E0.00963
G1 X126.670 Y134.015 E0.01531
G1 X126.726 Y133.721 E0.00939
G1 X126.881 Y133.329 E0.01320
G1 X127.245 Y133.433 F10800.000
G1 F1200
G1 X127.494 Y133.092 E0.01324
G1 X127.660 Y132.936 E0.00715
G1 X128.011 Y132.713 E0.01303
G1 X128.223 Y132.629 E0.00715
G1 X128.631 Y132.551 E0.01303
G1 X128.859 Y132.551 E0.00715
G1 X129.268 Y132.629 E0.01303
G1 X129.480 Y132.713 E0.00715
G1 X129.831 Y132.936 E0.01303
G1 X129.997 Y133.092 E0.00715
G1 X130.241 Y133.428 E0.01303
G1 X130.339 Y133.634 E0.00715
G1 X130.444 Y134.044 E0.01324
G1 X130.444 Y134.473 E0.01345
G1 X130.339 Y134.882 E0.01324
G1 X130.241 Y135.088 E0.00715
G1 X129.993 Y135.430 E0.01324
G1 X129.674 Y135.694 E0.01299
G1 X129.468 Y135.809 E0.00739
G1 X129.073 Y135.937 E0.01305
G1 X128.846 Y135.966 E0.00715
G1 X128.431 Y135.940 E0.01303
G1 X128.217 Y135.885 E0.00694
G1 X128.011 Y135.803 E0.00694
G1 X127.660 Y135.581 E0.01303
G1 X127.494 Y135.424 E0.00715
G1 X127.246 Y135.083 E0.01324
G1 X127.093 Y134.698 E0.01299
G1 X127.047 Y134.466 E0.00739
G1 X127.047 Y134.050 E0.01305
G1 X127.090 Y133.826 E0.00715
G1 X127.223 Y133.489 E0.01136
G1 X127.045 Y133.087 F10800.000
G1 F8640
G1 X127.494 Y133.092 E-0.11100
G1 X127.660 Y132.936 E-0.05266
G1 X128.011 Y132.713 E-0.09599
G1 X128.223 Y132.629 E-0.05266
G1 X128.631 Y132.551 E-0.09599
G1 X128.859 Y132.551 E-0.05266
G1 X129.268 Y132.629 E-0.09599
G1 X129.480 Y132.713 E-0.05267
G1 X129.831 Y132.936 E-0.09599
G1 X129.997 Y133.092 E-0.05266
G1 X130.002 Y133.098 E-0.00174
G1 E-0.04000 F2100.00000
G1 Z0.800 F10800.000
G1 X130.117 Y125.833
G1 Z0.200
G1 E0.80000 F2100.00000
G1 F1200
G1 X152.433 Y133.956 E0.74460
G1 X153.443 Y131.180 E0.09262
G1 X161.557 Y134.133 E0.27073
G1 X161.557 Y137.917 E0.11864
G1 X109.051 Y137.917 E1.64629
G1 X109.051 Y119.945 E0.56350
G1 X111.549 Y119.945 E0.07831
G1 X112.838 Y116.401 E0.11825
G1 X131.128 Y123.058 E0.61025
G1 X130.138 Y125.777 E0.09074
G1 X130.601 Y125.608 F10800.000
G1 F1200
G1 X152.208 Y133.472 E0.72095
G1 X153.218 Y130.697 E0.09262
G1 X161.934 Y133.869 E0.29083
G1 X161.934 Y138.294 E0.13874
G1 X108.674 Y138.294 E1.66994
G1 X108.674 Y119.568 E0.58715
G1 X111.284 Y119.568 E0.08186
G1 X112.613 Y115.918 E0.12179
G1 X131.611 Y122.832 E0.63389
G1 X130.621 Y125.552 E0.09074
G1 X131.084 Y125.383 F10800.000
G1 F1200
G1 X151.982 Y132.989 E0.69730
G1 X152.992 Y130.213 E0.09262
G1 X162.311 Y133.605 E0.31093
G1 X162.311 Y138.671 E0.15884
G1 X108.297 Y138.671 E1.69358
G1 X108.297 Y119.191 E0.61079
G1 X111.020 Y119.191 E0.08540
G1 X112.388 Y115.434 E0.12534
G1 X132.094 Y122.607 E0.65754
G1 X131.104 Y125.326 E0.09074
G1 X131.567 Y125.157 F10800.000
G1 F1200
G1 X151.757 Y132.506 E0.67366
G1 X152.767 Y129.730 E0.09262
G1 X162.688 Y133.341 E0.33103
G1 X162.688 Y139.048 E0.17894
G1 X107.920 Y139.048 E1.71723
G1 X107.920 Y118.814 E0.63444
G1 X110.756 Y118.814 E0.08894
G1 X112.162 Y114.951 E0.12888
G1 X132.578 Y122.382 E0.68118
G1 X131.588 Y125.101 E0.09074
G1 X131.619 Y125.554 F10800.000
G1 F8640
G1 X134.677 Y126.235 E-0.76000
G1 E-0.04000 F2100.00000
G1 Z0.800 F10800.000
G1 X129.780 Y122.688
G1 Z0.200
G1 E0.80000 F2100.00000
G1 F1200
G1 X130.646 Y123.554 E0.03873
G1 X130.503 Y123.948 E0.01327
G1 X129.218 Y122.664 E0.05744
G1 X128.373 Y122.356 E0.02846
G1 X130.359 Y124.342 E0.08884
G1 X130.216 Y124.737 E0.01327
G1 X127.527 Y122.048 E0.12025
G1 X126.681 Y121.740 E0.02846
G1 X130.072 Y125.131 E0.15165
G1 X129.928 Y125.525 E0.01327
G1 X125.836 Y121.432 E0.18306
G1 X124.990 Y121.125 E0.02846
G1 X141.499 Y137.634 E0.73840
G1 X142.037 Y137.634 E0.01701
G1 X130.778 Y126.375 E0.50358
G1 X131.624 Y126.683 E0.02846
G1 X142.575 Y137.634 E0.48981
G1 X143.113 Y137.634 E0.01701
G1 X132.469 Y126.991 E0.47604
G1 X133.315 Y127.298 E0.02846
G1 X143.651 Y137.634 E0.46228
G1 X144.189 Y137.634 E0.01701
G1 X134.161 Y127.606 E0.44851
G1 X135.007 Y127.914 E0.02846
G1 X144.727 Y137.634 E0.43474
G1 X145.265 Y137.634 E0.01701
G1 X135.852 Y128.222 E0.42098
G1 X136.698 Y128.530 E0.02846
G1 X145.802 Y137.634 E0.40721
G1 X146.340 Y137.634 E0.01701
G1 X137.544 Y128.837 E0.39344
G1 X138.389 Y129.145 E0.02846
G1 X146.878 Y137.634 E0.37967
G1 X147.416 Y137.634 E0.01701
G1 X139.235 Y129.453 E0.36591
G1 X140.081 Y129.761 E0.02846
G1 X147.954 Y137.634 E0.35214
G1 X148.492 Y137.634 E0.01701
G1 X140.927 Y130.069 E0.33837
G1 X141.772 Y130.376 E0.02846
G1 X149.030 Y137.634 E0.32460
G1 X149.568 Y137.634 E0.01701
G1 X142.618 Y130.684 E0.31084
G1 X143.464 Y130.992 E0.02846
G1 X150.106 Y137.634 E0.29707
G1 X150.644 Y137.634 E0.01701
G1 X144.309 Y131.300 E0.28330
G1 X145.155 Y131.608 E0.02846
G1 X151.181 Y137.634 E0.26954
G1 X151.719 Y137.634 E0.01701
G1 X146.001 Y131.916 E0.25577
G1 X146.846 Y132.223 E0.02846
G1 X152.257 Y137.634 E0.24200
G1 X152.795 Y137.634 E0.01701
G1 X147.692 Y132.531 E0.22823
G1 X148.538 Y132.839 E0.02846
G1 X153.333 Y137.634 E0.21447
G1 X153.871 Y137.634 E0.01701
G1 X149.384 Y133.147 E0.20070
G1 X150.229 Y133.455 E0.02846
G1 X154.409 Y137.634 E0.18693
G1 X154.947 Y137.634 E0.01701
G1 X151.075 Y133.762 E0.17317
G1 X151.921 Y134.070 E0.02846
G1 X155.485 Y137.634 E0.15940
G1 X156.022 Y137.634 E0.01701
G1 X152.630 Y134.241 E0.15174
G1 X152.773 Y133.847 E0.01327
G1 X156.560 Y137.634 E0.16938
G1 X157.098 Y137.634 E0.01701
G1 X152.917 Y133.453 E0.18701
G1 X153.060 Y133.058 E0.01327
G1 X157.636 Y137.634 E0.20465
G1 X158.174 Y137.634 E0.01701
G1 X153.204 Y132.664 E0.22229
G1 X153.348 Y132.270 E0.01327
G1 X158.712 Y137.634 E0.23993
G1 X159.250 Y137.634 E0.01701
G1 X153.491 Y131.875 E0.25757
G1 X153.612 Y131.542 E0.01121
G1 X153.744 Y131.590 E0.00443
G1 X159.788 Y137.634 E0.27032
G1 X160.326 Y137.634 E0.01701
G1 X154.590 Y131.898 E0.25655
G1 X155.435 Y132.206 E0.02846
G1 X160.864 Y137.634 E0.24278
G1 X161.274 Y137.634 E0.01299
G1 X161.274 Y137.507 E0.00402
G1 X156.281 Y132.514 E0.22333
G1 X157.127 Y132.822 E0.02846
G1 X161.274 Y136.969 E0.18550
G1 X161.274 Y136.431 E0.01701
G1 X157.972 Y133.129 E0.14768
G1 X158.818 Y133.437 E0.02846
G1 X161.274 Y135.893 E0.10985
G1 X161.274 Y135.355 E0.01701
G1 X159.664 Y133.745 E0.07203
G1 X160.510 Y134.053 E0.02846
G1 X161.444 Y134.987 E0.04179
G1 F8640
G1 X160.510 Y134.053 E-0.30511
G1 X159.664 Y133.745 E-0.20781
G1 X160.420 Y134.502 E-0.24708
G1 E-0.04000 F2100.00000
G1 Z0.800 F10800.000
G1 X141.131 Y137.804
G1 Z0.200
G1 E0.80000 F2100.00000
M73 Q4 S21
G1 F1200
G1 X124.144 Y120.817 E0.75976
M73 P4 R21
G1 X123.298 Y120.509 E0.02846
G1 X140.424 Y137.634 E0.76594
G1 X139.886 Y137.634 E0.01701
G1 X122.453 Y120.201 E0.77970
G1 X121.607 Y119.893 E0.02846
G1 X139.348 Y137.634 E0.79347
G1 X138.810 Y137.634 E0.01701
G1 X120.761 Y119.586 E0.80724
G1 X119.916 Y119.278 E0.02846
G1 X138.272 Y137.634 E0.82101
G1 X137.734 Y137.634 E0.01701
G1 X119.070 Y118.970 E0.83477
G1 X118.224 Y118.662 E0.02846
G1 X137.196 Y137.634 E0.84854
G1 X136.658 Y137.634 E0.01701
G1 X117.378 Y118.354 E0.86231
G1 X116.533 Y118.047 E0.02846
G1 X129.808 Y131.322 E0.59377
G1 X129.664 Y131.265 E0.00491
G1 X129.107 Y131.159 E0.01793
G1 X115.687 Y117.739 E0.60023
G1 X114.841 Y117.431 E0.02846
G1 X128.548 Y131.137 E0.61302
G1 X128.088 Y131.215 E0.01475
G1 X113.996 Y117.123 E0.63029
G1 X113.150 Y116.815 E0.02846
G1 X127.664 Y131.329 E0.64916
G1 X127.366 Y131.447 E0.01013
G1 X127.292 Y131.495 E0.00280
G1 X112.888 Y117.091 E0.64421
G1 X112.745 Y117.486 E0.01327
G1 X126.962 Y131.704 E0.63591
G1 X126.789 Y131.813 E0.00648
G1 X126.658 Y131.937 E0.00571
G1 X112.601 Y117.880 E0.62871
G1 X112.457 Y118.274 E0.01327
G1 X126.389 Y132.206 E0.62312
G1 X126.163 Y132.518 E0.01218
G1 X112.314 Y118.669 E0.61941
G1 X112.170 Y119.063 E0.01327
G1 X125.956 Y132.849 E0.61658
G1 X125.804 Y133.234 E0.01311
G1 X112.027 Y119.457 E0.61618
G1 X111.883 Y119.852 E0.01327
G1 X125.684 Y133.652 E0.61724
G1 X125.633 Y133.917 E0.00851
G1 X125.633 Y134.140 E0.00705
G1 X111.721 Y120.228 E0.62223
G1 X111.183 Y120.228 E0.01701
G1 X125.651 Y134.695 E0.64709
G1 X125.730 Y135.098 E0.01298
G1 X125.871 Y135.453 E0.01209
G1 X110.645 Y120.228 E0.68099
G1 X110.108 Y120.228 E0.01701
G1 X127.514 Y137.634 E0.77852
G1 X128.052 Y137.634 E0.01701
G1 X127.566 Y137.148 E0.02175
G1 X127.779 Y137.232 E0.00726
G1 X128.209 Y137.343 E0.01404
G1 X128.304 Y137.349 E0.00302
G1 X128.590 Y137.634 E0.01276
G1 X129.128 Y137.634 E0.01701
G1 X128.878 Y137.385 E0.01115
G1 X129.358 Y137.327 E0.01528
G1 X129.666 Y137.634 E0.01375
G1 X130.204 Y137.634 E0.01701
G1 X129.768 Y137.198 E0.01949
G1 X130.036 Y137.111 E0.00891
G1 X130.153 Y137.046 E0.00425
G1 X130.741 Y137.634 E0.02631
G1 X131.279 Y137.634 E0.01701
G1 X130.495 Y136.850 E0.03506
G1 X130.790 Y136.606 E0.01208
G1 X131.817 Y137.634 E0.04596
G1 X132.355 Y137.634 E0.01701
G1 X131.072 Y136.351 E0.05739
G1 X131.298 Y136.039 E0.01218
G1 X132.893 Y137.634 E0.07133
G1 X133.431 Y137.634 E0.01701
G1 X131.510 Y135.713 E0.08591
G1 X131.680 Y135.345 E0.01282
G1 X133.969 Y137.634 E0.10239
G1 X134.507 Y137.634 E0.01701
G1 X131.789 Y134.917 E0.12153
G1 X131.858 Y134.651 E0.00867
G1 X131.858 Y134.447 E0.00646
G1 X135.045 Y137.634 E0.14254
G1 X135.582 Y137.634 E0.01701
G1 X131.858 Y133.909 E0.16660
G1 X131.687 Y133.201 E0.02304
G1 X136.290 Y137.804 E0.20587
G1 F8640
G1 X133.963 Y135.476 E-0.76000
G1 E-0.04000 F2100.00000
G1 Z0.800 F10800.000
G1 X127.146 Y137.804
G1 Z0.200
G1 E0.80000 F2100.00000
G1 F1200
G1 X109.570 Y120.228 E0.78611
G1 X109.334 Y120.228 E0.00746
G1 X109.334 Y120.530 E0.00955
G1 X126.438 Y137.634 E0.76502
G1 X125.900 Y137.634 E0.01701
G1 X109.334 Y121.067 E0.74096
G1 X109.334 Y121.605 E0.01701
G1 X125.362 Y137.634 E0.71691
G1 X124.825 Y137.634 E0.01701
G1 X109.334 Y122.143 E0.69285
G1 X109.334 Y122.681 E0.01701
G1 X124.287 Y137.634 E0.66879
G1 X123.749 Y137.634 E0.01701
G1 X109.334 Y123.219 E0.64473
G1 X109.334 Y123.757 E0.01701
G1 X123.211 Y137.634 E0.62067
G1 X122.673 Y137.634 E0.01701
G1 X109.334 Y124.295 E0.59662
G1 X109.334 Y124.833 E0.01701
G1 X122.135 Y137.634 E0.57256
G1 X121.597 Y137.634 E0.01701
G1 X109.334 Y125.371 E0.54850
G1 X109.334 Y125.908 E0.01701
G1 X121.059 Y137.634 E0.52444
G1 X120.521 Y137.634 E0.01701
G1 X109.334 Y126.446 E0.50038
G1 X109.334 Y126.984 E0.01701
G1 X119.984 Y137.634 E0.47633
G1 X119.446 Y137.634 E0.01701
G1 X109.334 Y127.522 E0.45227
G1 X109.334 Y128.060 E0.01701
G1 X118.908 Y137.634 E0.42821
G1 X118.370 Y137.634 E0.01701
G1 X109.334 Y128.598 E0.40415
G1 X109.334 Y129.136 E0.01701
G1 X117.832 Y137.634 E0.38009
G1 X117.294 Y137.634 E0.01701
G1 X109.334 Y129.674 E0.35604
G1 X109.334 Y130.212 E0.01701
G1 X116.756 Y137.634 E0.33198
G1 X116.218 Y137.634 E0.01701
G1 X109.334 Y130.750 E0.30792
G1 X109.334 Y131.287 E0.01701
G1 X115.680 Y137.634 E0.28386
G1 X115.142 Y137.634 E0.01701
G1 X109.334 Y131.825 E0.25980
G1 X109.334 Y132.363 E0.01701
G1 X114.605 Y137.634 E0.23575
G1 X114.067 Y137.634 E0.01701
G1 X109.334 Y132.901 E0.21169
G1 X109.334 Y133.439 E0.01701
G1 X113.529 Y137.634 E0.18763
G1 X112.991 Y137.634 E0.01701
G1 X109.334 Y133.977 E0.16357
G1 X109.334 Y134.515 E0.01701
G1 X112.453 Y137.634 E0.13951
G1 X111.915 Y137.634 E0.01701
G1 X109.334 Y135.053 E0.11546
G1 X109.334 Y135.591 E0.01701
G1 X111.377 Y137.634 E0.09140
G1 X110.839 Y137.634 E0.01701
G1 X109.334 Y136.128 E0.06734
G1 X109.334 Y136.666 E0.01701
G1 X110.301 Y137.634 E0.04328
G1 X109.764 Y137.634 E0.01701
G1 X109.164 Y137.035 E0.02681
G1 F8640
G1 X109.764 Y137.634 E-0.19577
G1 X110.301 Y137.634 E-0.12420
G1 X109.334 Y136.666 E-0.31601
G1 X109.334 Y136.129 E-0.12402
G1 E-0.04000 F2100.00000
G1 Z0.800 F10800.000
G1 X142.241 Y112.409
G1 Z0.200
G1 E0.80000 F2100.00000
G1 F1200
G1 X141.781 Y111.919 E0.02108
G1 X141.566 Y111.582 E0.01253
G1 X141.396 Y111.220 E0.01253
G1 X141.229 Y110.569 E0.02108
G1 X141.229 Y109.854 E0.02241
G1 X141.407 Y109.163 E0.02239
G1 X141.725 Y108.583 E0.02074
G1 X142.009 Y108.235 E0.01409
