; generated by PrusaSlicer 2.0.0+win64 on 2020-05-20 at 09:55:32

; 

; external perimeters extrusion width = 0.60mm
; perimeters extrusion width = 0.50mm
; infill extrusion width = 0.50mm
; solid infill extrusion width = 0.50mm
; top infill extrusion width = 0.45mm
; first layer extrusion width = 0.42mm

M73 P0 R136
M73 Q0 S136
M201 X1000 Y1000 Z1000 E5000 ; sets maximum accelerations, mm/sec^2
M203 X200 Y200 Z12 E120 ; sets maximum feedrates, mm/sec
M204 P1250 R1250 T1250 ; sets acceleration (P, T) and retract acceleration (R), mm/sec^2
M205 X8.00 Y8.00 Z0.40 E1.50 ; sets the jerk limits, mm/sec
M205 S0 T0 ; sets the minimum extruding and travel feed rate, mm/sec
M107
M115 U3.8.0 ; tell printer latest fw version
G90 ; use absolute coordinates
M83 ; extruder relative mode
M104 S215 ; set extruder temp
M140 S67 ; set bed temp
M190 S67 ; wait for bed temp
M109 S215 ; wait for extruder temp
G28 W ; home all without mesh bed level
G80 ; mesh bed leveling
G1 Y-3.0 F1000.0 ; go outside print area
G92 E0.0
G1 X60.0 E9.0 F1000.0 ; intro line
M73 Q0 S136
M73 P0 R135
G1 X100.0 E12.5 F1000.0 ; intro line
G92 E0.0
M221 S95
M900 K30 ; Filament gcode
G21 ; set units to millimeters
G90 ; use absolute coordinates
M83 ; use relative distances for extrusion
;BEFORE_LAYER_CHANGE
G92 E0.0
;0.2


G1 E-0.80000 F2100.00000
G1 Z0.600 F10800.000
;AFTER_LAYER_CHANGE
;0.2
G1 X23.731 Y52.231
G1 Z0.200
G1 E0.80000 F2100.00000
M204 S1000
G1 F1200
G1 X46.859 Y52.231 E0.72517
G1 X46.859 Y59.513 E0.22830
G1 X23.731 Y59.513 E0.72517
G1 X23.731 Y52.291 E0.22642
G1 X24.108 Y52.608 F10800.000
G1 F1200
G1 X46.482 Y52.608 E0.70153
G1 X46.482 Y59.136 E0.20465
G1 X24.108 Y59.136 E0.70153
G1 X24.108 Y52.668 E0.20277
G1 X24.485 Y52.986 F10800.000
G1 F1200
G1 X46.105 Y52.986 E0.67788
G1 X46.105 Y58.759 E0.18101
G1 X24.485 Y58.759 E0.67788
G1 X24.485 Y53.046 E0.17913
G1 X24.316 Y52.623 F10800.000
G1 F8640
G1 X27.777 Y53.036 E-0.76000
G1 E-0.04000 F2100.00000
G1 Z0.800 F10800.000
G1 X25.454 Y50.737
G1 Z0.200
G1 E0.80000 F2100.00000
G1 F1200
G1 X25.454 Y26.054 E0.77390
G1 X45.137 Y26.054 E0.61713
G1 X45.137 Y50.737 E0.77390
G1 X25.514 Y50.737 E0.61525
G1 X25.831 Y50.360 F10800.000
G1 F1200
G1 X25.831 Y26.431 E0.75026
G1 X44.759 Y26.431 E0.59348
G1 X44.759 Y50.360 E0.75026
G1 X25.891 Y50.360 E0.59160
G1 X26.208 Y49.983 F10800.000
G1 F1200
G1 X26.208 Y26.808 E0.72661
G1 X44.382 Y26.808 E0.56984
G1 X44.382 Y49.983 E0.72661
G1 X26.268 Y49.983 E0.56796
G1 X26.585 Y49.606 F10800.000
G1 F1200
G1 X26.585 Y27.186 E0.70296
G1 X44.005 Y27.186 E0.54619
G1 X44.005 Y49.606 E0.70296
G1 X26.645 Y49.606 E0.54431
G1 X26.204 Y49.725 F10800.000
G1 F8640
G1 X26.637 Y46.314 E-0.76000
G1 E-0.04000 F2100.00000
G1 Z0.800 F10800.000
G1 X47.237 Y51.854
G1 Z0.200
G1 E0.80000 F2100.00000
G1 F1200
G1 X23.354 Y51.854 E0.74882
G1 X23.354 Y59.254 E0.23202
G1 X19.220 Y59.254 E0.12963
G1 X19.130 Y58.895 E0.01161
G1 X18.973 Y58.455 E0.01466
G1 X18.631 Y57.720 E0.02539
G1 X18.437 Y57.411 E0.01148
G1 X18.437 Y21.537 E1.12480
G1 X52.154 Y21.537 E1.05719
G1 X52.154 Y57.411 E1.12480
G1 X51.959 Y57.721 E0.01150
G1 X51.604 Y58.487 E0.02646
G1 X51.359 Y59.254 E0.02526
G1 X47.237 Y59.254 E0.12925
G1 X47.237 Y51.914 E0.23014
G1 F8640
G1 X43.945 Y51.906 E-0.76000
G1 E-0.04000 F2100.00000
G1 Z0.800 F10800.000
G1 X51.662 Y59.631
G1 Z0.200
G1 E0.80000 F2100.00000
G1 F1200
G1 X18.926 Y59.631 E1.02644
G1 X18.768 Y59.004 E0.02027
G1 X18.624 Y58.598 E0.01354
G1 X18.300 Y57.901 E0.02409
G1 X18.059 Y57.519 E0.01414
G1 X18.059 Y21.160 E1.14003
G1 X52.531 Y21.160 E1.08084
G1 X52.531 Y57.519 E1.14003
G1 X52.291 Y57.902 E0.01416
G1 X51.956 Y58.624 E0.02497
G1 X51.722 Y59.356 E0.02409
G1 X51.675 Y59.573 E0.00696
G1 X52.004 Y59.834 F10800.000
G1 F1200
G1 X51.983 Y60.008 E0.00550
G1 X18.608 Y60.008 E1.04647
G1 X18.585 Y59.825 E0.00579
G1 X18.407 Y59.114 E0.02300
G1 X18.274 Y58.741 E0.01242
G1 X17.968 Y58.082 E0.02279
G1 X17.682 Y57.628 E0.01681
G1 X17.682 Y20.783 E1.15526
G1 X52.908 Y20.783 E1.10448
G1 X52.908 Y57.628 E1.15526
G1 X52.623 Y58.082 E0.01682
G1 X52.308 Y58.761 E0.02347
G1 X52.087 Y59.453 E0.02279
G1 X52.017 Y59.776 E0.01034
G1 X52.318 Y60.386 F10800.000
G1 F1200
G1 X18.273 Y60.386 E1.06744
G1 X18.214 Y59.894 E0.01553
G1 X18.046 Y59.223 E0.02168
G1 X17.925 Y58.884 E0.01130
G1 X17.636 Y58.262 E0.02149
G1 X17.305 Y57.737 E0.01947
G1 X17.305 Y20.406 E1.17049
G1 X53.285 Y20.406 E1.12813
G1 X53.285 Y57.737 E1.17049
M73 Q0 S135
M73 P0 R134
G1 X52.955 Y58.262 E0.01947
G1 X52.660 Y58.898 E0.02197
G1 X52.452 Y59.551 E0.02149
G1 X52.376 Y59.897 E0.01110
G1 X52.325 Y60.326 E0.01354
G1 X51.982 Y60.167 F10800.000
G1 F8640
G1 X49.033 Y60.332 E-0.76000
G1 E-0.04000 F2100.00000
G1 Z0.800 F10800.000
G1 X47.350 Y58.508
G1 Z0.200
G1 E0.80000 F2100.00000
G1 F1200
G1 X47.813 Y58.971 E0.02069
G1 X48.350 Y58.971 E0.01693
G1 X47.519 Y58.141 E0.03706
G1 X47.519 Y57.604 E0.01693
G1 X48.886 Y58.971 E0.06100
G1 X49.423 Y58.971 E0.01693
G1 X47.519 Y57.068 E0.08494
G1 X47.519 Y56.531 E0.01693
G1 X49.960 Y58.971 E0.10889
G1 X50.496 Y58.971 E0.01693
G1 X47.519 Y55.995 E0.13283
G1 X47.519 Y55.458 E0.01693
G1 X51.033 Y58.971 E0.15677
G1 X51.152 Y58.971 E0.00377
G1 X51.253 Y58.655 E0.01048
G1 X47.519 Y54.921 E0.16660
G1 X47.519 Y54.385 E0.01693
G1 X51.396 Y58.262 E0.17299
G1 X51.566 Y57.895 E0.01275
G1 X47.519 Y53.848 E0.18057
G1 X47.519 Y53.312 E0.01693
G1 X51.742 Y57.534 E0.18842
G1 X51.871 Y57.329 E0.00765
G1 X51.871 Y57.127 E0.00638
G1 X47.519 Y52.775 E0.19418
G1 X47.519 Y52.238 E0.01693
G1 X51.871 Y56.590 E0.19418
G1 X51.871 Y56.054 E0.01693
G1 X45.419 Y49.602 E0.28788
G1 X45.419 Y49.065 E0.01693
G1 X51.871 Y55.517 E0.28788
G1 X51.871 Y54.980 E0.01693
G1 X45.419 Y48.528 E0.28788
G1 X45.419 Y47.992 E0.01693
G1 X51.871 Y54.444 E0.28788
G1 X51.871 Y53.907 E0.01693
G1 X45.419 Y47.455 E0.28788
G1 X45.419 Y46.919 E0.01693
G1 X51.871 Y53.371 E0.28788
G1 X51.871 Y52.834 E0.01693
G1 X45.419 Y46.382 E0.28788
G1 X45.419 Y45.845 E0.01693
G1 X51.871 Y52.297 E0.28788
G1 X51.871 Y51.761 E0.01693
G1 X45.419 Y45.309 E0.28788
G1 X45.419 Y44.772 E0.01693
G1 X51.871 Y51.224 E0.28788
G1 X51.871 Y50.688 E0.01693
G1 X45.419 Y44.236 E0.28788
G1 X45.419 Y43.699 E0.01693
G1 X51.871 Y50.151 E0.28788
G1 X51.871 Y49.614 E0.01693
G1 X45.419 Y43.162 E0.28788
G1 X45.419 Y42.626 E0.01693
G1 X51.871 Y49.078 E0.28788
G1 X51.871 Y48.541 E0.01693
G1 X45.419 Y42.089 E0.28788
G1 X45.419 Y41.553 E0.01693
G1 X51.871 Y48.005 E0.28788
G1 X51.871 Y47.468 E0.01693
G1 X45.419 Y41.016 E0.28788
G1 X45.419 Y40.479 E0.01693
G1 X51.871 Y46.931 E0.28788
G1 X51.871 Y46.395 E0.01693
G1 X45.419 Y39.943 E0.28788
G1 X45.419 Y39.406 E0.01693
G1 X51.871 Y45.858 E0.28788
G1 X51.871 Y45.322 E0.01693
G1 X45.419 Y38.870 E0.28788
G1 X45.419 Y38.333 E0.01693
G1 X51.871 Y44.785 E0.28788
G1 X51.871 Y44.248 E0.01693
G1 X45.419 Y37.796 E0.28788
G1 X45.419 Y37.260 E0.01693
G1 X51.871 Y43.712 E0.28788
G1 X51.871 Y43.175 E0.01693
G1 X45.419 Y36.723 E0.28788
G1 X45.419 Y36.187 E0.01693
G1 X51.871 Y42.638 E0.28788
G1 X51.871 Y42.102 E0.01693
G1 X45.419 Y35.650 E0.28788
G1 X45.419 Y35.113 E0.01693
G1 X51.871 Y41.565 E0.28788
G1 X51.871 Y41.029 E0.01693
G1 X45.419 Y34.577 E0.28788
G1 X45.419 Y34.040 E0.01693
G1 X51.871 Y40.492 E0.28788
G1 X51.871 Y39.955 E0.01693
G1 X45.419 Y33.504 E0.28788
G1 X45.419 Y32.967 E0.01693
G1 X51.871 Y39.419 E0.28788
G1 X51.871 Y38.882 E0.01693
G1 X45.419 Y32.430 E0.28788
G1 X45.419 Y31.894 E0.01693
G1 X51.871 Y38.346 E0.28788
G1 X51.871 Y37.809 E0.01693
G1 X45.419 Y31.357 E0.28788
G1 X45.419 Y30.820 E0.01693
G1 X51.871 Y37.272 E0.28788
G1 X51.871 Y36.736 E0.01693
G1 X45.419 Y30.284 E0.28788
G1 X45.419 Y29.747 E0.01693
G1 X51.871 Y36.199 E0.28788
G1 X51.871 Y35.663 E0.01693
G1 X45.419 Y29.211 E0.28788
G1 X45.419 Y28.674 E0.01693
G1 X51.871 Y35.126 E0.28788
G1 X51.871 Y34.589 E0.01693
G1 X45.419 Y28.137 E0.28788
G1 X45.419 Y27.601 E0.01693
G1 X51.871 Y34.053 E0.28788
G1 X51.871 Y33.516 E0.01693
G1 X45.419 Y27.064 E0.28788
G1 X45.419 Y26.528 E0.01693
G1 X51.871 Y32.980 E0.28788
G1 X51.871 Y32.443 E0.01693
G1 X41.248 Y21.820 E0.47401
G1 X41.784 Y21.820 E0.01693
G1 X51.871 Y31.906 E0.45006
G1 X51.871 Y31.370 E0.01693
G1 X42.321 Y21.820 E0.42612
G1 X42.858 Y21.820 E0.01693
G1 X51.871 Y30.833 E0.40218
G1 X51.871 Y30.297 E0.01693
G1 X43.394 Y21.820 E0.37824
G1 X43.931 Y21.820 E0.01693
G1 X51.871 Y29.760 E0.35429
G1 X51.871 Y29.223 E0.01693
G1 X44.468 Y21.820 E0.33035
G1 X45.004 Y21.820 E0.01693
G1 X51.871 Y28.687 E0.30641
G1 X51.871 Y28.150 E0.01693
G1 X45.541 Y21.820 E0.28246
G1 X46.077 Y21.820 E0.01693
G1 X51.871 Y27.614 E0.25852
G1 X51.871 Y27.077 E0.01693
G1 X46.614 Y21.820 E0.23458
G1 X47.151 Y21.820 E0.01693
G1 X51.871 Y26.540 E0.21064
G1 X51.871 Y26.004 E0.01693
G1 X47.687 Y21.820 E0.18669
G1 X48.224 Y21.820 E0.01693
G1 X51.871 Y25.467 E0.16275
G1 X51.871 Y24.930 E0.01693
G1 X48.760 Y21.820 E0.13881
G1 X49.297 Y21.820 E0.01693
G1 X51.871 Y24.394 E0.11486
G1 X51.871 Y23.857 E0.01693
G1 X49.834 Y21.820 E0.09092
G1 X50.370 Y21.820 E0.01693
G1 X51.871 Y23.321 E0.06698
G1 X51.871 Y22.784 E0.01693
G1 X50.907 Y21.820 E0.04304
G1 X51.443 Y21.820 E0.01693
G1 X52.041 Y22.417 E0.02666
G1 F8640
G1 X51.443 Y21.820 E-0.19514
G1 X50.907 Y21.820 E-0.12390
G1 X51.871 Y22.784 E-0.31496
G1 X51.871 Y23.321 E-0.12390
G1 X51.865 Y23.314 E-0.00210
G1 E-0.04000 F2100.00000
G1 Z0.800 F10800.000
G1 X44.833 Y25.941
G1 Z0.200
G1 E0.80000 F2100.00000
G1 F1200
G1 X40.711 Y21.820 E0.18390
G1 X40.175 Y21.820 E0.01693
G1 X44.127 Y25.771 E0.17633
G1 X43.590 Y25.771 E0.01693
G1 X39.638 Y21.820 E0.17633
G1 X39.101 Y21.820 E0.01693
G1 X43.053 Y25.771 E0.17633
G1 X42.517 Y25.771 E0.01693
G1 X38.565 Y21.820 E0.17633
G1 X38.028 Y21.820 E0.01693
G1 X41.980 Y25.771 E0.17633
G1 X41.444 Y25.771 E0.01693
G1 X37.492 Y21.820 E0.17633
G1 X36.955 Y21.820 E0.01693
G1 X40.907 Y25.771 E0.17633
G1 X40.370 Y25.771 E0.01693
G1 X36.418 Y21.820 E0.17633
G1 X35.882 Y21.820 E0.01693
G1 X39.834 Y25.771 E0.17633
G1 X39.297 Y25.771 E0.01693
G1 X35.345 Y21.820 E0.17633
G1 X34.809 Y21.820 E0.01693
G1 X38.761 Y25.771 E0.17633
G1 X38.224 Y25.771 E0.01693
G1 X34.272 Y21.820 E0.17633
G1 X33.735 Y21.820 E0.01693
G1 X37.687 Y25.771 E0.17633
G1 X37.151 Y25.771 E0.01693
G1 X33.199 Y21.820 E0.17633
G1 X32.662 Y21.820 E0.01693
G1 X36.614 Y25.771 E0.17633
G1 X36.078 Y25.771 E0.01693
G1 X32.126 Y21.820 E0.17633
G1 X31.589 Y21.820 E0.01693
G1 X35.541 Y25.771 E0.17633
G1 X35.004 Y25.772 E0.01693
G1 X31.052 Y21.820 E0.17633
G1 X30.516 Y21.820 E0.01693
G1 X34.468 Y25.772 E0.17633
G1 X33.931 Y25.772 E0.01693
G1 X29.979 Y21.820 E0.17633
G1 X29.443 Y21.820 E0.01693
G1 X33.394 Y25.772 E0.17633
G1 X32.858 Y25.772 E0.01693
G1 X28.906 Y21.820 E0.17633
G1 X28.369 Y21.820 E0.01693
G1 X32.321 Y25.772 E0.17633
G1 X31.785 Y25.772 E0.01693
G1 X27.833 Y21.820 E0.17633
G1 X27.296 Y21.820 E0.01693
G1 X31.248 Y25.772 E0.17633
G1 X30.711 Y25.772 E0.01693
G1 X26.760 Y21.820 E0.17633
G1 X26.223 Y21.820 E0.01693
G1 X30.175 Y25.772 E0.17633
G1 X29.638 Y25.772 E0.01693
G1 X25.686 Y21.820 E0.17633
G1 X25.150 Y21.820 E0.01693
G1 X29.102 Y25.772 E0.17633
G1 X28.565 Y25.772 E0.01693
G1 X24.613 Y21.820 E0.17633
G1 X24.076 Y21.820 E0.01693
G1 X28.028 Y25.772 E0.17633
G1 X27.492 Y25.772 E0.01693
G1 X23.540 Y21.820 E0.17633
G1 X23.003 Y21.820 E0.01693
G1 X26.955 Y25.772 E0.17633
G1 X26.419 Y25.772 E0.01693
G1 X22.467 Y21.820 E0.17633
G1 X21.930 Y21.820 E0.01693
G1 X25.882 Y25.772 E0.17633
G1 X25.345 Y25.772 E0.01693
G1 X21.393 Y21.820 E0.17633
G1 X20.857 Y21.820 E0.01693
G1 X25.171 Y26.134 E0.19251
G1 X25.171 Y26.671 E0.01693
G1 X20.320 Y21.820 E0.21645
G1 X19.784 Y21.820 E0.01693
G1 X25.171 Y27.207 E0.24039
G1 X25.171 Y27.744 E0.01693
G1 X19.247 Y21.820 E0.26434
G1 X18.719 Y21.820 E0.01665
G1 X25.171 Y28.280 E0.28808
G1 X25.171 Y28.817 E0.01693
G1 X18.719 Y22.365 E0.28788
G1 X18.719 Y22.902 E0.01693
G1 X25.171 Y29.354 E0.28788
G1 X25.171 Y29.890 E0.01693
G1 X18.719 Y23.438 E0.28788
G1 X18.719 Y23.975 E0.01693
G1 X25.171 Y30.427 E0.28788
G1 X25.171 Y30.963 E0.01693
G1 X18.719 Y24.512 E0.28788
G1 X18.719 Y25.048 E0.01693
G1 X25.171 Y31.500 E0.28788
G1 X25.171 Y32.037 E0.01693
G1 X18.719 Y25.585 E0.28788
G1 X18.719 Y26.121 E0.01693
G1 X25.171 Y32.573 E0.28788
G1 X25.171 Y33.110 E0.01693
G1 X18.719 Y26.658 E0.28788
G1 X18.719 Y27.195 E0.01693
G1 X25.171 Y33.647 E0.28788
G1 X25.171 Y34.183 E0.01693
G1 X18.719 Y27.731 E0.28788
G1 X18.719 Y28.268 E0.01693
G1 X25.171 Y34.720 E0.28788
G1 X25.171 Y35.256 E0.01693
G1 X18.719 Y28.804 E0.28788
G1 X18.719 Y29.341 E0.01693
G1 X25.171 Y35.793 E0.28788
G1 X25.171 Y36.330 E0.01693
G1 X18.719 Y29.878 E0.28788
G1 X18.719 Y30.414 E0.01693
G1 X25.171 Y36.866 E0.28788
G1 X25.171 Y37.403 E0.01693
G1 X18.719 Y30.951 E0.28788
G1 X18.719 Y31.487 E0.01693
G1 X25.171 Y37.939 E0.28788
G1 X25.171 Y38.476 E0.01693
G1 X18.719 Y32.024 E0.28788
G1 X18.719 Y32.561 E0.01693
G1 X25.171 Y39.013 E0.28788
G1 X25.171 Y39.549 E0.01693
G1 X18.719 Y33.097 E0.28788
G1 X18.719 Y33.634 E0.01693
G1 X25.171 Y40.086 E0.28788
G1 X25.171 Y40.622 E0.01693
G1 X18.719 Y34.170 E0.28788
G1 X18.719 Y34.707 E0.01693
G1 X25.171 Y41.159 E0.28788
M73 Q1 S134
M73 P1 R133
G1 X25.171 Y41.696 E0.01693
G1 X18.719 Y35.244 E0.28788
G1 X18.719 Y35.780 E0.01693
G1 X25.171 Y42.232 E0.28788
G1 X25.171 Y42.769 E0.01693
G1 X18.719 Y36.317 E0.28788
G1 X18.719 Y36.853 E0.01693
G1 X25.171 Y43.305 E0.28788
G1 X25.171 Y43.842 E0.01693
G1 X18.719 Y37.390 E0.28788
G1 X18.719 Y37.927 E0.01693
G1 X25.171 Y44.379 E0.28788
G1 X25.171 Y44.915 E0.01693
G1 X18.719 Y38.463 E0.28788
G1 X18.719 Y39.000 E0.01693
G1 X25.171 Y45.452 E0.28788
G1 X25.171 Y45.988 E0.01693
G1 X18.719 Y39.536 E0.28788
G1 X18.719 Y40.073 E0.01693
G1 X25.171 Y46.525 E0.28788
G1 X25.171 Y47.062 E0.01693
G1 X18.719 Y40.610 E0.28788
G1 X18.719 Y41.146 E0.01693
G1 X25.171 Y47.598 E0.28788
G1 X25.171 Y48.135 E0.01693
G1 X18.719 Y41.683 E0.28788
G1 X18.719 Y42.220 E0.01693
G1 X25.171 Y48.671 E0.28788
G1 X25.171 Y49.208 E0.01693
G1 X18.719 Y42.756 E0.28788
G1 X18.719 Y43.293 E0.01693
G1 X25.171 Y49.745 E0.28788
G1 X25.171 Y50.281 E0.01693
G1 X18.719 Y43.829 E0.28788
G1 X18.719 Y44.366 E0.01693
G1 X25.925 Y51.571 E0.32150
G1 X26.462 Y51.571 E0.01693
G1 X25.910 Y51.020 E0.02463
G1 X26.446 Y51.020 E0.01693
G1 X26.998 Y51.571 E0.02463
G1 X27.535 Y51.571 E0.01693
G1 X26.983 Y51.020 E0.02463
G1 X27.519 Y51.020 E0.01693
G1 X28.071 Y51.571 E0.02463
G1 X28.608 Y51.571 E0.01693
G1 X28.056 Y51.020 E0.02463
G1 X28.593 Y51.020 E0.01693
G1 X29.145 Y51.571 E0.02463
G1 X29.681 Y51.571 E0.01693
G1 X29.129 Y51.020 E0.02463
G1 X29.666 Y51.020 E0.01693
G1 X30.218 Y51.571 E0.02463
G1 X30.754 Y51.571 E0.01693
G1 X30.202 Y51.020 E0.02463
G1 X30.739 Y51.020 E0.01693
G1 X31.291 Y51.571 E0.02463
G1 X31.828 Y51.571 E0.01693
G1 X31.276 Y51.020 E0.02463
G1 X31.812 Y51.020 E0.01693
G1 X32.364 Y51.571 E0.02463
G1 X32.901 Y51.571 E0.01693
G1 X32.349 Y51.020 E0.02463
G1 X32.885 Y51.020 E0.01693
G1 X33.437 Y51.571 E0.02463
G1 X33.974 Y51.571 E0.01693
G1 X33.422 Y51.020 E0.02463
G1 X33.959 Y51.020 E0.01693
G1 X34.511 Y51.571 E0.02463
G1 X35.047 Y51.571 E0.01693
G1 X34.495 Y51.020 E0.02463
G1 X35.032 Y51.020 E0.01693
G1 X35.584 Y51.571 E0.02463
G1 X36.120 Y51.571 E0.01693
G1 X35.568 Y51.020 E0.02463
G1 X36.105 Y51.020 E0.01693
G1 X36.657 Y51.571 E0.02463
G1 X37.194 Y51.571 E0.01693
G1 X36.642 Y51.020 E0.02463
G1 X37.178 Y51.020 E0.01693
G1 X37.730 Y51.571 E0.02463
G1 X38.267 Y51.571 E0.01693
G1 X37.715 Y51.020 E0.02463
G1 X38.252 Y51.020 E0.01693
G1 X38.803 Y51.571 E0.02463
G1 X39.340 Y51.571 E0.01693
G1 X38.788 Y51.020 E0.02463
G1 X39.325 Y51.020 E0.01693
G1 X39.877 Y51.571 E0.02463
G1 X40.413 Y51.571 E0.01693
G1 X39.861 Y51.020 E0.02463
G1 X40.398 Y51.020 E0.01693
G1 X40.950 Y51.571 E0.02463
G1 X41.486 Y51.571 E0.01693
G1 X40.935 Y51.020 E0.02463
G1 X41.471 Y51.020 E0.01693
G1 X42.023 Y51.571 E0.02463
G1 X42.560 Y51.571 E0.01693
G1 X42.008 Y51.020 E0.02463
G1 X42.544 Y51.020 E0.01693
G1 X43.096 Y51.571 E0.02463
G1 X43.633 Y51.571 E0.01693
G1 X43.081 Y51.020 E0.02463
G1 X43.618 Y51.020 E0.01693
G1 X44.170 Y51.571 E0.02463
G1 X44.706 Y51.571 E0.01693
G1 X44.154 Y51.020 E0.02463
