; generated by PrusaSlicer 2.0.0+win64 on 2020-05-20 at 14:47:55

; 

; external perimeters extrusion width = 0.45mm
; perimeters extrusion width = 0.45mm
; infill extrusion width = 0.45mm
; solid infill extrusion width = 0.45mm
; top infill extrusion width = 0.40mm
; first layer extrusion width = 0.42mm

M73 P0 R139
M73 Q0 S140
M201 X1000 Y1000 Z1000 E5000 ; sets maximum accelerations, mm/sec^2
M203 X200 Y200 Z12 E120 ; sets maximum feedrates, mm/sec
M204 P1250 R1250 T1250 ; sets acceleration (P, T) and retract acceleration (R), mm/sec^2
M205 X8.00 Y8.00 Z0.40 E1.50 ; sets the jerk limits, mm/sec
M205 S0 T0 ; sets the minimum extruding and travel feed rate, mm/sec
M107
M115 U3.8.0 ; tell printer latest fw version
G90 ; use absolute coordinates
M83 ; extruder relative mode
M104 S215 ; set extruder temp
M140 S67 ; set bed temp
M190 S67 ; wait for bed temp
M109 S215 ; wait for extruder temp
G28 W ; home all without mesh bed level
G80 ; mesh bed leveling
G1 Y-3.0 F1000.0 ; go outside print area
G92 E0.0
G1 X60.0 E9.0 F1000.0 ; intro line
M73 Q0 S140
M73 P0 R139
G1 X100.0 E12.5 F1000.0 ; intro line
G92 E0.0
M221 S95
M900 K30 ; Filament gcode
G21 ; set units to millimeters
G90 ; use absolute coordinates
M83 ; use relative distances for extrusion
;BEFORE_LAYER_CHANGE
G92 E0.0
;0.2


G1 E-0.80000 F2100.00000
G1 Z0.600 F10800.000
;AFTER_LAYER_CHANGE
;0.2
G1 X116.695 Y110.142
G1 Z0.200
G1 E0.80000 F2100.00000
M204 S1000
G1 F1200
G1 X133.305 Y110.142 E0.52077
G1 X133.305 Y110.904 E0.02390
G1 X116.695 Y110.904 E0.52077
G1 X116.695 Y110.202 E0.02202
G1 X116.318 Y109.765 F10800.000
G1 F1200
G1 X133.682 Y109.765 E0.54442
G1 X133.682 Y111.281 E0.04755
G1 X116.318 Y111.281 E0.54442
G1 X116.318 Y109.825 E0.04566
G1 X115.941 Y109.388 F10800.000
G1 F1200
G1 X134.059 Y109.388 E0.56806
G1 X134.059 Y111.658 E0.07119
G1 X115.941 Y111.658 E0.56806
G1 X115.941 Y109.448 E0.06931
G1 X115.564 Y109.011 F10800.000
G1 F1200
G1 X134.436 Y109.011 E0.59171
G1 X134.436 Y112.035 E0.09484
G1 X115.564 Y112.035 E0.59171
G1 X115.564 Y109.071 E0.09296
G1 X115.187 Y108.634 F10800.000
G1 F1200
G1 X134.813 Y108.634 E0.61535
G1 X134.813 Y112.412 E0.11848
G1 X115.187 Y112.412 E0.61535
G1 X115.187 Y108.694 E0.11660
G1 X114.810 Y108.257 F10800.000
G1 F1200
G1 X135.190 Y108.257 E0.63900
G1 X135.190 Y112.790 E0.14213
G1 X114.810 Y112.790 E0.63900
G1 X114.810 Y108.317 E0.14025
G1 X115.209 Y108.286 F10800.000
G1 F8640
G1 X118.101 Y108.307 E-0.76000
G1 E-0.04000 F2100.00000
G1 Z0.800 F10800.000
G1 X117.057 Y110.255
G1 Z0.200
G1 E0.80000 F2100.00000
G1 F1200
G1 X117.423 Y110.621 E0.01670
G1 X117.972 Y110.621 E0.01767
G1 X117.775 Y110.425 E0.00896
G1 X118.323 Y110.425 E0.01767
G1 X118.520 Y110.621 E0.00896
G1 X119.068 Y110.621 E0.01767
G1 X118.871 Y110.425 E0.00896
G1 X119.420 Y110.425 E0.01767
G1 X119.616 Y110.621 E0.00896
G1 X120.164 Y110.621 E0.01767
G1 X119.968 Y110.425 E0.00896
G1 X120.516 Y110.425 E0.01767
G1 X120.713 Y110.621 E0.00896
G1 X121.261 Y110.621 E0.01767
G1 X121.064 Y110.425 E0.00896
G1 X121.612 Y110.425 E0.01767
G1 X121.809 Y110.621 E0.00896
G1 X122.357 Y110.621 E0.01767
G1 X122.161 Y110.425 E0.00896
G1 X122.709 Y110.425 E0.01767
G1 X122.905 Y110.621 E0.00896
G1 X123.454 Y110.621 E0.01767
G1 X123.257 Y110.425 E0.00896
G1 X123.805 Y110.425 E0.01767
G1 X124.002 Y110.621 E0.00896
G1 X124.550 Y110.621 E0.01767
G1 X124.353 Y110.425 E0.00896
G1 X124.902 Y110.425 E0.01767
G1 X125.098 Y110.621 E0.00896
G1 X125.646 Y110.621 E0.01767
G1 X125.450 Y110.425 E0.00896
G1 X125.998 Y110.425 E0.01767
G1 X126.195 Y110.621 E0.00896
G1 X126.743 Y110.621 E0.01767
G1 X126.546 Y110.425 E0.00896
G1 X127.094 Y110.425 E0.01767
G1 X127.291 Y110.621 E0.00896
G1 X127.839 Y110.621 E0.01767
G1 X127.643 Y110.425 E0.00896
G1 X128.191 Y110.425 E0.01767
G1 X128.388 Y110.621 E0.00896
G1 X128.936 Y110.621 E0.01767
G1 X128.739 Y110.425 E0.00896
G1 X129.287 Y110.425 E0.01767
G1 X129.484 Y110.621 E0.00896
G1 X130.032 Y110.621 E0.01767
G1 X129.835 Y110.425 E0.00896
G1 X130.384 Y110.425 E0.01767
G1 X130.580 Y110.621 E0.00896
G1 X131.129 Y110.621 E0.01767
G1 X130.932 Y110.425 E0.00896
G1 X131.480 Y110.425 E0.01767
G1 X131.677 Y110.621 E0.00896
G1 X132.225 Y110.621 E0.01767
G1 X132.028 Y110.425 E0.00896
G1 X132.577 Y110.425 E0.01767
G1 X132.943 Y110.791 E0.01670
G1 F8640
G1 X132.577 Y110.425 E-0.11963
G1 X132.028 Y110.425 E-0.12658
G1 X132.225 Y110.621 E-0.06422
G1 X131.677 Y110.621 E-0.12658
G1 X131.480 Y110.425 E-0.06422
G1 X130.932 Y110.425 E-0.12658
G1 X131.129 Y110.621 E-0.06422
G1 X130.834 Y110.621 E-0.06798
G1 E-0.04000 F2100.00000
G1 Z0.800 F10800.000
G1 X133.305 Y99.905
G1 Z0.200
G1 E0.80000 F2100.00000
G1 F1200
G1 X116.695 Y99.905 E0.52077
G1 X116.695 Y99.142 E0.02390
G1 X133.305 Y99.142 E0.52077
G1 X133.305 Y99.845 E0.02202
G1 X133.682 Y100.282 F10800.000
G1 F1200
G1 X116.318 Y100.282 E0.54442
G1 X116.318 Y98.765 E0.04755
G1 X133.682 Y98.765 E0.54442
G1 X133.682 Y100.222 E0.04566
G1 X134.059 Y100.659 F10800.000
G1 F1200
G1 X115.941 Y100.659 E0.56806
G1 X115.941 Y98.388 E0.07119
G1 X134.059 Y98.388 E0.56806
G1 X134.059 Y100.599 E0.06931
G1 X134.436 Y101.036 F10800.000
G1 F1200
G1 X115.564 Y101.036 E0.59171
G1 X115.564 Y98.011 E0.09484
G1 X134.436 Y98.011 E0.59171
G1 X134.436 Y100.976 E0.09296
G1 X134.813 Y101.413 F10800.000
G1 F1200
G1 X115.187 Y101.413 E0.61535
G1 X115.187 Y97.634 E0.11848
G1 X134.813 Y97.634 E0.61535
G1 X134.813 Y101.353 E0.11660
G1 X135.190 Y101.790 F10800.000
G1 F1200
G1 X114.810 Y101.790 E0.63900
G1 X114.810 Y97.257 E0.14213
G1 X135.190 Y97.257 E0.63900
G1 X135.190 Y101.730 E0.14025
G1 X134.791 Y101.761 F10800.000
G1 F8640
G1 X131.899 Y101.740 E-0.76000
G1 E-0.04000 F2100.00000
G1 Z0.800 F10800.000
G1 X132.943 Y99.792
G1 Z0.200
G1 E0.80000 F2100.00000
G1 F1200
G1 X132.577 Y99.425 E0.01670
G1 X132.028 Y99.425 E0.01767
G1 X132.225 Y99.622 E0.00896
G1 X131.677 Y99.622 E0.01767
G1 X131.480 Y99.425 E0.00896
G1 X130.932 Y99.425 E0.01767
G1 X131.129 Y99.622 E0.00896
G1 X130.580 Y99.622 E0.01767
G1 X130.384 Y99.425 E0.00896
G1 X129.835 Y99.425 E0.01767
G1 X130.032 Y99.622 E0.00896
G1 X129.484 Y99.622 E0.01767
G1 X129.287 Y99.425 E0.00896
G1 X128.739 Y99.425 E0.01767
G1 X128.936 Y99.622 E0.00896
G1 X128.388 Y99.622 E0.01767
G1 X128.191 Y99.425 E0.00896
G1 X127.643 Y99.425 E0.01767
G1 X127.839 Y99.622 E0.00896
G1 X127.291 Y99.622 E0.01767
G1 X127.094 Y99.425 E0.00896
G1 X126.546 Y99.425 E0.01767
G1 X126.743 Y99.622 E0.00896
G1 X126.195 Y99.622 E0.01767
G1 X125.998 Y99.425 E0.00896
G1 X125.450 Y99.425 E0.01767
G1 X125.646 Y99.622 E0.00896
G1 X125.098 Y99.622 E0.01767
G1 X124.902 Y99.425 E0.00896
G1 X124.353 Y99.425 E0.01767
G1 X124.550 Y99.622 E0.00896
G1 X124.002 Y99.622 E0.01767
G1 X123.805 Y99.425 E0.00896
G1 X123.257 Y99.425 E0.01767
G1 X123.454 Y99.622 E0.00896
G1 X122.905 Y99.622 E0.01767
G1 X122.709 Y99.425 E0.00896
G1 X122.161 Y99.425 E0.01767
G1 X122.357 Y99.622 E0.00896
G1 X121.809 Y99.622 E0.01767
G1 X121.612 Y99.425 E0.00896
G1 X121.064 Y99.425 E0.01767
G1 X121.261 Y99.622 E0.00896
G1 X120.713 Y99.622 E0.01767
G1 X120.516 Y99.425 E0.00896
G1 X119.968 Y99.425 E0.01767
G1 X120.164 Y99.622 E0.00896
G1 X119.616 Y99.622 E0.01767
G1 X119.420 Y99.425 E0.00896
G1 X118.871 Y99.425 E0.01767
G1 X119.068 Y99.622 E0.00896
G1 X118.520 Y99.622 E0.01767
G1 X118.323 Y99.425 E0.00896
G1 X117.775 Y99.425 E0.01767
G1 X117.972 Y99.622 E0.00896
G1 X117.423 Y99.622 E0.01767
G1 X117.057 Y99.255 E0.01670
G1 F8640
G1 X117.423 Y99.622 E-0.11963
G1 X117.972 Y99.622 E-0.12658
G1 X117.775 Y99.425 E-0.06422
G1 X118.323 Y99.425 E-0.12658
G1 X118.520 Y99.622 E-0.06422
G1 X119.068 Y99.622 E-0.12658
G1 X118.871 Y99.425 E-0.06422
G1 X119.166 Y99.425 E-0.06798
G1 E-0.04000 F2100.00000
G1 Z0.800 F10800.000
G1 X106.505 Y110.142
G1 Z0.200
G1 E0.80000 F2100.00000
G1 F1200
G1 X106.505 Y110.904 E0.02390
G1 X89.895 Y110.904 E0.52077
G1 X89.895 Y110.142 E0.02390
G1 X106.445 Y110.142 E0.51889
G1 X106.882 Y109.765 F10800.000
G1 F1200
G1 X106.882 Y111.281 E0.04755
G1 X89.518 Y111.281 E0.54442
G1 X89.518 Y109.765 E0.04755
G1 X106.822 Y109.765 E0.54254
G1 X107.259 Y109.388 F10800.000
G1 F1200
G1 X107.259 Y111.658 E0.07119
G1 X89.141 Y111.658 E0.56806
G1 X89.141 Y109.388 E0.07119
G1 X107.199 Y109.388 E0.56618
G1 X107.636 Y109.011 F10800.000
G1 F1200
G1 X107.636 Y112.035 E0.09484
G1 X88.764 Y112.035 E0.59171
G1 X88.764 Y109.011 E0.09484
G1 X107.576 Y109.011 E0.58983
G1 X108.013 Y108.634 F10800.000
G1 F1200
G1 X108.013 Y112.412 E0.11848
G1 X88.387 Y112.412 E0.61535
G1 X88.387 Y108.634 E0.11848
G1 X107.953 Y108.634 E0.61347
G1 X108.390 Y108.257 F10800.000
G1 F1200
G1 X108.390 Y112.790 E0.14213
G1 X88.010 Y112.790 E0.63900
G1 X88.010 Y108.257 E0.14213
G1 X108.330 Y108.257 E0.63712
G1 X108.216 Y108.617 F10800.000
G1 F8640
G1 X108.374 Y111.548 E-0.76000
G1 E-0.04000 F2100.00000
G1 Z0.800 F10800.000
G1 X106.143 Y110.791
G1 Z0.200
G1 E0.80000 F2100.00000
G1 F1200
G1 X105.777 Y110.425 E0.01670
G1 X105.228 Y110.425 E0.01767
G1 X105.425 Y110.621 E0.00896
G1 X104.877 Y110.621 E0.01767
G1 X104.680 Y110.425 E0.00896
G1 X104.132 Y110.425 E0.01767
G1 X104.329 Y110.621 E0.00896
G1 X103.780 Y110.621 E0.01767
G1 X103.584 Y110.425 E0.00896
G1 X103.035 Y110.425 E0.01767
G1 X103.232 Y110.621 E0.00896
G1 X102.684 Y110.621 E0.01767
G1 X102.487 Y110.425 E0.00896
G1 X101.939 Y110.425 E0.01767
G1 X102.136 Y110.621 E0.00896
G1 X101.588 Y110.621 E0.01767
G1 X101.391 Y110.425 E0.00896
G1 X100.843 Y110.425 E0.01767
G1 X101.039 Y110.621 E0.00896
G1 X100.491 Y110.621 E0.01767
G1 X100.294 Y110.425 E0.00896
G1 X99.746 Y110.425 E0.01767
G1 X99.943 Y110.621 E0.00896
G1 X99.395 Y110.621 E0.01767
G1 X99.198 Y110.425 E0.00896
G1 X98.650 Y110.425 E0.01767
G1 X98.846 Y110.621 E0.00896
G1 X98.298 Y110.621 E0.01767
G1 X98.102 Y110.425 E0.00896
G1 X97.553 Y110.425 E0.01767
G1 X97.750 Y110.621 E0.00896
G1 X97.202 Y110.621 E0.01767
G1 X97.005 Y110.425 E0.00896
G1 X96.457 Y110.425 E0.01767
G1 X96.654 Y110.621 E0.00896
G1 X96.105 Y110.621 E0.01767
G1 X95.909 Y110.425 E0.00896
G1 X95.361 Y110.425 E0.01767
G1 X95.557 Y110.621 E0.00896
G1 X95.009 Y110.621 E0.01767
G1 X94.812 Y110.425 E0.00896
G1 X94.264 Y110.425 E0.01767
G1 X94.461 Y110.621 E0.00896
G1 X93.913 Y110.621 E0.01767
G1 X93.716 Y110.425 E0.00896
G1 X93.168 Y110.425 E0.01767
G1 X93.364 Y110.621 E0.00896
G1 X92.816 Y110.621 E0.01767
G1 X92.620 Y110.425 E0.00896
G1 X92.071 Y110.425 E0.01767
G1 X92.268 Y110.621 E0.00896
G1 X91.720 Y110.621 E0.01767
G1 X91.523 Y110.425 E0.00896
G1 X90.975 Y110.425 E0.01767
G1 X91.172 Y110.621 E0.00896
G1 X90.623 Y110.621 E0.01767
G1 X90.257 Y110.255 E0.01670
G1 F8640
G1 X90.623 Y110.621 E-0.11963
G1 X91.172 Y110.621 E-0.12658
G1 X90.975 Y110.425 E-0.06422
G1 X91.523 Y110.425 E-0.12658
G1 X91.720 Y110.621 E-0.06422
G1 X92.268 Y110.621 E-0.12658
G1 X92.071 Y110.425 E-0.06422
G1 X92.366 Y110.425 E-0.06798
G1 E-0.04000 F2100.00000
G1 Z0.800 F10800.000
G1 X89.895 Y99.905
G1 Z0.200
G1 E0.80000 F2100.00000
G1 F1200
G1 X89.895 Y99.142 E0.02390
G1 X106.505 Y99.142 E0.52077
G1 X106.505 Y99.905 E0.02390
G1 X89.955 Y99.905 E0.51889
G1 X89.518 Y100.282 F10800.000
G1 F1200
G1 X89.518 Y98.765 E0.04755
G1 X106.882 Y98.765 E0.54442
G1 X106.882 Y100.282 E0.04755
G1 X89.578 Y100.282 E0.54254
G1 X89.141 Y100.659 F10800.000
G1 F1200
G1 X89.141 Y98.388 E0.07119
G1 X107.259 Y98.388 E0.56806
G1 X107.259 Y100.659 E0.07119
G1 X89.201 Y100.659 E0.56618
G1 X88.764 Y101.036 F10800.000
G1 F1200
G1 X88.764 Y98.011 E0.09484
G1 X107.636 Y98.011 E0.59171
G1 X107.636 Y101.036 E0.09484
G1 X88.824 Y101.036 E0.58983
G1 X88.387 Y101.413 F10800.000
G1 F1200
G1 X88.387 Y97.634 E0.11848
G1 X108.013 Y97.634 E0.61535
G1 X108.013 Y101.413 E0.11848
G1 X88.447 Y101.413 E0.61347
M73 Q0 S139
M73 P0 R138
G1 X88.010 Y101.790 F10800.000
G1 F1200
G1 X88.010 Y97.257 E0.14213
G1 X108.390 Y97.257 E0.63900
G1 X108.390 Y101.790 E0.14213
G1 X88.070 Y101.790 E0.63712
G1 X88.184 Y101.430 F10800.000
G1 F8640
G1 X88.026 Y98.499 E-0.76000
G1 E-0.04000 F2100.00000
G1 Z0.800 F10800.000
G1 X90.257 Y99.255
G1 Z0.200
G1 E0.80000 F2100.00000
G1 F1200
G1 X90.623 Y99.622 E0.01670
G1 X91.172 Y99.622 E0.01767
G1 X90.975 Y99.425 E0.00896
G1 X91.523 Y99.425 E0.01767
G1 X91.720 Y99.622 E0.00896
G1 X92.268 Y99.622 E0.01767
G1 X92.071 Y99.425 E0.00896
G1 X92.620 Y99.425 E0.01767
G1 X92.816 Y99.622 E0.00896
G1 X93.364 Y99.622 E0.01767
G1 X93.168 Y99.425 E0.00896
G1 X93.716 Y99.425 E0.01767
G1 X93.913 Y99.622 E0.00896
G1 X94.461 Y99.622 E0.01767
G1 X94.264 Y99.425 E0.00896
G1 X94.812 Y99.425 E0.01767
G1 X95.009 Y99.622 E0.00896
G1 X95.557 Y99.622 E0.01767
G1 X95.361 Y99.425 E0.00896
G1 X95.909 Y99.425 E0.01767
G1 X96.105 Y99.622 E0.00896
G1 X96.654 Y99.622 E0.01767
G1 X96.457 Y99.425 E0.00896
G1 X97.005 Y99.425 E0.01767
G1 X97.202 Y99.622 E0.00896
G1 X97.750 Y99.622 E0.01767
G1 X97.553 Y99.425 E0.00896
G1 X98.102 Y99.425 E0.01767
G1 X98.298 Y99.622 E0.00896
G1 X98.846 Y99.622 E0.01767
G1 X98.650 Y99.425 E0.00896
G1 X99.198 Y99.425 E0.01767
G1 X99.395 Y99.622 E0.00896
G1 X99.943 Y99.622 E0.01767
G1 X99.746 Y99.425 E0.00896
G1 X100.294 Y99.425 E0.01767
G1 X100.491 Y99.622 E0.00896
G1 X101.039 Y99.622 E0.01767
G1 X100.843 Y99.425 E0.00896
G1 X101.391 Y99.425 E0.01767
G1 X101.588 Y99.622 E0.00896
G1 X102.136 Y99.622 E0.01767
G1 X101.939 Y99.425 E0.00896
G1 X102.487 Y99.425 E0.01767
G1 X102.684 Y99.622 E0.00896
G1 X103.232 Y99.622 E0.01767
G1 X103.035 Y99.425 E0.00896
G1 X103.584 Y99.425 E0.01767
G1 X103.780 Y99.622 E0.00896
G1 X104.329 Y99.622 E0.01767
G1 X104.132 Y99.425 E0.00896
G1 X104.680 Y99.425 E0.01767
G1 X104.877 Y99.622 E0.00896
G1 X105.425 Y99.622 E0.01767
G1 X105.228 Y99.425 E0.00896
G1 X105.777 Y99.425 E0.01767
G1 X106.143 Y99.792 E0.01670
G1 F8640
G1 X105.777 Y99.425 E-0.11963
G1 X105.228 Y99.425 E-0.12658
G1 X105.425 Y99.622 E-0.06422
G1 X104.877 Y99.622 E-0.12658
G1 X104.680 Y99.425 E-0.06422
G1 X104.132 Y99.425 E-0.12658
G1 X104.329 Y99.622 E-0.06422
G1 X104.034 Y99.622 E-0.06798
G1 E-0.04000 F2100.00000
G1 Z0.800 F10800.000
G1 X116.695 Y121.141
G1 Z0.200
G1 E0.80000 F2100.00000
G1 F1200
G1 X133.305 Y121.141 E0.52077
G1 X133.305 Y121.904 E0.02390
G1 X116.695 Y121.904 E0.52077
G1 X116.695 Y121.201 E0.02202
G1 X116.318 Y120.764 F10800.000
G1 F1200
G1 X133.682 Y120.764 E0.54442
G1 X133.682 Y122.281 E0.04755
G1 X116.318 Y122.281 E0.54442
G1 X116.318 Y120.824 E0.04566
G1 X115.941 Y120.387 F10800.000
G1 F1200
G1 X134.059 Y120.387 E0.56806
G1 X134.059 Y122.658 E0.07119
G1 X115.941 Y122.658 E0.56806
G1 X115.941 Y120.447 E0.06931
G1 X115.564 Y120.010 F10800.000
G1 F1200
G1 X134.436 Y120.010 E0.59171
G1 X134.436 Y123.035 E0.09484
G1 X115.564 Y123.035 E0.59171
G1 X115.564 Y120.070 E0.09296
G1 X115.187 Y119.633 F10800.000
G1 F1200
G1 X134.813 Y119.633 E0.61535
G1 X134.813 Y123.412 E0.11848
G1 X115.187 Y123.412 E0.61535
G1 X115.187 Y119.693 E0.11660
G1 X114.810 Y119.256 F10800.000
G1 F1200
G1 X135.190 Y119.256 E0.63900
G1 X135.190 Y123.789 E0.14213
G1 X114.810 Y123.789 E0.63900
G1 X114.810 Y119.316 E0.14025
G1 X115.209 Y119.285 F10800.000
G1 F8640
G1 X118.101 Y119.306 E-0.76000
G1 E-0.04000 F2100.00000
G1 Z0.800 F10800.000
G1 X117.057 Y121.255
G1 Z0.200
G1 E0.80000 F2100.00000
G1 F1200
G1 X117.423 Y121.621 E0.01670
G1 X117.972 Y121.621 E0.01767
G1 X117.775 Y121.424 E0.00896
G1 X118.323 Y121.424 E0.01767
G1 X118.520 Y121.621 E0.00896
G1 X119.068 Y121.621 E0.01767
G1 X118.871 Y121.424 E0.00896
G1 X119.420 Y121.424 E0.01767
G1 X119.616 Y121.621 E0.00896
G1 X120.164 Y121.621 E0.01767
G1 X119.968 Y121.424 E0.00896
G1 X120.516 Y121.424 E0.01767
G1 X120.713 Y121.621 E0.00896
G1 X121.261 Y121.621 E0.01767
G1 X121.064 Y121.424 E0.00896
G1 X121.612 Y121.424 E0.01767
G1 X121.809 Y121.621 E0.00896
G1 X122.357 Y121.621 E0.01767
G1 X122.161 Y121.424 E0.00896
G1 X122.709 Y121.424 E0.01767
G1 X122.905 Y121.621 E0.00896
G1 X123.454 Y121.621 E0.01767
G1 X123.257 Y121.424 E0.00896
G1 X123.805 Y121.424 E0.01767
G1 X124.002 Y121.621 E0.00896
G1 X124.550 Y121.621 E0.01767
G1 X124.353 Y121.424 E0.00896
G1 X124.902 Y121.424 E0.01767
G1 X125.098 Y121.621 E0.00896
G1 X125.646 Y121.621 E0.01767
G1 X125.450 Y121.424 E0.00896
G1 X125.998 Y121.424 E0.01767
