; generated by PrusaSlicer 2.0.0+win64 on 2020-05-19 at 12:18:32

; 

; external perimeters extrusion width = 0.60mm
; perimeters extrusion width = 0.50mm
; infill extrusion width = 0.50mm
; solid infill extrusion width = 0.50mm
; top infill extrusion width = 0.45mm
; first layer extrusion width = 0.42mm

M73 P0 R37
M73 Q0 S38
M201 X1000 Y1000 Z1000 E5000 ; sets maximum accelerations, mm/sec^2
M203 X200 Y200 Z12 E120 ; sets maximum feedrates, mm/sec
M204 P1250 R1250 T1250 ; sets acceleration (P, T) and retract acceleration (R), mm/sec^2
M205 X8.00 Y8.00 Z0.40 E1.50 ; sets the jerk limits, mm/sec
M205 S0 T0 ; sets the minimum extruding and travel feed rate, mm/sec
M107
M115 U3.8.0 ; tell printer latest fw version
G90 ; use absolute coordinates
M83 ; extruder relative mode
M104 S215 ; set extruder temp
M140 S67 ; set bed temp
M190 S67 ; wait for bed temp
M109 S215 ; wait for extruder temp
G28 W ; home all without mesh bed level
G80 ; mesh bed leveling
G1 Y-3.0 F1000.0 ; go outside print area
G92 E0.0
G1 X60.0 E9.0 F1000.0 ; intro line
M73 Q0 S38
M73 P0 R37
G1 X100.0 E12.5 F1000.0 ; intro line
G92 E0.0
M221 S95
M900 K30 ; Filament gcode
G21 ; set units to millimeters
G90 ; use absolute coordinates
M83 ; use relative distances for extrusion
;BEFORE_LAYER_CHANGE
G92 E0.0
;0.2


G1 E-0.80000 F2100.00000
G1 Z0.600 F10800.000
;AFTER_LAYER_CHANGE
;0.2
G1 X187.142 Y58.565
G1 Z0.200
G1 E0.80000 F2100.00000
M204 S1000
G1 F900
G1 X205.259 Y58.565 E0.56806
G1 X205.259 Y60.835 E0.07119
G1 X187.142 Y60.835 E0.56806
G1 X187.142 Y58.625 E0.06931
G1 X186.765 Y58.187 F10800.000
G1 F900
G1 X205.636 Y58.187 E0.59171
G1 X205.636 Y61.212 E0.09484
G1 X186.765 Y61.212 E0.59171
G1 X186.765 Y58.247 E0.09296
G1 X186.388 Y57.810 F10800.000
G1 F900
G1 X206.013 Y57.810 E0.61535
G1 X206.013 Y61.589 E0.11848
G1 X186.388 Y61.589 E0.61535
G1 X186.388 Y57.870 E0.11660
G1 X186.010 Y57.433 F10800.000
G1 F900
G1 X206.390 Y57.433 E0.63900
G1 X206.390 Y61.966 E0.14213
G1 X186.010 Y61.966 E0.63900
G1 X186.010 Y57.493 E0.14025
G1 X186.409 Y57.462 F10800.000
G1 F8640
G1 X189.302 Y57.484 E-0.76000
G1 E-0.04000 F2100.00000
G1 Z0.800 F10800.000
G1 X187.255 Y59.948
G1 Z0.200
G1 E0.80000 F2100.00000
G1 F900
G1 X187.859 Y60.552 E0.02715
G1 X188.399 Y60.552 E0.01720
G1 X187.424 Y59.577 E0.04385
G1 X187.424 Y59.036 E0.01720
G1 X188.940 Y60.552 E0.06817
G1 X189.481 Y60.552 E0.01720
G1 X187.776 Y58.847 E0.07667
G1 X188.317 Y58.847 E0.01720
G1 X190.022 Y60.552 E0.07667
G1 X190.563 Y60.552 E0.01720
G1 X188.858 Y58.847 E0.07667
G1 X189.399 Y58.847 E0.01720
G1 X191.104 Y60.552 E0.07667
G1 X191.644 Y60.552 E0.01720
G1 X189.940 Y58.847 E0.07667
G1 X190.480 Y58.847 E0.01720
G1 X192.185 Y60.552 E0.07667
G1 X192.726 Y60.552 E0.01720
G1 X191.021 Y58.847 E0.07667
G1 X191.562 Y58.847 E0.01720
G1 X193.267 Y60.552 E0.07667
G1 X193.808 Y60.552 E0.01720
G1 X192.103 Y58.847 E0.07667
G1 X192.644 Y58.847 E0.01720
G1 X194.349 Y60.552 E0.07667
G1 X194.890 Y60.552 E0.01720
G1 X193.185 Y58.847 E0.07667
G1 X193.725 Y58.847 E0.01720
G1 X195.430 Y60.552 E0.07667
G1 X195.971 Y60.552 E0.01720
G1 X194.266 Y58.847 E0.07667
G1 X194.807 Y58.847 E0.01720
G1 X196.512 Y60.552 E0.07667
G1 X197.053 Y60.552 E0.01720
G1 X195.348 Y58.847 E0.07667
G1 X195.889 Y58.847 E0.01720
G1 X197.594 Y60.552 E0.07667
G1 X198.135 Y60.552 E0.01720
G1 X196.430 Y58.847 E0.07667
G1 X196.970 Y58.847 E0.01720
G1 X198.675 Y60.552 E0.07667
G1 X199.216 Y60.552 E0.01720
G1 X197.511 Y58.847 E0.07667
G1 X198.052 Y58.847 E0.01720
G1 X199.757 Y60.552 E0.07667
G1 X200.298 Y60.552 E0.01720
G1 X198.593 Y58.847 E0.07667
G1 X199.134 Y58.847 E0.01720
G1 X200.839 Y60.552 E0.07667
G1 X201.380 Y60.552 E0.01720
G1 X199.675 Y58.847 E0.07667
G1 X200.215 Y58.847 E0.01720
G1 X201.920 Y60.552 E0.07667
G1 X202.461 Y60.552 E0.01720
G1 X200.756 Y58.847 E0.07667
G1 X201.297 Y58.847 E0.01720
G1 X203.002 Y60.552 E0.07667
G1 X203.543 Y60.552 E0.01720
G1 X201.838 Y58.847 E0.07667
G1 X202.379 Y58.847 E0.01720
G1 X204.084 Y60.552 E0.07667
G1 X204.625 Y60.552 E0.01720
G1 X202.920 Y58.847 E0.07667
G1 X203.460 Y58.847 E0.01720
G1 X204.976 Y60.363 E0.06817
G1 X204.976 Y59.822 E0.01720
G1 X204.001 Y58.847 E0.04385
G1 X204.542 Y58.847 E0.01720
G1 X205.146 Y59.451 E0.02716
M106 S255
;BEFORE_LAYER_CHANGE
G92 E0.0
;0.5


G1 F8640
G1 X204.542 Y58.847 E-0.19721
G1 X204.001 Y58.847 E-0.12488
G1 X204.976 Y59.822 E-0.31841
G1 X204.976 Y60.340 E-0.11949
G1 E-0.04000 F2100.00000
G1 Z0.800 F10800.000
;AFTER_LAYER_CHANGE
;0.5
M140 S64 ; set bed temperature
G1 X204.944 Y60.340
G1 Z0.500
G1 E0.80000 F2100.00000
M204 S800
G1 F900
G1 X204.944 Y60.519 E0.00975
G1 X187.457 Y60.519 E0.95008
G1 X187.457 Y58.880 E0.08907
G1 X204.944 Y58.880 E0.95008
G1 X204.944 Y60.280 E0.07605
M204 S1000
G1 X205.379 Y60.955 F10800.000
M204 S800
G1 F900
G1 X187.022 Y60.955 E0.99742
G1 X187.022 Y58.445 E0.13640
G1 X205.379 Y58.445 E0.99742
G1 X205.379 Y60.895 E0.13314
M204 S1000
G1 X205.815 Y61.391 F10800.000
M204 S800
G1 F900
G1 X186.586 Y61.391 E1.04475
G1 X186.586 Y58.009 E0.18374
G1 X205.815 Y58.009 E1.04475
G1 X205.815 Y61.331 E0.18048
M204 S1000
G1 X206.300 Y61.876 F10800.000
M204 S800
G1 F900
G1 X186.100 Y61.876 E1.34947
G1 X186.100 Y57.523 E0.29080
G1 X206.300 Y57.523 E1.34947
G1 X206.300 Y61.816 E0.28680
M204 S1000
G1 X205.901 Y61.848 F10800.000
G1 F8640
G1 X203.009 Y61.826 E-0.76000
G1 E-0.04000 F2100.00000
G1 Z1.100 F10800.000
G1 X203.922 Y60.389
G1 Z0.500
G1 E0.80000 F2100.00000
M204 S1250
G1 F900
G1 X204.617 Y59.694 E0.05400
G1 X204.617 Y59.207 E0.02676
G1 X204.481 Y59.207 E0.00748
G1 X203.495 Y60.193 E0.07661
G1 X202.872 Y60.193 E0.03423
G1 X203.858 Y59.207 E0.07661
G1 X203.235 Y59.207 E0.03423
G1 X202.249 Y60.193 E0.07661
G1 X201.626 Y60.193 E0.03423
G1 X202.612 Y59.207 E0.07661
G1 X201.989 Y59.207 E0.03423
G1 X201.003 Y60.193 E0.07661
G1 X200.380 Y60.193 E0.03423
G1 X201.366 Y59.207 E0.07661
G1 X200.743 Y59.207 E0.03423
G1 X199.757 Y60.193 E0.07661
G1 X199.134 Y60.193 E0.03423
G1 X200.120 Y59.207 E0.07661
G1 X199.497 Y59.207 E0.03423
G1 X198.511 Y60.193 E0.07661
G1 X197.888 Y60.193 E0.03423
G1 X198.874 Y59.207 E0.07661
G1 X198.251 Y59.207 E0.03423
G1 X197.265 Y60.193 E0.07661
G1 X196.642 Y60.193 E0.03423
G1 X197.628 Y59.207 E0.07661
G1 X197.005 Y59.207 E0.03423
G1 X196.019 Y60.193 E0.07661
G1 X195.396 Y60.193 E0.03423
G1 X196.382 Y59.207 E0.07661
G1 X195.759 Y59.207 E0.03423
G1 X194.773 Y60.193 E0.07661
G1 X194.150 Y60.193 E0.03423
G1 X195.136 Y59.207 E0.07661
G1 X194.513 Y59.207 E0.03423
G1 X193.527 Y60.193 E0.07661
G1 X192.904 Y60.193 E0.03423
G1 X193.890 Y59.207 E0.07661
G1 X193.267 Y59.207 E0.03423
G1 X192.281 Y60.193 E0.07661
G1 X191.658 Y60.193 E0.03423
G1 X192.644 Y59.207 E0.07661
G1 X192.021 Y59.207 E0.03423
G1 X191.035 Y60.193 E0.07661
G1 X190.412 Y60.193 E0.03423
G1 X191.398 Y59.207 E0.07661
G1 X190.775 Y59.207 E0.03423
G1 X189.789 Y60.193 E0.07661
G1 X189.166 Y60.193 E0.03423
G1 X190.152 Y59.207 E0.07661
G1 X189.529 Y59.207 E0.03423
G1 X188.543 Y60.193 E0.07661
G1 X187.920 Y60.193 E0.03423
G1 X188.906 Y59.207 E0.07661
G1 X188.283 Y59.207 E0.03423
G1 X187.588 Y59.902 E0.05399
M204 S1000
;BEFORE_LAYER_CHANGE
G92 E0.0
;0.8


G1 F8640
G1 X188.283 Y59.207 E-0.22691
G1 X188.906 Y59.207 E-0.14385
G1 X187.920 Y60.193 E-0.32194
G1 X188.211 Y60.193 E-0.06730
G1 E-0.04000 F2100.00000
G1 Z1.100 F10800.000
;AFTER_LAYER_CHANGE
;0.8
G1 X187.457 Y60.519
G1 Z0.800
G1 E0.80000 F2100.00000
M204 S800
G1 F900
G1 X187.457 Y58.880 E0.08907
G1 X204.944 Y58.880 E0.95008
G1 X204.944 Y60.519 E0.08907
G1 X187.517 Y60.519 E0.94682
M204 S1000
G1 X187.022 Y60.955 F10800.000
M204 S800
G1 F900
G1 X187.022 Y58.445 E0.13640
G1 X205.379 Y58.445 E0.99742
G1 X205.379 Y60.955 E0.13640
G1 X187.082 Y60.955 E0.99416
M204 S1000
G1 X186.586 Y61.391 F10800.000
M204 S800
G1 F900
G1 X186.586 Y58.009 E0.18374
G1 X205.815 Y58.009 E1.04475
G1 X205.815 Y61.391 E0.18374
G1 X186.646 Y61.391 E1.04149
M204 S1000
G1 X186.100 Y61.876 F10800.000
M204 S800
G1 F900
G1 X186.100 Y57.523 E0.29080
G1 X206.300 Y57.523 E1.34947
G1 X206.300 Y61.876 E0.29080
G1 X186.160 Y61.876 E1.34546
M204 S1000
G1 X186.275 Y61.517 F10800.000
G1 F8640
G1 X186.115 Y58.585 E-0.76000
G1 E-0.04000 F2100.00000
G1 Z1.400 F10800.000
G1 X188.479 Y60.389
G1 Z0.800
G1 E0.80000 F2100.00000
M204 S1250
G1 F900
G1 X187.784 Y59.694 E0.05399
G1 X187.784 Y59.207 E0.02676
G1 X187.920 Y59.207 E0.00747
G1 X188.906 Y60.193 E0.07661
G1 X189.529 Y60.193 E0.03423
G1 X188.543 Y59.207 E0.07661
G1 X189.166 Y59.207 E0.03423
G1 X190.152 Y60.193 E0.07661
G1 X190.775 Y60.193 E0.03423
G1 X189.789 Y59.207 E0.07661
G1 X190.412 Y59.207 E0.03423
G1 X191.398 Y60.193 E0.07661
G1 X192.021 Y60.193 E0.03423
G1 X191.035 Y59.207 E0.07661
G1 X191.658 Y59.207 E0.03423
G1 X192.644 Y60.193 E0.07661
G1 X193.267 Y60.193 E0.03423
G1 X192.281 Y59.207 E0.07661
G1 X192.904 Y59.207 E0.03423
G1 X193.890 Y60.193 E0.07661
G1 X194.513 Y60.193 E0.03423
G1 X193.527 Y59.207 E0.07661
G1 X194.150 Y59.207 E0.03423
G1 X195.136 Y60.193 E0.07661
G1 X195.759 Y60.193 E0.03423
G1 X194.773 Y59.207 E0.07661
G1 X195.396 Y59.207 E0.03423
G1 X196.382 Y60.193 E0.07661
G1 X197.005 Y60.193 E0.03423
G1 X196.019 Y59.207 E0.07661
G1 X196.642 Y59.207 E0.03423
G1 X197.628 Y60.193 E0.07661
G1 X198.251 Y60.193 E0.03423
G1 X197.265 Y59.207 E0.07661
G1 X197.888 Y59.207 E0.03423
G1 X198.874 Y60.193 E0.07661
G1 X199.497 Y60.193 E0.03423
G1 X198.511 Y59.207 E0.07661
G1 X199.134 Y59.207 E0.03423
G1 X200.120 Y60.193 E0.07661
G1 X200.743 Y60.193 E0.03423
G1 X199.757 Y59.207 E0.07661
G1 X200.380 Y59.207 E0.03423
G1 X201.366 Y60.193 E0.07661
G1 X201.989 Y60.193 E0.03423
G1 X201.003 Y59.207 E0.07661
G1 X201.626 Y59.207 E0.03423
G1 X202.612 Y60.193 E0.07661
G1 X203.235 Y60.193 E0.03423
G1 X202.249 Y59.207 E0.07661
G1 X202.872 Y59.207 E0.03423
G1 X203.858 Y60.193 E0.07661
G1 X204.481 Y60.193 E0.03423
G1 X203.495 Y59.207 E0.07661
G1 X204.118 Y59.207 E0.03423
G1 X204.813 Y59.902 E0.05400
M204 S1000
;BEFORE_LAYER_CHANGE
G92 E0.0
;1.1


G1 F8640
G1 X204.118 Y59.207 E-0.22694
G1 X203.495 Y59.207 E-0.14385
G1 X204.481 Y60.193 E-0.32194
G1 X204.190 Y60.193 E-0.06727
G1 E-0.04000 F2100.00000
G1 Z1.400 F10800.000
;AFTER_LAYER_CHANGE
;1.1
G1 X204.944 Y60.519
G1 Z1.100
G1 E0.80000 F2100.00000
M204 S800
G1 F900
G1 X187.457 Y60.519 E0.95008
G1 X187.457 Y58.880 E0.08907
G1 X204.944 Y58.880 E0.95008
G1 X204.944 Y60.459 E0.08581
M204 S1000
G1 X205.379 Y60.955 F10800.000
M204 S800
G1 F900
G1 X187.022 Y60.955 E0.99742
G1 X187.022 Y58.445 E0.13640
G1 X205.379 Y58.445 E0.99742
M73 Q2 S37
M73 P2 R36
G1 X205.379 Y60.895 E0.13314
M204 S1000
G1 X205.815 Y61.391 F10800.000
M204 S800
G1 F900
G1 X186.586 Y61.391 E1.04475
G1 X186.586 Y58.009 E0.18374
G1 X205.815 Y58.009 E1.04475
G1 X205.815 Y61.331 E0.18048
M204 S1000
G1 X206.300 Y61.876 F10800.000
M204 S800
G1 F900
G1 X186.100 Y61.876 E1.34947
G1 X186.100 Y57.523 E0.29080
G1 X206.300 Y57.523 E1.34947
G1 X206.300 Y61.816 E0.28680
M204 S1000
G1 X205.901 Y61.848 F10800.000
G1 F8640
G1 X203.009 Y61.826 E-0.76000
G1 E-0.04000 F2100.00000
G1 Z1.700 F10800.000
G1 X203.922 Y60.389
G1 Z1.100
G1 E0.80000 F2100.00000
M204 S1250
G1 F900
G1 X204.617 Y59.694 E0.05400
G1 X204.617 Y59.207 E0.02676
G1 X204.481 Y59.207 E0.00748
G1 X203.495 Y60.193 E0.07661
G1 X202.872 Y60.193 E0.03423
G1 X203.858 Y59.207 E0.07661
G1 X203.235 Y59.207 E0.03423
G1 X202.249 Y60.193 E0.07661
G1 X201.626 Y60.193 E0.03423
G1 X202.612 Y59.207 E0.07661
G1 X201.989 Y59.207 E0.03423
G1 X201.003 Y60.193 E0.07661
G1 X200.380 Y60.193 E0.03423
G1 X201.366 Y59.207 E0.07661
G1 X200.743 Y59.207 E0.03423
G1 X199.757 Y60.193 E0.07661
G1 X199.134 Y60.193 E0.03423
G1 X200.120 Y59.207 E0.07661
G1 X199.497 Y59.207 E0.03423
G1 X198.511 Y60.193 E0.07661
G1 X197.888 Y60.193 E0.03423
G1 X198.874 Y59.207 E0.07661
G1 X198.251 Y59.207 E0.03423
G1 X197.265 Y60.193 E0.07661
G1 X196.642 Y60.193 E0.03423
G1 X197.628 Y59.207 E0.07661
G1 X197.005 Y59.207 E0.03423
G1 X196.019 Y60.193 E0.07661
G1 X195.396 Y60.193 E0.03423
G1 X196.382 Y59.207 E0.07661
G1 X195.759 Y59.207 E0.03423
G1 X194.773 Y60.193 E0.07661
G1 X194.150 Y60.193 E0.03423
G1 X195.136 Y59.207 E0.07661
G1 X194.513 Y59.207 E0.03423
G1 X193.527 Y60.193 E0.07661
G1 X192.904 Y60.193 E0.03423
G1 X193.890 Y59.207 E0.07661
G1 X193.267 Y59.207 E0.03423
G1 X192.281 Y60.193 E0.07661
G1 X191.658 Y60.193 E0.03423
G1 X192.644 Y59.207 E0.07661
G1 X192.021 Y59.207 E0.03423
G1 X191.035 Y60.193 E0.07661
G1 X190.412 Y60.193 E0.03423
G1 X191.398 Y59.207 E0.07661
G1 X190.775 Y59.207 E0.03423
G1 X189.789 Y60.193 E0.07661
G1 X189.166 Y60.193 E0.03423
G1 X190.152 Y59.207 E0.07661
G1 X189.529 Y59.207 E0.03423
G1 X188.543 Y60.193 E0.07661
G1 X187.920 Y60.193 E0.03423
G1 X188.906 Y59.207 E0.07661
G1 X188.283 Y59.207 E0.03423
G1 X187.588 Y59.902 E0.05399
M204 S1000
;BEFORE_LAYER_CHANGE
G92 E0.0
;1.4


G1 F8640
G1 X188.283 Y59.207 E-0.22691
G1 X188.906 Y59.207 E-0.14385
G1 X187.920 Y60.193 E-0.32194
G1 X188.211 Y60.193 E-0.06730
G1 E-0.04000 F2100.00000
G1 Z1.700 F10800.000
;AFTER_LAYER_CHANGE
;1.4
G1 X187.457 Y60.519
G1 Z1.400
G1 E0.80000 F2100.00000
M204 S800
G1 F900
G1 X187.457 Y58.880 E0.08907
G1 X204.944 Y58.880 E0.95008
G1 X204.944 Y60.519 E0.08907
G1 X187.517 Y60.519 E0.94682
M204 S1000
G1 X187.022 Y60.955 F10800.000
M204 S800
G1 F900
G1 X187.022 Y58.445 E0.13640
G1 X205.379 Y58.445 E0.99742
G1 X205.379 Y60.955 E0.13640
G1 X187.082 Y60.955 E0.99416
M204 S1000
G1 X186.586 Y61.391 F10800.000
M204 S800
G1 F900
G1 X186.586 Y58.009 E0.18374
G1 X205.815 Y58.009 E1.04475
G1 X205.815 Y61.391 E0.18374
G1 X186.646 Y61.391 E1.04149
M204 S1000
G1 X186.100 Y61.876 F10800.000
M204 S800
G1 F900
G1 X186.100 Y57.523 E0.29080
G1 X206.300 Y57.523 E1.34947
G1 X206.300 Y61.876 E0.29080
G1 X186.160 Y61.876 E1.34546
M204 S1000
G1 X186.275 Y61.517 F10800.000
G1 F8640
G1 X186.115 Y58.585 E-0.76000
G1 E-0.04000 F2100.00000
G1 Z2.000 F10800.000
G1 X187.588 Y59.278
G1 Z1.400
G1 E0.80000 F2100.00000
M204 S1250
G1 F900
G1 X188.503 Y60.193 E0.07027
G1 X190.556 Y60.193 E0.11157
G1 X189.570 Y59.207 E0.07575
G1 X191.624 Y59.207 E0.11157
G1 X192.610 Y60.193 E0.07575
G1 X194.663 Y60.193 E0.11157
G1 X193.677 Y59.207 E0.07575
G1 X195.731 Y59.207 E0.11157
G1 X196.717 Y60.193 E0.07575
G1 X198.770 Y60.193 E0.11157
G1 X197.784 Y59.207 E0.07575
G1 X199.838 Y59.207 E0.11157
G1 X200.824 Y60.193 E0.07575
G1 X202.877 Y60.193 E0.11157
G1 X201.891 Y59.207 E0.07575
G1 X203.945 Y59.207 E0.11157
G1 X204.813 Y60.075 E0.06670
M204 S1000
G1 F8640
G1 X203.945 Y59.207 E-0.28346
G1 X201.891 Y59.207 E-0.47417
G1 X201.899 Y59.214 E-0.00238
G1 E-0.04000 F2100.00000
G1 Z2.000 F10800.000
G1 X203.702 Y60.389
G1 Z1.400
G1 E0.80000 F2100.00000
M204 S1250
G1 F900
G1 X204.617 Y59.474 E0.07027
G1 X204.617 Y59.207 E0.01453
G1 X202.831 Y59.207 E0.09705
G1 X201.845 Y60.193 E0.07575
G1 X199.791 Y60.193 E0.11157
G1 X200.777 Y59.207 E0.07575
G1 X198.724 Y59.207 E0.11157
G1 X197.738 Y60.193 E0.07575
G1 X195.684 Y60.193 E0.11157
G1 X196.670 Y59.207 E0.07575
G1 X194.617 Y59.207 E0.11157
G1 X193.631 Y60.193 E0.07575
G1 X191.577 Y60.193 E0.11157
G1 X192.563 Y59.207 E0.07575
G1 X190.510 Y59.207 E0.11157
G1 X189.524 Y60.193 E0.07575
G1 X187.784 Y60.193 E0.09452
G1 X187.784 Y59.879 E0.01705
G1 X188.652 Y59.011 E0.06670
M204 S1000
;BEFORE_LAYER_CHANGE
G92 E0.0
;1.7


G1 F8640
G1 X187.784 Y59.879 E-0.28346
G1 X187.784 Y60.193 E-0.07248
G1 X189.524 Y60.193 E-0.40169
G1 X189.531 Y60.185 E-0.00238
G1 E-0.04000 F2100.00000
G1 Z2.000 F10800.000
;AFTER_LAYER_CHANGE
;1.7
G1 X187.457 Y60.519
G1 Z1.700
G1 E0.80000 F2100.00000
M204 S800
G1 F900
G1 X187.457 Y58.880 E0.08907
G1 X204.944 Y58.880 E0.95008
G1 X204.944 Y60.519 E0.08907
G1 X187.517 Y60.519 E0.94682
M204 S1000
G1 X187.022 Y60.955 F10800.000
M204 S800
G1 F900
G1 X187.022 Y58.445 E0.13640
G1 X205.379 Y58.445 E0.99742
G1 X205.379 Y60.955 E0.13640
G1 X187.082 Y60.955 E0.99416
M204 S1000
G1 X186.586 Y61.391 F10800.000
M204 S800
G1 F900
G1 X186.586 Y58.009 E0.18374
G1 X205.815 Y58.009 E1.04475
G1 X205.815 Y61.391 E0.18374
G1 X186.646 Y61.391 E1.04149
M204 S1000
G1 X186.100 Y61.876 F10800.000
M204 S800
G1 F900
G1 X186.100 Y57.523 E0.29080
G1 X206.300 Y57.523 E1.34947
