; generated by PrusaSlicer 2.0.0+win64 on 2020-06-11 at 19:16:22

; 

; external perimeters extrusion width = 0.60mm
; perimeters extrusion width = 0.50mm
; infill extrusion width = 0.50mm
; solid infill extrusion width = 0.50mm
; top infill extrusion width = 0.45mm
; first layer extrusion width = 0.42mm

M73 P0 R9
M73 Q0 S9
M201 X1000 Y1000 Z1000 E5000 ; sets maximum accelerations, mm/sec^2
M203 X200 Y200 Z12 E120 ; sets maximum feedrates, mm/sec
M204 P1250 R1250 T1250 ; sets acceleration (P, T) and retract acceleration (R), mm/sec^2
M205 X8.00 Y8.00 Z0.40 E1.50 ; sets the jerk limits, mm/sec
M205 S0 T0 ; sets the minimum extruding and travel feed rate, mm/sec
M107
M115 U3.8.0 ; tell printer latest fw version
G90 ; use absolute coordinates
M83 ; extruder relative mode
M104 S215 ; set extruder temp
M140 S67 ; set bed temp
M190 S67 ; wait for bed temp
M109 S215 ; wait for extruder temp
G28 W ; home all without mesh bed level
G80 ; mesh bed leveling
G1 Y-3.0 F1000.0 ; go outside print area
G92 E0.0
G1 X60.0 E9.0 F1000.0 ; intro line
M73 Q0 S9
M73 P0 R9
G1 X100.0 E12.5 F1000.0 ; intro line
G92 E0.0
M221 S95
M900 K30 ; Filament gcode
G21 ; set units to millimeters
G90 ; use absolute coordinates
M83 ; use relative distances for extrusion
;BEFORE_LAYER_CHANGE
G92 E0.0
;0.2


G1 E-0.80000 F2100.00000
G1 Z0.600 F10800.000
;AFTER_LAYER_CHANGE
;0.2
G1 X121.179 Y35.380
G1 Z0.200
G1 E0.80000 F2100.00000
M204 S1000
G1 F1200
G1 X131.107 Y35.380 E0.31130
G1 X131.107 Y45.309 E0.31130
G1 X121.179 Y45.309 E0.31130
G1 X121.179 Y35.440 E0.30941
G1 X121.556 Y35.757 F10800.000
G1 F1200
G1 X130.730 Y35.757 E0.28765
G1 X130.730 Y44.932 E0.28765
G1 X121.556 Y44.932 E0.28765
G1 X121.556 Y35.817 E0.28577
G1 X121.933 Y36.134 F10800.000
G1 F1200
G1 X130.353 Y36.134 E0.26400
G1 X130.353 Y44.554 E0.26400
G1 X121.933 Y44.554 E0.26400
G1 X121.933 Y36.194 E0.26212
G1 X121.829 Y35.748 F10800.000
G1 F8640
G1 X125.224 Y36.171 E-0.76000
G1 E-0.04000 F2100.00000
G1 Z0.800 F10800.000
G1 X119.312 Y38.793
G1 Z0.200
G1 E0.80000 F2100.00000
G1 F1200
G1 X119.592 Y39.095 E0.01292
G1 X119.807 Y39.447 E0.01292
G1 X119.948 Y39.834 E0.01292
G1 X120.009 Y40.241 E0.01292
G1 X119.989 Y40.653 E0.01292
G1 X119.887 Y41.052 E0.01292
G1 X119.708 Y41.423 E0.01292
G1 X119.460 Y41.752 E0.01292
G1 X119.151 Y42.024 E0.01292
G1 X118.794 Y42.230 E0.01292
G1 X118.403 Y42.362 E0.01292
G1 X117.995 Y42.413 E0.01292
G1 X117.584 Y42.382 E0.01292
G1 X117.187 Y42.270 E0.01292
G1 X116.821 Y42.082 E0.01292
G1 X116.498 Y41.826 E0.01292
G1 X116.234 Y41.510 E0.01292
G1 X116.037 Y41.148 E0.01292
G1 X115.915 Y40.754 E0.01292
G1 X115.874 Y40.344 E0.01292
G1 X115.915 Y39.934 E0.01292
G1 X116.037 Y39.541 E0.01292
G1 X116.234 Y39.179 E0.01292
G1 X116.498 Y38.863 E0.01292
G1 X116.821 Y38.606 E0.01292
G1 X117.187 Y38.419 E0.01292
G1 X117.583 Y38.307 E0.01290
G1 X118.010 Y38.274 E0.01344
G1 X118.578 Y38.372 E0.01806
G1 X118.978 Y38.553 E0.01374
G1 X119.263 Y38.758 E0.01104
G1 X118.467 Y38.736 F10800.000
G1 F1200
G1 X118.788 Y38.881 E0.01105
G1 X119.061 Y39.077 E0.01055
G1 X119.290 Y39.324 E0.01055
G1 X119.466 Y39.611 E0.01055
G1 X119.581 Y39.927 E0.01055
G1 X119.631 Y40.260 E0.01055
G1 X119.614 Y40.596 E0.01055
G1 X119.531 Y40.922 E0.01055
G1 X119.385 Y41.226 E0.01055
G1 X119.182 Y41.494 E0.01055
G1 X118.930 Y41.717 E0.01055
G1 X118.638 Y41.885 E0.01055
G1 X118.319 Y41.992 E0.01055
G1 X117.985 Y42.034 E0.01055
G1 X117.650 Y42.009 E0.01055
G1 X117.326 Y41.918 E0.01055
G1 X117.026 Y41.764 E0.01055
G1 X116.763 Y41.554 E0.01055
G1 X116.547 Y41.296 E0.01055
G1 X116.386 Y41.001 E0.01055
G1 X116.287 Y40.679 E0.01055
G1 X116.253 Y40.344 E0.01055
G1 X116.287 Y40.010 E0.01055
G1 X116.386 Y39.688 E0.01055
G1 X116.547 Y39.392 E0.01055
G1 X116.763 Y39.135 E0.01055
G1 X117.026 Y38.925 E0.01055
G1 X117.326 Y38.771 E0.01055
G1 X117.649 Y38.680 E0.01054
G1 X117.992 Y38.654 E0.01080
G1 X118.408 Y38.726 E0.01321
G1 X118.344 Y39.097 F10800.000
G1 F1200
G1 X118.599 Y39.209 E0.00873
G1 X118.811 Y39.361 E0.00819
G1 X118.988 Y39.553 E0.00819
G1 X119.124 Y39.776 E0.00819
G1 X119.214 Y40.021 E0.00819
G1 X119.252 Y40.279 E0.00819
G1 X119.239 Y40.540 E0.00819
G1 X119.175 Y40.793 E0.00819
G1 X119.062 Y41.028 E0.00819
G1 X118.904 Y41.236 E0.00819
G1 X118.708 Y41.409 E0.00819
G1 X118.482 Y41.539 E0.00819
G1 X118.235 Y41.623 E0.00819
G1 X117.976 Y41.655 E0.00819
G1 X117.715 Y41.636 E0.00819
G1 X117.464 Y41.565 E0.00819
G1 X117.232 Y41.446 E0.00819
G1 X117.028 Y41.283 E0.00819
G1 X116.860 Y41.083 E0.00819
G1 X116.735 Y40.854 E0.00819
G1 X116.658 Y40.604 E0.00819
G1 X116.632 Y40.344 E0.00819
G1 X116.658 Y40.085 E0.00819
G1 X116.735 Y39.835 E0.00819
G1 X116.860 Y39.606 E0.00819
G1 X117.028 Y39.406 E0.00819
G1 X117.232 Y39.243 E0.00819
G1 X117.464 Y39.124 E0.00819
G1 X117.715 Y39.053 E0.00818
G1 X117.974 Y39.034 E0.00815
G1 X118.284 Y39.087 E0.00986
G1 X118.548 Y38.908 F10800.000
G1 F8640
G1 X118.599 Y39.209 E-0.07782
G1 X118.811 Y39.361 E-0.06028
G1 X118.988 Y39.553 E-0.06028
G1 X119.124 Y39.776 E-0.06028
G1 X119.214 Y40.021 E-0.06028
G1 X119.252 Y40.279 E-0.06028
G1 X119.239 Y40.540 E-0.06028
G1 X119.175 Y40.793 E-0.06028
G1 X119.062 Y41.028 E-0.06028
G1 X118.904 Y41.236 E-0.06028
G1 X118.708 Y41.409 E-0.06028
G1 X118.482 Y41.539 E-0.06028
G1 X118.404 Y41.566 E-0.01907
G1 E-0.04000 F2100.00000
G1 Z0.800 F10800.000
G1 X132.874 Y40.344
G1 Z0.200
G1 E0.80000 F2100.00000
G1 F1200
G1 X132.915 Y39.934 E0.01292
G1 X133.037 Y39.541 E0.01292
G1 X133.234 Y39.179 E0.01292
G1 X133.498 Y38.863 E0.01292
G1 X133.821 Y38.606 E0.01292
G1 X134.187 Y38.419 E0.01292
G1 X134.583 Y38.307 E0.01290
G1 X135.010 Y38.274 E0.01344
G1 X135.578 Y38.372 E0.01806
G1 X135.978 Y38.553 E0.01374
G1 X136.312 Y38.793 E0.01292
G1 X136.592 Y39.095 E0.01292
G1 X136.807 Y39.447 E0.01292
G1 X136.948 Y39.834 E0.01292
G1 X137.009 Y40.241 E0.01292
G1 X136.989 Y40.653 E0.01292
G1 X136.887 Y41.052 E0.01292
G1 X136.708 Y41.423 E0.01292
G1 X136.460 Y41.752 E0.01292
G1 X136.151 Y42.024 E0.01292
G1 X135.794 Y42.230 E0.01292
G1 X135.403 Y42.362 E0.01292
G1 X134.995 Y42.413 E0.01292
G1 X134.584 Y42.382 E0.01292
G1 X134.187 Y42.270 E0.01292
G1 X133.821 Y42.082 E0.01292
G1 X133.498 Y41.826 E0.01292
G1 X133.234 Y41.510 E0.01292
G1 X133.037 Y41.148 E0.01292
G1 X132.915 Y40.754 E0.01292
G1 X132.880 Y40.404 E0.01104
G1 X133.255 Y40.367 F10800.000
G1 F1200
G1 X133.287 Y40.010 E0.01124
G1 X133.386 Y39.688 E0.01055
G1 X133.547 Y39.392 E0.01055
G1 X133.763 Y39.135 E0.01055
G1 X134.026 Y38.925 E0.01055
G1 X134.326 Y38.771 E0.01055
G1 X134.649 Y38.680 E0.01054
G1 X134.992 Y38.654 E0.01080
G1 X135.467 Y38.736 E0.01509
G1 X135.788 Y38.881 E0.01105
G1 X136.061 Y39.077 E0.01055
G1 X136.290 Y39.324 E0.01055
G1 X136.466 Y39.611 E0.01055
G1 X136.581 Y39.927 E0.01055
G1 X136.631 Y40.260 E0.01055
G1 X136.614 Y40.596 E0.01055
G1 X136.531 Y40.922 E0.01055
G1 X136.385 Y41.226 E0.01055
G1 X136.182 Y41.494 E0.01055
G1 X135.930 Y41.717 E0.01055
G1 X135.638 Y41.885 E0.01055
G1 X135.319 Y41.992 E0.01055
G1 X134.985 Y42.034 E0.01055
G1 X134.650 Y42.009 E0.01055
G1 X134.326 Y41.918 E0.01055
G1 X134.026 Y41.764 E0.01055
G1 X133.763 Y41.554 E0.01055
G1 X133.547 Y41.296 E0.01055
G1 X133.386 Y41.001 E0.01055
G1 X133.287 Y40.679 E0.01055
G1 X133.261 Y40.426 E0.00797
G1 X133.632 Y40.344 F10800.000
G1 F1200
G1 X133.658 Y40.085 E0.00819
G1 X133.735 Y39.835 E0.00819
G1 X133.860 Y39.606 E0.00819
G1 X134.028 Y39.406 E0.00819
G1 X134.232 Y39.243 E0.00819
G1 X134.464 Y39.124 E0.00819
G1 X134.715 Y39.053 E0.00818
G1 X134.974 Y39.034 E0.00815
G1 X135.355 Y39.099 E0.01212
G1 X135.599 Y39.209 E0.00836
G1 X135.811 Y39.361 E0.00819
G1 X135.988 Y39.553 E0.00819
G1 X136.124 Y39.776 E0.00819
G1 X136.214 Y40.021 E0.00819
G1 X136.252 Y40.279 E0.00819
G1 X136.239 Y40.540 E0.00819
G1 X136.175 Y40.793 E0.00819
G1 X136.062 Y41.028 E0.00819
G1 X135.904 Y41.236 E0.00819
G1 X135.708 Y41.409 E0.00819
G1 X135.482 Y41.539 E0.00819
G1 X135.235 Y41.623 E0.00819
G1 X134.976 Y41.655 E0.00819
G1 X134.715 Y41.636 E0.00819
G1 X134.464 Y41.565 E0.00819
G1 X134.232 Y41.446 E0.00819
G1 X134.028 Y41.283 E0.00819
G1 X133.860 Y41.083 E0.00819
G1 X133.735 Y40.854 E0.00819
G1 X133.658 Y40.604 E0.00819
G1 X133.638 Y40.404 E0.00630
G1 X133.406 Y40.214 F10800.000
G1 F8640
G1 X133.658 Y40.085 E-0.07391
G1 X133.735 Y39.835 E-0.06028
G1 X133.860 Y39.606 E-0.06028
G1 X134.028 Y39.406 E-0.06028
G1 X134.232 Y39.243 E-0.06028
G1 X134.464 Y39.124 E-0.06028
G1 X134.715 Y39.053 E-0.06025
G1 X134.974 Y39.034 E-0.06004
G1 X135.355 Y39.099 E-0.08925
G1 X135.599 Y39.209 E-0.06160
G1 X135.811 Y39.361 E-0.06028
G1 X135.967 Y39.531 E-0.05325
G1 E-0.04000 F2100.00000
G1 Z0.800 F10800.000
G1 X137.179 Y45.380
G1 Z0.200
G1 E0.80000 F2100.00000
G1 F1200
G1 X115.107 Y45.380 E0.69204
G1 X115.107 Y35.309 E0.31579
G1 X137.179 Y35.309 E0.69204
G1 X137.179 Y45.320 E0.31391
G1 X137.556 Y45.757 F10800.000
G1 F1200
G1 X114.730 Y45.757 E0.71569
G1 X114.730 Y34.932 E0.33944
G1 X137.556 Y34.932 E0.71569
G1 X137.556 Y45.697 E0.33756
G1 X137.933 Y46.134 F10800.000
G1 F1200
G1 X114.353 Y46.134 E0.73933
G1 X114.353 Y34.554 E0.36308
G1 X137.933 Y34.554 E0.73933
G1 X137.933 Y46.074 E0.36120
G1 X137.538 Y46.074 F10800.000
G1 F8640
G1 X134.642 Y46.083 E-0.76000
G1 E-0.04000 F2100.00000
G1 Z0.800 F10800.000
G1 X136.347 Y45.267
G1 Z0.200
G1 E0.80000 F2100.00000
G1 F1200
G1 X131.390 Y40.310 E0.22410
G1 X131.390 Y40.853 E0.01738
G1 X135.634 Y45.098 E0.19186
G1 X135.090 Y45.098 E0.01738
G1 X131.390 Y41.397 E0.16728
G1 X131.390 Y41.941 E0.01738
G1 X134.547 Y45.098 E0.14270
G1 X134.003 Y45.098 E0.01738
G1 X131.390 Y42.484 E0.11813
G1 X131.390 Y43.028 E0.01738
G1 X133.459 Y45.098 E0.09355
G1 X132.916 Y45.098 E0.01738
G1 X131.390 Y43.572 E0.06897
G1 X131.390 Y44.115 E0.01738
G1 X132.372 Y45.098 E0.04439
G1 X131.828 Y45.098 E0.01738
G1 X131.220 Y44.489 E0.02749
G1 F8640
G1 X131.828 Y45.098 E-0.19856
G1 X132.372 Y45.098 E-0.12553
G1 X131.390 Y44.115 E-0.32068
G1 X131.390 Y43.616 E-0.11523
G1 E-0.04000 F2100.00000
G1 Z0.800 F10800.000
G1 X134.188 Y42.565
G1 Z0.200
G1 E0.80000 F2100.00000
G1 F1200
G1 X136.721 Y45.098 E0.11451
G1 X136.896 Y45.098 E0.00559
G1 X136.896 Y44.729 E0.01179
G1 X134.853 Y42.686 E0.09235
G1 X135.002 Y42.697 E0.00476
G1 X135.363 Y42.652 E0.01163
G1 X136.896 Y44.185 E0.06931
G1 X136.896 Y43.641 E0.01738
G1 X135.786 Y42.531 E0.05018
G1 X135.911 Y42.489 E0.00421
G1 X136.150 Y42.351 E0.00882
G1 X136.896 Y43.098 E0.03373
G1 X136.896 Y42.554 E0.01738
G1 X136.346 Y42.003 E0.02489
G1 X136.871 Y41.749 F10800.000
G1 F1200
G1 X136.980 Y41.361 E0.00449
G1 F8640
G1 X136.871 Y41.749 E-0.09316
G1 E-0.70684 F2100.00000
G1 Z0.800 F10800.000
G1 X136.972 Y39.320
G1 Z0.200
G1 E0.80000 F2100.00000
G1 F1200
G1 X136.955 Y39.261 E0.00036
G1 X136.881 Y39.162 E0.00072
G1 X137.062 Y38.914 F10800.000
G1 F1200
G1 X133.739 Y35.591 E0.15021
G1 X134.283 Y35.591 E0.01738
G1 X136.896 Y38.205 E0.11813
G1 X136.896 Y37.661 E0.01738
G1 X134.827 Y35.591 E0.09355
G1 X135.370 Y35.591 E0.01738
G1 X136.896 Y37.117 E0.06898
G1 X136.896 Y36.574 E0.01738
G1 X135.914 Y35.591 E0.04440
G1 X136.458 Y35.591 E0.01738
G1 X137.066 Y36.200 E0.02749
G1 F8640
G1 X136.458 Y35.591 E-0.19860
G1 X135.914 Y35.591 E-0.12553
G1 X136.896 Y36.574 E-0.32072
G1 X136.896 Y37.072 E-0.11515
G1 E-0.04000 F2100.00000
G1 Z0.800 F10800.000
G1 X136.120 Y38.516
G1 Z0.200
G1 E0.80000 F2100.00000
G1 F1200
G1 X133.196 Y35.591 E0.13220
G1 X132.652 Y35.591 E0.01738
G1 X135.056 Y37.995 E0.10867
G1 X134.543 Y38.027 E0.01641
G1 X132.108 Y35.591 E0.11008
G1 X131.565 Y35.591 E0.01738
G1 X134.118 Y38.144 E0.11541
G1 X133.753 Y38.323 E0.01298
G1 X131.390 Y35.960 E0.10682
G1 X131.390 Y36.504 E0.01738
G1 X133.437 Y38.551 E0.09252
G1 X133.300 Y38.660 E0.00559
G1 X133.164 Y38.822 E0.00676
G1 X131.390 Y37.048 E0.08020
G1 X131.390 Y37.591 E0.01738
G1 X132.935 Y39.136 E0.06984
G1 X132.754 Y39.499 E0.01295
G1 X131.390 Y38.135 E0.06164
G1 X131.390 Y38.679 E0.01738
G1 X132.632 Y39.921 E0.05616
G1 X132.590 Y40.344 E0.01360
G1 X132.599 Y40.431 E0.00278
G1 X131.390 Y39.222 E0.05463
G1 X131.390 Y39.766 E0.01738
G1 X132.727 Y41.103 E0.06042
G1 F8640
G1 X131.390 Y39.766 E-0.43647
G1 X131.390 Y39.222 E-0.12553
G1 X131.996 Y39.829 E-0.19800
G1 E-0.04000 F2100.00000
G1 Z0.800 F10800.000
G1 X121.066 Y36.200
G1 Z0.200
G1 E0.80000 F2100.00000
G1 F1200
G1 X120.458 Y35.591 E0.02749
G1 X119.914 Y35.591 E0.01738
G1 X120.896 Y36.574 E0.04440
G1 X120.896 Y37.117 E0.01738
G1 X119.370 Y35.591 E0.06898
G1 X118.827 Y35.591 E0.01738
G1 X120.896 Y37.661 E0.09355
G1 X120.896 Y38.205 E0.01738
G1 X118.283 Y35.591 E0.11813
G1 X117.739 Y35.591 E0.01738
G1 X120.896 Y38.748 E0.14271
G1 X120.896 Y39.292 E0.01738
G1 X117.196 Y35.591 E0.16729
G1 X116.652 Y35.591 E0.01738
G1 X120.896 Y39.836 E0.19186
G1 X120.896 Y40.379 E0.01738
G1 X120.191 Y39.674 E0.03189
G1 X120.223 Y39.764 E0.00306
G1 X120.293 Y40.227 E0.01498
G1 X120.289 Y40.316 E0.00283
G1 X120.896 Y40.923 E0.02745
G1 X120.896 Y41.467 E0.01738
G1 X120.240 Y40.811 E0.02964
G1 X120.154 Y41.149 E0.01116
G1 X120.116 Y41.230 E0.00285
G1 X120.896 Y42.010 E0.03528
G1 X120.896 Y42.554 E0.01738
G1 X119.935 Y41.593 E0.04345
G1 X119.701 Y41.902 E0.01241
G1 X120.896 Y43.098 E0.05404
G1 X120.896 Y43.641 E0.01738
G1 X119.419 Y42.164 E0.06676
G1 X119.317 Y42.255 E0.00438
G1 X119.095 Y42.383 E0.00820
G1 X120.896 Y44.185 E0.08144
G1 X120.896 Y44.729 E0.01738
G1 X118.721 Y42.553 E0.09834
G1 X118.467 Y42.639 E0.00857
G1 X118.285 Y42.661 E0.00585
G1 X120.721 Y45.098 E0.11013
G1 X120.178 Y45.098 E0.01738
G1 X117.759 Y42.679 E0.10935
G1 X117.534 Y42.662 E0.00720
G1 X117.059 Y42.522 E0.01584
G1 X119.634 Y45.098 E0.11641
G1 X119.090 Y45.098 E0.01738
G1 X115.390 Y41.397 E0.16728
G1 X115.390 Y40.853 E0.01738
G1 X115.766 Y41.229 E0.01698
G1 X115.637 Y40.811 E0.01399
G1 X115.608 Y40.528 E0.00908
G1 X115.390 Y40.310 E0.00987
G1 X115.390 Y39.766 E0.01738
G1 X115.624 Y40.000 E0.01059
G1 X115.637 Y39.878 E0.00393
G1 X115.733 Y39.565 E0.01046
G1 X115.390 Y39.222 E0.01551
G1 X115.390 Y38.679 E0.01738
G1 X115.904 Y39.193 E0.02324
G1 X115.999 Y39.019 E0.00633
G1 X116.124 Y38.869 E0.00624
G1 X115.390 Y38.135 E0.03319
G1 X115.390 Y37.591 E0.01738
G1 X116.388 Y38.590 E0.04512
G1 X116.695 Y38.353 E0.01239
G1 X115.390 Y37.048 E0.05900
G1 X115.390 Y36.504 E0.01738
G1 X117.055 Y38.169 E0.07525
G1 X117.474 Y38.044 E0.01398
G1 X115.390 Y35.960 E0.09419
G1 X115.390 Y35.591 E0.01180
G1 X115.565 Y35.591 E0.00558
G1 X117.967 Y37.994 E0.10862
G1 X118.024 Y37.990 E0.00182
G1 X118.607 Y38.091 E0.01893
G1 X115.939 Y35.422 E0.12065
G1 F8640
G1 X118.266 Y37.749 E-0.76000
G1 E-0.04000 F2100.00000
G1 Z0.800 F10800.000
G1 X115.998 Y45.267
G1 Z0.200
G1 E0.80000 F2100.00000
G1 F1200
G1 X115.390 Y44.659 E0.02749
G1 X115.390 Y44.115 E0.01738
G1 X116.372 Y45.098 E0.04439
G1 X116.916 Y45.098 E0.01738
G1 X115.390 Y43.572 E0.06897
G1 X115.390 Y43.028 E0.01738
G1 X117.459 Y45.098 E0.09355
G1 X118.003 Y45.098 E0.01738
G1 X115.390 Y42.484 E0.11813
G1 X115.390 Y41.941 E0.01738
G1 X118.716 Y45.267 E0.15037
M106 S255
;BEFORE_LAYER_CHANGE
G92 E0.0
;0.5


G1 F8640
G1 X116.389 Y42.940 E-0.76000
G1 E-0.04000 F2100.00000
G1 Z0.800 F10800.000
;AFTER_LAYER_CHANGE
;0.5
M140 S64 ; set bed temperature
G1 X121.357 Y35.559
G1 Z0.500
G1 E0.80000 F2100.00000
M204 S800
G1 F1552
G1 X130.929 Y35.559 E0.52003
G1 X130.929 Y45.130 E0.52003
G1 X121.357 Y45.130 E0.52003
G1 X121.357 Y35.619 E0.51677
M204 S1000
G1 X121.843 Y36.044 F10800.000
M204 S800
G1 F1552
G1 X130.443 Y36.044 E0.57453
G1 X130.443 Y44.644 E0.57453
G1 X121.843 Y44.644 E0.57453
G1 X121.843 Y36.104 E0.57052
M204 S1000
G1 X121.739 Y35.658 F10800.000
G1 F8640
G1 X125.134 Y36.081 E-0.76000
G1 E-0.04000 F2100.00000
G1 Z1.100 F10800.000
G1 X119.483 Y38.599
G1 Z0.500
G1 E0.80000 F2100.00000
M204 S800
G1 F1552
G1 X119.798 Y38.939 E0.02518
G1 X120.040 Y39.335 E0.02518
G1 X120.198 Y39.770 E0.02518
G1 X120.267 Y40.228 E0.02518
G1 X120.244 Y40.691 E0.02518
G1 X120.130 Y41.140 E0.02518
G1 X119.929 Y41.558 E0.02518
G1 X119.649 Y41.927 E0.02518
G1 X119.302 Y42.234 E0.02518
G1 X118.900 Y42.466 E0.02518
G1 X118.461 Y42.613 E0.02518
G1 X118.001 Y42.671 E0.02518
G1 X117.539 Y42.636 E0.02518
