; generated by PrusaSlicer 2.0.0+win64 on 2020-06-03 at 15:42:01

; 

; external perimeters extrusion width = 0.60mm
; perimeters extrusion width = 0.50mm
; infill extrusion width = 0.50mm
; solid infill extrusion width = 0.50mm
; top infill extrusion width = 0.45mm
; first layer extrusion width = 0.42mm

M73 P0 R118
M73 Q0 S119
M201 X1000 Y1000 Z1000 E5000 ; sets maximum accelerations, mm/sec^2
M203 X200 Y200 Z12 E120 ; sets maximum feedrates, mm/sec
M204 P1250 R1250 T1250 ; sets acceleration (P, T) and retract acceleration (R), mm/sec^2
M205 X8.00 Y8.00 Z0.40 E1.50 ; sets the jerk limits, mm/sec
M205 S0 T0 ; sets the minimum extruding and travel feed rate, mm/sec
M107
M115 U3.8.0 ; tell printer latest fw version
G90 ; use absolute coordinates
M83 ; extruder relative mode
M104 S215 ; set extruder temp
M140 S67 ; set bed temp
M190 S67 ; wait for bed temp
M109 S215 ; wait for extruder temp
G28 W ; home all without mesh bed level
G80 ; mesh bed leveling
G1 Y-3.0 F1000.0 ; go outside print area
G92 E0.0
G1 X60.0 E9.0 F1000.0 ; intro line
M73 Q0 S119
M73 P0 R118
G1 X100.0 E12.5 F1000.0 ; intro line
G92 E0.0
M221 S95
M900 K30 ; Filament gcode
G21 ; set units to millimeters
G90 ; use absolute coordinates
M83 ; use relative distances for extrusion
;BEFORE_LAYER_CHANGE
G92 E0.0
;0.2


G1 E-0.80000 F2100.00000
G1 Z0.600 F10800.000
;AFTER_LAYER_CHANGE
;0.2
G1 X153.274 Y117.574
G1 Z0.200
G1 E0.80000 F2100.00000
M204 S1000
G1 F1200
G1 X153.629 Y117.205 E0.01606
G1 X154.036 Y116.894 E0.01606
G1 X154.486 Y116.649 E0.01606
G1 X154.968 Y116.476 E0.01606
G1 X155.471 Y116.379 E0.01606
G1 X155.969 Y116.360 E0.01563
G1 X156.488 Y116.417 E0.01637
G1 X156.985 Y116.554 E0.01616
G1 X157.452 Y116.763 E0.01606
G1 X157.871 Y117.034 E0.01563
G1 X158.262 Y117.380 E0.01637
G1 X158.590 Y117.777 E0.01616
G1 X158.852 Y118.218 E0.01606
G1 X159.044 Y118.693 E0.01606
G1 X159.160 Y119.191 E0.01606
G1 X159.200 Y119.702 E0.01606
G1 X159.160 Y120.213 E0.01606
G1 X159.044 Y120.711 E0.01606
G1 X158.852 Y121.186 E0.01606
G1 X158.590 Y121.626 E0.01606
G1 X158.265 Y122.022 E0.01606
G1 X157.882 Y122.362 E0.01606
G1 X157.452 Y122.641 E0.01606
G1 X156.985 Y122.850 E0.01606
G1 X156.491 Y122.986 E0.01606
G1 X155.982 Y123.045 E0.01606
G1 X155.471 Y123.025 E0.01606
G1 X154.968 Y122.927 E0.01606
G1 X154.486 Y122.754 E0.01606
G1 X154.036 Y122.510 E0.01606
G1 X153.629 Y122.199 E0.01606
G1 X153.274 Y121.830 E0.01606
G1 X152.979 Y121.411 E0.01606
G1 X152.752 Y120.952 E0.01606
G1 X152.597 Y120.464 E0.01606
G1 X152.519 Y119.958 E0.01606
G1 X152.519 Y119.446 E0.01606
G1 X152.597 Y118.940 E0.01606
G1 X152.752 Y118.451 E0.01606
G1 X152.979 Y117.992 E0.01606
G1 X153.239 Y117.623 E0.01418
G1 X153.547 Y117.840 F10800.000
G1 F1200
G1 X153.880 Y117.487 E0.01521
G1 X154.242 Y117.211 E0.01424
G1 X154.641 Y116.994 E0.01424
G1 X155.068 Y116.841 E0.01424
G1 X155.514 Y116.754 E0.01424
G1 X155.955 Y116.738 E0.01385
G1 X156.417 Y116.789 E0.01456
G1 X156.857 Y116.910 E0.01432
G1 X157.272 Y117.095 E0.01424
G1 X157.642 Y117.335 E0.01385
G1 X157.991 Y117.643 E0.01456
G1 X158.281 Y117.995 E0.01432
G1 X158.513 Y118.385 E0.01424
G1 X158.683 Y118.807 E0.01424
G1 X158.787 Y119.249 E0.01424
G1 X158.821 Y119.702 E0.01424
G1 X158.787 Y120.155 E0.01424
G1 X158.683 Y120.597 E0.01424
G1 X158.513 Y121.018 E0.01424
G1 X158.281 Y121.409 E0.01424
G1 X157.992 Y121.759 E0.01424
G1 X157.653 Y122.062 E0.01424
G1 X157.272 Y122.308 E0.01424
G1 X156.857 Y122.494 E0.01424
G1 X156.419 Y122.615 E0.01424
G1 X155.968 Y122.667 E0.01424
G1 X155.514 Y122.649 E0.01424
G1 X155.068 Y122.563 E0.01424
G1 X154.641 Y122.409 E0.01424
G1 X154.242 Y122.192 E0.01424
G1 X153.880 Y121.917 E0.01424
G1 X153.565 Y121.590 E0.01424
G1 X153.304 Y121.218 E0.01424
G1 X153.102 Y120.811 E0.01424
G1 X152.965 Y120.378 E0.01424
G1 X152.896 Y119.929 E0.01424
G1 X152.896 Y119.475 E0.01424
G1 X152.965 Y119.026 E0.01424
G1 X153.102 Y118.593 E0.01424
G1 X153.304 Y118.186 E0.01424
G1 X153.513 Y117.889 E0.01139
G1 X153.821 Y118.106 F10800.000
G1 F1200
G1 X154.132 Y117.769 E0.01435
G1 X154.447 Y117.529 E0.01243
G1 X154.795 Y117.340 E0.01243
G1 X155.168 Y117.206 E0.01243
G1 X155.557 Y117.130 E0.01243
G1 X155.942 Y117.115 E0.01206
G1 X156.346 Y117.160 E0.01274
G1 X156.729 Y117.265 E0.01247
G1 X157.091 Y117.428 E0.01243
G1 X157.414 Y117.637 E0.01206
G1 X157.719 Y117.906 E0.01274
G1 X157.972 Y118.212 E0.01247
G1 X158.174 Y118.553 E0.01243
G1 X158.323 Y118.921 E0.01243
G1 X158.413 Y119.307 E0.01243
G1 X158.443 Y119.702 E0.01243
G1 X158.413 Y120.097 E0.01243
G1 X158.323 Y120.483 E0.01243
G1 X158.174 Y120.851 E0.01243
G1 X157.972 Y121.191 E0.01243
G1 X157.720 Y121.497 E0.01243
G1 X157.424 Y121.761 E0.01243
G1 X157.091 Y121.976 E0.01243
G1 X156.729 Y122.138 E0.01243
G1 X156.347 Y122.243 E0.01243
G1 X155.953 Y122.289 E0.01243
G1 X155.557 Y122.274 E0.01243
G1 X155.168 Y122.198 E0.01243
G1 X154.795 Y122.064 E0.01243
G1 X154.447 Y121.875 E0.01243
G1 X154.132 Y121.635 E0.01243
G1 X153.857 Y121.349 E0.01243
G1 X153.629 Y121.025 E0.01243
G1 X153.453 Y120.670 E0.01243
G1 X153.334 Y120.292 E0.01243
G1 X153.273 Y119.900 E0.01243
G1 X153.273 Y119.504 E0.01243
G1 X153.334 Y119.112 E0.01243
G1 X153.453 Y118.734 E0.01243
G1 X153.629 Y118.379 E0.01243
G1 X153.787 Y118.155 E0.00860
G1 X154.149 Y118.295 F10800.000
G1 F1200
G1 X154.384 Y118.052 E0.01061
G1 X154.653 Y117.846 E0.01061
G1 X154.950 Y117.685 E0.01061
G1 X155.269 Y117.570 E0.01061
G1 X155.601 Y117.506 E0.01061
G1 X155.928 Y117.493 E0.01028
G1 X156.275 Y117.532 E0.01093
G1 X156.602 Y117.621 E0.01063
G1 X156.910 Y117.760 E0.01061
G1 X157.185 Y117.938 E0.01027
G1 X157.447 Y118.169 E0.01093
G1 X157.662 Y118.430 E0.01063
G1 X157.835 Y118.721 E0.01061
G1 X157.962 Y119.035 E0.01061
G1 X158.039 Y119.364 E0.01061
G1 X158.065 Y119.702 E0.01061
G1 X158.039 Y120.039 E0.01061
G1 X157.962 Y120.369 E0.01061
G1 X157.835 Y120.683 E0.01061
G1 X157.662 Y120.974 E0.01061
G1 X157.447 Y121.235 E0.01061
G1 X157.194 Y121.460 E0.01061
G1 X156.910 Y121.644 E0.01061
G1 X156.602 Y121.782 E0.01061
G1 X156.275 Y121.872 E0.01061
G1 X155.939 Y121.911 E0.01061
G1 X155.601 Y121.898 E0.01061
G1 X155.269 Y121.833 E0.01061
G1 X154.950 Y121.719 E0.01061
G1 X154.653 Y121.557 E0.01061
G1 X154.384 Y121.352 E0.01061
G1 X154.149 Y121.108 E0.01061
G1 X153.954 Y120.832 E0.01061
G1 X153.804 Y120.528 E0.01061
G1 X153.702 Y120.206 E0.01061
G1 X153.650 Y119.871 E0.01061
G1 X153.650 Y119.533 E0.01061
G1 X153.702 Y119.198 E0.01061
G1 X153.804 Y118.876 E0.01061
G1 X153.954 Y118.572 E0.01061
G1 X154.114 Y118.344 E0.00873
G1 X154.030 Y117.978 F10800.000
G1 F8640
G1 X154.384 Y118.052 E-0.09186
G1 X154.653 Y117.846 E-0.07815
G1 X154.950 Y117.685 E-0.07815
G1 X155.269 Y117.570 E-0.07815
G1 X155.601 Y117.506 E-0.07815
G1 X155.928 Y117.493 E-0.07567
G1 X156.275 Y117.532 E-0.08048
G1 X156.602 Y117.621 E-0.07827
G1 X156.910 Y117.760 E-0.07815
G1 X157.067 Y117.861 E-0.04298
G1 E-0.04000 F2100.00000
G1 Z0.800 F10800.000
G1 X119.636 Y91.384
G1 Z0.200
G1 E0.80000 F2100.00000
G1 F1200
G1 X144.073 Y91.384 E0.76619
G1 X144.073 Y119.020 E0.86653
G1 X119.636 Y119.020 E0.76619
G1 X119.636 Y91.444 E0.86465
G1 X120.013 Y91.761 F10800.000
G1 F1200
G1 X143.696 Y91.761 E0.74255
G1 X143.696 Y118.643 E0.84288
G1 X120.013 Y118.643 E0.74255
G1 X120.013 Y91.821 E0.84100
G1 X120.390 Y92.138 F10800.000
G1 F1200
G1 X143.318 Y92.138 E0.71890
G1 X143.318 Y118.266 E0.81924
G1 X120.390 Y118.266 E0.71890
G1 X120.390 Y92.198 E0.81735
G1 X120.767 Y92.515 F10800.000
G1 F1200
G1 X142.941 Y92.515 E0.69526
G1 X142.941 Y117.889 E0.79559
G1 X120.767 Y117.889 E0.69526
G1 X120.767 Y92.575 E0.79371
G1 X121.144 Y92.892 F10800.000
G1 F1200
G1 X142.564 Y92.892 E0.67161
G1 X142.564 Y117.512 E0.77194
G1 X121.144 Y117.512 E0.67161
G1 X121.144 Y92.952 E0.77006
G1 X121.050 Y92.503 F10800.000
G1 F8640
G1 X124.436 Y92.943 E-0.76000
G1 E-0.04000 F2100.00000
G1 Z0.800 F10800.000
G1 X110.722 Y95.984
G1 Z0.200
G1 E0.80000 F2100.00000
G1 F1200
G1 X110.722 Y114.420 E0.57807
G1 X99.785 Y114.420 E0.34291
G1 X99.785 Y95.984 E0.57807
G1 X110.662 Y95.984 E0.34103
G1 X110.345 Y96.361 F10800.000
G1 F1200
G1 X110.345 Y114.043 E0.55442
G1 X100.162 Y114.043 E0.31926
G1 X100.162 Y96.361 E0.55442
G1 X110.285 Y96.361 E0.31738
G1 X109.968 Y96.738 F10800.000
G1 F1200
G1 X109.968 Y113.666 E0.53078
G1 X100.539 Y113.666 E0.29562
G1 X100.539 Y96.738 E0.53078
G1 X109.908 Y96.738 E0.29374
G1 X109.591 Y97.115 F10800.000
G1 F1200
G1 X109.591 Y113.289 E0.50713
G1 X100.916 Y113.289 E0.27197
G1 X100.916 Y97.115 E0.50713
G1 X109.531 Y97.115 E0.27009
G1 X109.213 Y97.492 F10800.000
G1 F1200
G1 X109.213 Y112.912 E0.48348
G1 X101.293 Y112.912 E0.24833
G1 X101.293 Y97.492 E0.48348
G1 X109.153 Y97.492 E0.24645
G1 X109.587 Y97.349 F10800.000
G1 F8640
G1 X109.166 Y100.783 E-0.76000
G1 E-0.04000 F2100.00000
G1 Z0.800 F10800.000
G1 X154.136 Y78.065
G1 Z0.200
G1 E0.80000 F2100.00000
G1 F1200
G1 X154.136 Y116.335 E1.19995
G1 X154.262 Y116.342 E0.00397
G1 X153.830 Y116.577 E0.01542
G1 X153.377 Y116.922 E0.01787
G1 X152.982 Y117.333 E0.01787
G1 X152.654 Y117.799 E0.01787
G1 X152.401 Y118.310 E0.01787
G1 X152.229 Y118.854 E0.01787
G1 X152.142 Y119.417 E0.01787
G1 X152.142 Y119.987 E0.01787
G1 X152.229 Y120.550 E0.01787
G1 X152.401 Y121.094 E0.01787
G1 X152.654 Y121.605 E0.01787
G1 X152.982 Y122.071 E0.01787
G1 X153.377 Y122.482 E0.01787
G1 X153.830 Y122.827 E0.01787
G1 X154.255 Y123.058 E0.01514
G1 X154.136 Y123.063 E0.00372
G1 X154.136 Y139.284 E0.50857
G1 X90.876 Y139.284 E1.98346
G1 X90.867 Y75.488 E2.00026
G1 X90.901 Y75.594 E0.00348
G1 X91.154 Y76.105 E0.01787
G1 X91.482 Y76.571 E0.01787
G1 X91.877 Y76.982 E0.01787
G1 X92.334 Y77.330 E0.01801
G1 X92.845 Y77.604 E0.01819
G1 X93.368 Y77.792 E0.01742
G1 X93.927 Y77.901 E0.01787
G1 X94.497 Y77.923 E0.01787
G1 X95.063 Y77.857 E0.01787
G1 X95.613 Y77.706 E0.01787
G1 X96.133 Y77.473 E0.01787
G1 X96.612 Y77.163 E0.01787
G1 X97.037 Y76.784 E0.01787
G1 X97.400 Y76.344 E0.01788
G1 X97.691 Y75.854 E0.01787
G1 X97.904 Y75.325 E0.01787
G1 X98.034 Y74.770 E0.01787
G1 X98.078 Y74.202 E0.01787
G1 X98.034 Y73.634 E0.01787
G1 X97.904 Y73.078 E0.01787
G1 X97.691 Y72.550 E0.01787
G1 X97.400 Y72.060 E0.01787
G1 X97.037 Y71.620 E0.01788
G1 X96.813 Y71.420 E0.00941
G1 X155.815 Y71.420 E1.84998
M73 Q0 S118
M73 P0 R117
G1 X156.168 Y71.437 E0.01107
G1 X156.473 Y71.481 E0.00966
G1 X156.777 Y71.555 E0.00980
G1 X157.072 Y71.657 E0.00979
G1 X157.356 Y71.786 E0.00979
G1 X157.626 Y71.942 E0.00979
G1 X157.881 Y72.123 E0.00979
G1 X158.117 Y72.327 E0.00979
G1 X158.332 Y72.553 E0.00977
G1 X158.528 Y72.802 E0.00994
G1 X158.694 Y73.061 E0.00965
G1 X158.837 Y73.338 E0.00978
G1 X158.955 Y73.632 E0.00994
G1 X159.041 Y73.928 E0.00965
G1 X159.100 Y74.234 E0.00977
G1 X159.130 Y74.549 E0.00994
G1 X159.130 Y74.857 E0.00966
G1 X159.101 Y75.168 E0.00977
G1 X159.041 Y75.479 E0.00994
G1 X158.954 Y75.774 E0.00966
G1 X158.838 Y76.064 E0.00979
G1 X158.695 Y76.342 E0.00979
G1 X158.528 Y76.601 E0.00966
G1 X158.332 Y76.850 E0.00994
G1 X158.117 Y77.076 E0.00976
G1 X157.885 Y77.277 E0.00966
G1 X157.626 Y77.462 E0.00994
G1 X157.357 Y77.617 E0.00977
G1 X157.077 Y77.745 E0.00965
G1 X156.777 Y77.849 E0.00994
G1 X156.474 Y77.923 E0.00977
G1 X156.169 Y77.966 E0.00966
G1 X154.196 Y78.062 E0.06194
G1 F8640
G1 X154.191 Y81.353 E-0.76000
G1 E-0.04000 F2100.00000
G1 Z0.800 F10800.000
G1 X97.700 Y74.202
G1 Z0.200
G1 E0.80000 F2100.00000
G1 F1200
G1 X97.660 Y74.713 E0.01606
G1 X97.544 Y75.211 E0.01606
G1 X97.352 Y75.686 E0.01606
G1 X97.090 Y76.126 E0.01606
G1 X96.765 Y76.522 E0.01606
G1 X96.382 Y76.862 E0.01606
G1 X95.952 Y77.141 E0.01606
G1 X95.485 Y77.350 E0.01606
G1 X94.991 Y77.486 E0.01606
G1 X94.482 Y77.545 E0.01606
G1 X93.971 Y77.525 E0.01606
G1 X93.468 Y77.427 E0.01606
G1 X92.999 Y77.259 E0.01564
G1 X92.539 Y77.012 E0.01637
G1 X92.129 Y76.699 E0.01616
G1 X91.774 Y76.330 E0.01606
G1 X91.479 Y75.911 E0.01606
G1 X91.252 Y75.452 E0.01606
G1 X91.097 Y74.964 E0.01606
G1 X91.019 Y74.458 E0.01606
G1 X91.019 Y73.946 E0.01606
G1 X91.097 Y73.440 E0.01606
G1 X91.252 Y72.951 E0.01606
G1 X91.479 Y72.492 E0.01606
G1 X91.774 Y72.074 E0.01606
G1 X92.129 Y71.705 E0.01606
G1 X92.536 Y71.394 E0.01606
G1 X92.986 Y71.149 E0.01606
G1 X93.468 Y70.976 E0.01606
G1 X93.971 Y70.879 E0.01606
G1 X94.469 Y70.860 E0.01563
G1 X94.988 Y70.917 E0.01637
G1 X95.485 Y71.054 E0.01616
G1 X95.952 Y71.263 E0.01606
G1 X96.382 Y71.541 E0.01606
G1 X96.765 Y71.882 E0.01606
G1 X97.090 Y72.277 E0.01606
G1 X97.352 Y72.718 E0.01606
G1 X97.544 Y73.193 E0.01606
G1 X97.660 Y73.691 E0.01606
G1 X97.695 Y74.142 E0.01418
G1 X97.319 Y74.171 F10800.000
G1 F1200
G1 X97.287 Y74.655 E0.01521
G1 X97.183 Y75.097 E0.01424
G1 X97.013 Y75.518 E0.01424
G1 X96.781 Y75.909 E0.01424
G1 X96.492 Y76.259 E0.01424
G1 X96.153 Y76.562 E0.01424
G1 X95.772 Y76.808 E0.01424
G1 X95.357 Y76.994 E0.01424
G1 X94.919 Y77.115 E0.01424
G1 X94.468 Y77.167 E0.01424
G1 X94.014 Y77.149 E0.01424
G1 X93.568 Y77.063 E0.01424
G1 X93.152 Y76.914 E0.01385
G1 X92.743 Y76.694 E0.01456
G1 X92.380 Y76.417 E0.01432
G1 X92.065 Y76.090 E0.01424
G1 X91.804 Y75.718 E0.01424
G1 X91.602 Y75.311 E0.01424
G1 X91.465 Y74.878 E0.01424
G1 X91.396 Y74.429 E0.01424
G1 X91.396 Y73.975 E0.01424
G1 X91.465 Y73.526 E0.01424
G1 X91.602 Y73.093 E0.01424
G1 X91.804 Y72.686 E0.01424
G1 X92.065 Y72.314 E0.01424
G1 X92.380 Y71.987 E0.01424
G1 X92.742 Y71.712 E0.01424
G1 X93.141 Y71.494 E0.01424
G1 X93.568 Y71.341 E0.01424
G1 X94.014 Y71.254 E0.01424
G1 X94.455 Y71.238 E0.01385
G1 X94.917 Y71.289 E0.01456
G1 X95.357 Y71.410 E0.01432
G1 X95.772 Y71.595 E0.01424
G1 X96.153 Y71.842 E0.01424
G1 X96.492 Y72.144 E0.01424
G1 X96.781 Y72.495 E0.01424
G1 X97.013 Y72.885 E0.01424
G1 X97.183 Y73.307 E0.01424
G1 X97.287 Y73.749 E0.01424
G1 X97.314 Y74.111 E0.01139
G1 X96.938 Y74.140 F10800.000
G1 F1200
G1 X96.913 Y74.597 E0.01435
G1 X96.823 Y74.983 E0.01243
G1 X96.674 Y75.351 E0.01243
G1 X96.472 Y75.691 E0.01243
G1 X96.220 Y75.997 E0.01243
G1 X95.924 Y76.261 E0.01243
G1 X95.591 Y76.476 E0.01243
G1 X95.229 Y76.638 E0.01243
G1 X94.847 Y76.743 E0.01243
G1 X94.453 Y76.789 E0.01243
G1 X94.057 Y76.774 E0.01243
G1 X93.668 Y76.698 E0.01243
G1 X93.306 Y76.568 E0.01206
G1 X92.948 Y76.376 E0.01274
G1 X92.632 Y76.135 E0.01247
G1 X92.357 Y75.849 E0.01243
G1 X92.129 Y75.525 E0.01243
G1 X91.953 Y75.170 E0.01243
G1 X91.834 Y74.792 E0.01243
G1 X91.773 Y74.400 E0.01243
G1 X91.773 Y74.004 E0.01243
G1 X91.834 Y73.612 E0.01243
G1 X91.953 Y73.234 E0.01243
G1 X92.129 Y72.879 E0.01243
G1 X92.357 Y72.555 E0.01243
G1 X92.632 Y72.269 E0.01243
G1 X92.947 Y72.029 E0.01243
G1 X93.295 Y71.840 E0.01243
G1 X93.668 Y71.706 E0.01243
G1 X94.057 Y71.630 E0.01243
G1 X94.442 Y71.615 E0.01206
G1 X94.846 Y71.660 E0.01274
G1 X95.229 Y71.765 E0.01247
G1 X95.591 Y71.928 E0.01243
G1 X95.924 Y72.143 E0.01243
G1 X96.220 Y72.407 E0.01243
G1 X96.472 Y72.713 E0.01243
G1 X96.674 Y73.053 E0.01243
G1 X96.823 Y73.421 E0.01243
G1 X96.913 Y73.807 E0.01243
G1 X96.934 Y74.080 E0.00860
G1 X96.565 Y74.202 F10800.000
G1 F1200
G1 X96.539 Y74.539 E0.01061
G1 X96.462 Y74.869 E0.01061
G1 X96.335 Y75.183 E0.01061
G1 X96.162 Y75.474 E0.01061
G1 X95.947 Y75.735 E0.01061
G1 X95.694 Y75.960 E0.01061
G1 X95.410 Y76.144 E0.01061
G1 X95.102 Y76.282 E0.01061
G1 X94.775 Y76.372 E0.01061
G1 X94.439 Y76.411 E0.01061
G1 X94.101 Y76.398 E0.01061
G1 X93.769 Y76.333 E0.01061
G1 X93.460 Y76.223 E0.01028
G1 X93.153 Y76.058 E0.01093
G1 X92.884 Y75.852 E0.01063
G1 X92.649 Y75.608 E0.01061
G1 X92.454 Y75.332 E0.01061
G1 X92.304 Y75.028 E0.01061
G1 X92.202 Y74.706 E0.01061
G1 X92.150 Y74.371 E0.01061
G1 X92.150 Y74.033 E0.01061
G1 X92.202 Y73.698 E0.01061
G1 X92.304 Y73.376 E0.01061
G1 X92.454 Y73.072 E0.01061
G1 X92.649 Y72.795 E0.01061
G1 X92.884 Y72.552 E0.01061
G1 X93.153 Y72.346 E0.01061
G1 X93.450 Y72.185 E0.01061
G1 X93.769 Y72.070 E0.01061
G1 X94.101 Y72.006 E0.01061
G1 X94.428 Y71.993 E0.01028
G1 X94.775 Y72.032 E0.01093
G1 X95.102 Y72.121 E0.01063
G1 X95.410 Y72.260 E0.01061
G1 X95.694 Y72.444 E0.01061
G1 X95.947 Y72.669 E0.01061
G1 X96.162 Y72.930 E0.01061
G1 X96.335 Y73.221 E0.01061
G1 X96.462 Y73.535 E0.01061
G1 X96.539 Y73.864 E0.01061
G1 X96.560 Y74.142 E0.00873
