; generated by PrusaSlicer 2.0.0+win64 on 2020-06-02 at 19:59:29

; 

; external perimeters extrusion width = 0.60mm
; perimeters extrusion width = 0.50mm
; infill extrusion width = 0.50mm
; solid infill extrusion width = 0.50mm
; top infill extrusion width = 0.45mm
; first layer extrusion width = 0.42mm

M73 P0 R112
M73 Q0 S113
M201 X1000 Y1000 Z1000 E5000 ; sets maximum accelerations, mm/sec^2
M203 X200 Y200 Z12 E120 ; sets maximum feedrates, mm/sec
M204 P1250 R1250 T1250 ; sets acceleration (P, T) and retract acceleration (R), mm/sec^2
M205 X8.00 Y8.00 Z0.40 E1.50 ; sets the jerk limits, mm/sec
M205 S0 T0 ; sets the minimum extruding and travel feed rate, mm/sec
M107
M115 U3.8.0 ; tell printer latest fw version
G90 ; use absolute coordinates
M83 ; extruder relative mode
M104 S215 ; set extruder temp
M140 S67 ; set bed temp
M190 S67 ; wait for bed temp
M109 S215 ; wait for extruder temp
G28 W ; home all without mesh bed level
G80 ; mesh bed leveling
G1 Y-3.0 F1000.0 ; go outside print area
G92 E0.0
G1 X60.0 E9.0 F1000.0 ; intro line
M73 Q0 S112
M73 P0 R112
G1 X100.0 E12.5 F1000.0 ; intro line
G92 E0.0
M221 S95
M900 K30 ; Filament gcode
G21 ; set units to millimeters
G90 ; use absolute coordinates
M83 ; use relative distances for extrusion
;BEFORE_LAYER_CHANGE
G92 E0.0
;0.2


G1 E-0.80000 F2100.00000
G1 Z0.600 F10800.000
;AFTER_LAYER_CHANGE
;0.2
G1 X152.992 Y72.533
G1 Z0.200
G1 E0.80000 F2100.00000
M204 S1000
G1 F1200
G1 X153.224 Y72.143 E0.01424
G1 X153.513 Y71.793 E0.01424
G1 X153.853 Y71.490 E0.01424
G1 X154.234 Y71.243 E0.01424
G1 X154.648 Y71.058 E0.01424
G1 X155.086 Y70.937 E0.01424
G1 X155.525 Y70.887 E0.01385
G1 X155.989 Y70.902 E0.01456
G1 X156.437 Y70.989 E0.01432
G1 X156.865 Y71.143 E0.01424
G1 X157.264 Y71.360 E0.01424
G1 X157.625 Y71.635 E0.01424
G1 X157.940 Y71.962 E0.01424
G1 X158.202 Y72.334 E0.01424
G1 X158.403 Y72.741 E0.01424
G1 X158.540 Y73.174 E0.01424
G1 X158.609 Y73.623 E0.01424
G1 X158.609 Y74.077 E0.01424
G1 X158.540 Y74.526 E0.01424
G1 X158.403 Y74.959 E0.01424
G1 X158.202 Y75.366 E0.01424
G1 X157.940 Y75.738 E0.01424
G1 X157.625 Y76.065 E0.01424
G1 X157.264 Y76.340 E0.01424
G1 X156.865 Y76.557 E0.01424
G1 X156.437 Y76.711 E0.01424
G1 X155.991 Y76.797 E0.01424
G1 X155.538 Y76.815 E0.01424
G1 X155.086 Y76.763 E0.01424
G1 X154.648 Y76.642 E0.01424
G1 X154.234 Y76.457 E0.01424
G1 X153.853 Y76.210 E0.01424
G1 X153.513 Y75.907 E0.01424
G1 X153.224 Y75.557 E0.01424
G1 X152.992 Y75.167 E0.01424
G1 X152.822 Y74.745 E0.01424
G1 X152.719 Y74.303 E0.01424
G1 X152.684 Y73.850 E0.01424
G1 X152.719 Y73.397 E0.01424
G1 X152.822 Y72.955 E0.01424
G1 X152.970 Y72.589 E0.01236
G1 X153.320 Y72.730 F10800.000
G1 F1200
G1 X153.534 Y72.361 E0.01339
G1 X153.786 Y72.055 E0.01243
G1 X154.082 Y71.791 E0.01243
G1 X154.414 Y71.576 E0.01243
G1 X154.776 Y71.414 E0.01243
G1 X155.158 Y71.309 E0.01243
G1 X155.540 Y71.264 E0.01206
G1 X155.947 Y71.278 E0.01274
G1 X156.337 Y71.354 E0.01247
G1 X156.710 Y71.488 E0.01243
G1 X157.058 Y71.677 E0.01243
G1 X157.374 Y71.917 E0.01243
G1 X157.648 Y72.203 E0.01243
G1 X157.876 Y72.527 E0.01243
G1 X158.052 Y72.882 E0.01243
G1 X158.172 Y73.260 E0.01243
G1 X158.232 Y73.652 E0.01243
G1 X158.232 Y74.048 E0.01243
G1 X158.172 Y74.440 E0.01243
G1 X158.052 Y74.818 E0.01243
G1 X157.876 Y75.173 E0.01243
G1 X157.648 Y75.497 E0.01243
G1 X157.374 Y75.783 E0.01243
G1 X157.058 Y76.023 E0.01243
G1 X156.710 Y76.212 E0.01243
G1 X156.337 Y76.346 E0.01243
G1 X155.948 Y76.422 E0.01243
G1 X155.552 Y76.437 E0.01243
G1 X155.158 Y76.391 E0.01243
G1 X154.776 Y76.286 E0.01243
G1 X154.414 Y76.124 E0.01243
G1 X154.082 Y75.909 E0.01243
G1 X153.786 Y75.645 E0.01243
G1 X153.534 Y75.339 E0.01243
G1 X153.331 Y74.999 E0.01243
G1 X153.183 Y74.631 E0.01243
G1 X153.093 Y74.245 E0.01243
G1 X153.062 Y73.850 E0.01243
G1 X153.093 Y73.455 E0.01243
G1 X153.183 Y73.069 E0.01243
G1 X153.297 Y72.786 E0.00957
G1 X153.647 Y72.927 F10800.000
G1 F1200
G1 X153.843 Y72.578 E0.01254
G1 X154.058 Y72.317 E0.01061
G1 X154.311 Y72.092 E0.01061
G1 X154.595 Y71.908 E0.01061
G1 X154.904 Y71.770 E0.01061
G1 X155.230 Y71.680 E0.01061
G1 X155.556 Y71.642 E0.01028
G1 X155.904 Y71.654 E0.01093
G1 X156.237 Y71.718 E0.01063
G1 X156.555 Y71.833 E0.01061
G1 X156.853 Y71.994 E0.01061
G1 X157.122 Y72.200 E0.01061
G1 X157.357 Y72.444 E0.01061
G1 X157.551 Y72.720 E0.01061
G1 X157.702 Y73.024 E0.01061
G1 X157.804 Y73.346 E0.01061
G1 X157.855 Y73.681 E0.01061
G1 X157.855 Y74.019 E0.01061
G1 X157.804 Y74.354 E0.01061
G1 X157.702 Y74.676 E0.01061
G1 X157.551 Y74.980 E0.01061
G1 X157.357 Y75.256 E0.01061
G1 X157.122 Y75.500 E0.01061
G1 X156.853 Y75.706 E0.01061
G1 X156.555 Y75.867 E0.01061
G1 X156.237 Y75.982 E0.01061
G1 X155.905 Y76.046 E0.01061
G1 X155.567 Y76.059 E0.01061
G1 X155.230 Y76.020 E0.01061
G1 X154.904 Y75.931 E0.01061
G1 X154.595 Y75.792 E0.01061
G1 X154.311 Y75.608 E0.01061
G1 X154.058 Y75.383 E0.01061
G1 X153.843 Y75.122 E0.01061
G1 X153.670 Y74.831 E0.01061
G1 X153.544 Y74.517 E0.01061
G1 X153.466 Y74.187 E0.01061
G1 X153.441 Y73.850 E0.01061
G1 X153.466 Y73.513 E0.01061
G1 X153.544 Y73.183 E0.01061
G1 X153.624 Y72.982 E0.00678
G1 X153.419 Y72.598 F10800.000
G1 F8640
G1 X153.843 Y72.578 E-0.10610
G1 X154.058 Y72.317 E-0.07815
G1 X154.311 Y72.092 E-0.07815
G1 X154.595 Y71.908 E-0.07814
G1 X154.904 Y71.770 E-0.07815
G1 X155.230 Y71.680 E-0.07815
G1 X155.556 Y71.642 E-0.07567
G1 X155.904 Y71.654 E-0.08048
G1 X156.237 Y71.718 E-0.07827
G1 X156.354 Y71.760 E-0.02875
G1 E-0.04000 F2100.00000
G1 Z0.800 F10800.000
G1 X96.732 Y117.222
G1 Z0.200
G1 E0.80000 F2100.00000
G1 F1200
G1 X97.027 Y117.641 E0.01606
G1 X97.254 Y118.100 E0.01606
G1 X97.408 Y118.588 E0.01606
G1 X97.487 Y119.094 E0.01606
G1 X97.487 Y119.606 E0.01606
G1 X97.408 Y120.112 E0.01606
G1 X97.254 Y120.600 E0.01606
G1 X97.027 Y121.059 E0.01606
G1 X96.732 Y121.478 E0.01606
G1 X96.377 Y121.847 E0.01606
G1 X95.969 Y122.158 E0.01606
G1 X95.531 Y122.396 E0.01563
G1 X95.041 Y122.575 E0.01637
G1 X94.535 Y122.673 E0.01616
G1 X94.023 Y122.693 E0.01606
G1 X93.514 Y122.634 E0.01606
G1 X93.020 Y122.498 E0.01606
G1 X92.553 Y122.289 E0.01606
G1 X92.123 Y122.010 E0.01606
G1 X91.741 Y121.670 E0.01606
G1 X91.415 Y121.275 E0.01606
G1 X91.153 Y120.834 E0.01606
G1 X90.962 Y120.359 E0.01606
G1 X90.845 Y119.861 E0.01606
G1 X90.806 Y119.350 E0.01606
G1 X90.845 Y118.839 E0.01606
G1 X90.962 Y118.341 E0.01606
G1 X91.153 Y117.866 E0.01606
G1 X91.415 Y117.425 E0.01606
G1 X91.741 Y117.030 E0.01606
G1 X92.123 Y116.690 E0.01606
G1 X92.553 Y116.411 E0.01606
G1 X93.020 Y116.202 E0.01606
G1 X93.514 Y116.066 E0.01606
G1 X94.010 Y116.009 E0.01563
G1 X94.532 Y116.026 E0.01637
G1 X95.038 Y116.124 E0.01616
G1 X95.520 Y116.298 E0.01606
G1 X95.969 Y116.542 E0.01606
G1 X96.377 Y116.853 E0.01606
G1 X96.690 Y117.178 E0.01418
G1 X96.419 Y117.440 F10800.000
G1 F1200
G1 X96.702 Y117.834 E0.01521
G1 X96.903 Y118.241 E0.01424
G1 X97.040 Y118.674 E0.01424
G1 X97.109 Y119.123 E0.01424
G1 X97.109 Y119.577 E0.01424
G1 X97.040 Y120.026 E0.01424
G1 X96.903 Y120.459 E0.01424
G1 X96.702 Y120.866 E0.01424
G1 X96.440 Y121.238 E0.01424
G1 X96.125 Y121.565 E0.01424
G1 X95.764 Y121.840 E0.01424
G1 X95.376 Y122.051 E0.01385
G1 X94.940 Y122.210 E0.01456
G1 X94.491 Y122.297 E0.01432
G1 X94.038 Y122.315 E0.01424
G1 X93.586 Y122.263 E0.01424
G1 X93.148 Y122.142 E0.01424
G1 X92.734 Y121.957 E0.01424
G1 X92.352 Y121.710 E0.01424
G1 X92.013 Y121.407 E0.01424
G1 X91.724 Y121.057 E0.01424
G1 X91.492 Y120.667 E0.01424
G1 X91.322 Y120.245 E0.01424
G1 X91.219 Y119.803 E0.01424
G1 X91.184 Y119.350 E0.01424
G1 X91.219 Y118.897 E0.01424
G1 X91.322 Y118.455 E0.01424
G1 X91.492 Y118.033 E0.01424
G1 X91.724 Y117.643 E0.01424
G1 X92.013 Y117.293 E0.01424
G1 X92.352 Y116.990 E0.01424
G1 X92.734 Y116.743 E0.01424
G1 X93.148 Y116.558 E0.01424
G1 X93.586 Y116.437 E0.01424
G1 X94.025 Y116.387 E0.01385
G1 X94.489 Y116.402 E0.01456
G1 X94.937 Y116.489 E0.01432
G1 X95.365 Y116.643 E0.01424
G1 X95.764 Y116.860 E0.01424
G1 X96.125 Y117.135 E0.01424
G1 X96.377 Y117.397 E0.01139
G1 X96.105 Y117.658 F10800.000
G1 F1200
G1 X96.376 Y118.027 E0.01435
G1 X96.552 Y118.382 E0.01243
G1 X96.672 Y118.760 E0.01243
G1 X96.732 Y119.152 E0.01243
G1 X96.732 Y119.548 E0.01243
G1 X96.672 Y119.940 E0.01243
G1 X96.552 Y120.318 E0.01243
G1 X96.376 Y120.673 E0.01243
G1 X96.148 Y120.997 E0.01243
G1 X95.874 Y121.283 E0.01243
G1 X95.558 Y121.523 E0.01243
G1 X95.220 Y121.707 E0.01206
G1 X94.839 Y121.846 E0.01274
G1 X94.448 Y121.922 E0.01247
G1 X94.052 Y121.937 E0.01243
G1 X93.658 Y121.891 E0.01243
G1 X93.276 Y121.786 E0.01243
G1 X92.914 Y121.624 E0.01243
G1 X92.582 Y121.409 E0.01243
G1 X92.286 Y121.145 E0.01243
G1 X92.034 Y120.839 E0.01243
G1 X91.831 Y120.499 E0.01243
G1 X91.683 Y120.131 E0.01243
G1 X91.593 Y119.745 E0.01243
G1 X91.562 Y119.350 E0.01243
G1 X91.593 Y118.955 E0.01243
G1 X91.683 Y118.569 E0.01243
G1 X91.831 Y118.201 E0.01243
G1 X92.034 Y117.861 E0.01243
G1 X92.286 Y117.555 E0.01243
G1 X92.582 Y117.291 E0.01243
G1 X92.914 Y117.076 E0.01243
G1 X93.276 Y116.914 E0.01243
G1 X93.658 Y116.809 E0.01243
G1 X94.040 Y116.764 E0.01206
G1 X94.447 Y116.778 E0.01274
G1 X94.837 Y116.854 E0.01247
G1 X95.210 Y116.988 E0.01243
G1 X95.558 Y117.177 E0.01243
G1 X95.874 Y117.417 E0.01243
G1 X96.064 Y117.615 E0.00860
G1 X95.857 Y117.944 F10800.000
G1 F1200
G1 X96.051 Y118.220 E0.01061
G1 X96.202 Y118.524 E0.01061
G1 X96.304 Y118.846 E0.01061
G1 X96.355 Y119.181 E0.01061
G1 X96.355 Y119.519 E0.01061
G1 X96.304 Y119.854 E0.01061
G1 X96.202 Y120.176 E0.01061
G1 X96.051 Y120.480 E0.01061
G1 X95.857 Y120.756 E0.01061
G1 X95.622 Y121.000 E0.01061
G1 X95.353 Y121.206 E0.01061
G1 X95.065 Y121.362 E0.01028
G1 X94.737 Y121.481 E0.01093
G1 X94.405 Y121.546 E0.01063
G1 X94.067 Y121.559 E0.01061
G1 X93.730 Y121.520 E0.01061
G1 X93.404 Y121.431 E0.01061
G1 X93.095 Y121.292 E0.01061
G1 X92.811 Y121.108 E0.01061
G1 X92.558 Y120.883 E0.01061
G1 X92.343 Y120.622 E0.01061
G1 X92.170 Y120.331 E0.01061
G1 X92.044 Y120.017 E0.01061
G1 X91.966 Y119.687 E0.01061
G1 X91.941 Y119.350 E0.01061
G1 X91.966 Y119.013 E0.01061
G1 X92.044 Y118.683 E0.01061
G1 X92.170 Y118.369 E0.01061
G1 X92.343 Y118.078 E0.01061
G1 X92.558 Y117.817 E0.01061
G1 X92.811 Y117.592 E0.01061
G1 X93.095 Y117.408 E0.01061
G1 X93.404 Y117.269 E0.01061
G1 X93.730 Y117.180 E0.01061
G1 X94.056 Y117.142 E0.01028
G1 X94.404 Y117.154 E0.01093
G1 X94.737 Y117.218 E0.01063
G1 X95.055 Y117.333 E0.01061
G1 X95.353 Y117.494 E0.01061
G1 X95.622 Y117.700 E0.01061
G1 X95.815 Y117.900 E0.00873
G1 X96.190 Y117.888 F10800.000
G1 F8640
G1 X96.051 Y118.220 E-0.09186
G1 X96.202 Y118.524 E-0.07815
G1 X96.304 Y118.846 E-0.07815
G1 X96.355 Y119.181 E-0.07815
G1 X96.355 Y119.519 E-0.07815
G1 X96.304 Y119.854 E-0.07815
G1 X96.202 Y120.176 E-0.07815
G1 X96.051 Y120.480 E-0.07815
G1 X95.857 Y120.756 E-0.07815
G1 X95.728 Y120.891 E-0.04296
G1 E-0.04000 F2100.00000
G1 Z0.800 F10800.000
G1 X138.465 Y122.244
G1 Z0.200
G1 E0.80000 F2100.00000
G1 F1200
G1 X138.568 Y121.662 E0.01851
G1 X138.744 Y121.067 E0.01946
G1 X138.985 Y120.507 E0.01914
G1 X139.280 Y119.995 E0.01851
G1 X139.649 Y119.496 E0.01946
G1 X140.068 Y119.052 E0.01914
G1 X140.533 Y118.662 E0.01904
G1 X141.041 Y118.328 E0.01904
G1 X141.583 Y118.056 E0.01904
G1 X142.154 Y117.848 E0.01904
G1 X142.745 Y117.708 E0.01904
G1 X143.348 Y117.638 E0.01904
G1 X143.955 Y117.638 E0.01904
G1 X144.558 Y117.708 E0.01904
G1 X145.149 Y117.848 E0.01904
G1 X145.719 Y118.056 E0.01904
G1 X146.247 Y118.321 E0.01851
G1 X146.767 Y118.660 E0.01946
G1 X147.234 Y119.052 E0.01914
G1 X147.651 Y119.494 E0.01904
G1 X148.013 Y119.981 E0.01904
G1 X148.317 Y120.507 E0.01904
G1 X148.558 Y121.064 E0.01904
G1 X148.732 Y121.646 E0.01904
G1 X148.837 Y122.244 E0.01904
G1 X148.872 Y122.850 E0.01904
G1 X148.837 Y123.456 E0.01904
G1 X148.732 Y124.054 E0.01904
G1 X148.558 Y124.636 E0.01904
G1 X148.317 Y125.193 E0.01904
G1 X148.013 Y125.719 E0.01904
G1 X147.651 Y126.206 E0.01904
G1 X147.234 Y126.648 E0.01904
G1 X146.769 Y127.038 E0.01904
G1 X146.262 Y127.372 E0.01904
G1 X145.719 Y127.644 E0.01904
G1 X145.149 Y127.852 E0.01904
G1 X144.558 Y127.992 E0.01904
G1 X143.955 Y128.062 E0.01904
G1 X143.348 Y128.062 E0.01904
G1 X142.745 Y127.992 E0.01904
G1 X142.154 Y127.852 E0.01904
G1 X141.583 Y127.644 E0.01904
G1 X141.041 Y127.372 E0.01904
G1 X140.533 Y127.038 E0.01904
G1 X140.068 Y126.648 E0.01904
G1 X139.651 Y126.206 E0.01904
G1 X139.289 Y125.719 E0.01904
G1 X138.985 Y125.193 E0.01904
G1 X138.745 Y124.636 E0.01904
G1 X138.571 Y124.054 E0.01904
G1 X138.465 Y123.456 E0.01904
G1 X138.430 Y122.850 E0.01904
G1 X138.462 Y122.304 E0.01716
G1 X138.838 Y122.326 F10800.000
G1 F1200
G1 X138.935 Y121.749 E0.01834
G1 X139.099 Y121.196 E0.01808
G1 X139.323 Y120.676 E0.01774
G1 X139.596 Y120.202 E0.01716
G1 X139.939 Y119.738 E0.01808
G1 X140.327 Y119.327 E0.01774
G1 X140.759 Y118.965 E0.01766
G1 X141.229 Y118.655 E0.01766
G1 X141.733 Y118.403 E0.01766
G1 X142.262 Y118.210 E0.01766
G1 X142.810 Y118.080 E0.01766
G1 X143.370 Y118.015 E0.01766
G1 X143.933 Y118.015 E0.01766
G1 X144.492 Y118.080 E0.01766
G1 X145.040 Y118.210 E0.01766
G1 X145.570 Y118.403 E0.01766
G1 X146.059 Y118.648 E0.01716
G1 X146.542 Y118.963 E0.01808
G1 X146.975 Y119.327 E0.01774
G1 X147.361 Y119.737 E0.01766
G1 X147.698 Y120.188 E0.01766
G1 X147.979 Y120.676 E0.01766
G1 X148.203 Y121.193 E0.01766
G1 X148.364 Y121.733 E0.01766
G1 X148.462 Y122.288 E0.01766
G1 X148.495 Y122.850 E0.01766
G1 X148.462 Y123.412 E0.01766
G1 X148.364 Y123.967 E0.01766
G1 X148.203 Y124.507 E0.01766
G1 X147.979 Y125.024 E0.01766
G1 X147.698 Y125.512 E0.01766
G1 X147.361 Y125.963 E0.01766
G1 X146.975 Y126.373 E0.01766
G1 X146.544 Y126.735 E0.01766
G1 X146.073 Y127.045 E0.01766
G1 X145.570 Y127.297 E0.01766
G1 X145.040 Y127.490 E0.01766
G1 X144.492 Y127.620 E0.01766
G1 X143.933 Y127.685 E0.01766
G1 X143.370 Y127.685 E0.01766
G1 X142.810 Y127.620 E0.01766
G1 X142.262 Y127.490 E0.01766
G1 X141.733 Y127.297 E0.01766
G1 X141.229 Y127.045 E0.01766
G1 X140.759 Y126.735 E0.01766
G1 X140.327 Y126.373 E0.01766
G1 X139.941 Y125.963 E0.01766
G1 X139.604 Y125.512 E0.01766
G1 X139.323 Y125.024 E0.01766
G1 X139.100 Y124.507 E0.01766
G1 X138.938 Y123.967 E0.01766
G1 X138.840 Y123.412 E0.01766
G1 X138.808 Y122.850 E0.01766
G1 X138.835 Y122.386 E0.01459
G1 X139.211 Y122.408 F10800.000
G1 F1200
G1 X139.303 Y121.835 E0.01817
G1 X139.454 Y121.324 E0.01671
G1 X139.660 Y120.846 E0.01634
G1 X139.912 Y120.409 E0.01580
G1 X140.229 Y119.981 E0.01671
G1 X140.587 Y119.602 E0.01634
G1 X140.984 Y119.268 E0.01628
G1 X141.418 Y118.983 E0.01628
G1 X141.882 Y118.749 E0.01628
G1 X142.370 Y118.572 E0.01628
G1 X142.876 Y118.452 E0.01628
G1 X143.392 Y118.392 E0.01628
G1 X143.911 Y118.392 E0.01628
G1 X144.427 Y118.452 E0.01628
G1 X144.932 Y118.572 E0.01628
G1 X145.420 Y118.749 E0.01628
G1 X145.870 Y118.976 E0.01580
G1 X146.317 Y119.267 E0.01671
G1 X146.716 Y119.602 E0.01634
G1 X147.072 Y119.979 E0.01628
G1 X147.382 Y120.396 E0.01628
G1 X147.642 Y120.846 E0.01628
G1 X147.848 Y121.323 E0.01628
G1 X147.997 Y121.820 E0.01628
G1 X148.087 Y122.332 E0.01628
G1 X148.117 Y122.850 E0.01628
G1 X148.087 Y123.368 E0.01628
G1 X147.997 Y123.880 E0.01628
G1 X147.848 Y124.377 E0.01628
G1 X147.642 Y124.854 E0.01628
G1 X147.382 Y125.304 E0.01628
G1 X147.072 Y125.721 E0.01628
G1 X146.716 Y126.098 E0.01628
G1 X146.318 Y126.432 E0.01628
G1 X145.884 Y126.717 E0.01628
G1 X145.420 Y126.951 E0.01628
G1 X144.932 Y127.128 E0.01628
G1 X144.427 Y127.248 E0.01628
G1 X143.911 Y127.308 E0.01628
G1 X143.392 Y127.308 E0.01628
G1 X142.876 Y127.248 E0.01628
G1 X142.370 Y127.128 E0.01628
G1 X141.882 Y126.951 E0.01628
G1 X141.418 Y126.717 E0.01628
G1 X140.984 Y126.432 E0.01628
G1 X140.587 Y126.098 E0.01628
G1 X140.230 Y125.721 E0.01628
G1 X139.920 Y125.304 E0.01628
G1 X139.660 Y124.854 E0.01628
G1 X139.455 Y124.377 E0.01628
G1 X139.306 Y123.880 E0.01628
G1 X139.216 Y123.368 E0.01628
G1 X139.185 Y122.850 E0.01628
G1 X139.208 Y122.467 E0.01202
G1 X139.584 Y122.489 F10800.000
G1 F1200
G1 X139.671 Y121.922 E0.01800
G1 X139.809 Y121.453 E0.01533
G1 X139.998 Y121.015 E0.01494
G1 X140.228 Y120.616 E0.01445
G1 X140.519 Y120.223 E0.01533
