; generated by PrusaSlicer 2.0.0+win64 on 2020-06-06 at 15:21:11

; 

; external perimeters extrusion width = 0.60mm
; perimeters extrusion width = 0.50mm
; infill extrusion width = 0.50mm
; solid infill extrusion width = 0.50mm
; top infill extrusion width = 0.45mm
; first layer extrusion width = 0.42mm

M73 P0 R31
M73 Q0 S31
M201 X1000 Y1000 Z1000 E5000 ; sets maximum accelerations, mm/sec^2
M203 X200 Y200 Z12 E120 ; sets maximum feedrates, mm/sec
M204 P1250 R1250 T1250 ; sets acceleration (P, T) and retract acceleration (R), mm/sec^2
M205 X8.00 Y8.00 Z0.40 E1.50 ; sets the jerk limits, mm/sec
M205 S0 T0 ; sets the minimum extruding and travel feed rate, mm/sec
M107
M115 U3.8.0 ; tell printer latest fw version
G90 ; use absolute coordinates
M83 ; extruder relative mode
M104 S215 ; set extruder temp
M140 S67 ; set bed temp
M190 S67 ; wait for bed temp
M109 S215 ; wait for extruder temp
G28 W ; home all without mesh bed level
G80 ; mesh bed leveling
G1 Y-3.0 F1000.0 ; go outside print area
G92 E0.0
G1 X60.0 E9.0 F1000.0 ; intro line
M73 Q0 S31
M73 P0 R31
G1 X100.0 E12.5 F1000.0 ; intro line
G92 E0.0
M221 S95
M900 K30 ; Filament gcode
G21 ; set units to millimeters
G90 ; use absolute coordinates
M83 ; use relative distances for extrusion
;BEFORE_LAYER_CHANGE
G92 E0.0
;0.2


G1 E-0.80000 F2100.00000
G1 Z0.600 F10800.000
;AFTER_LAYER_CHANGE
;0.2
G1 X103.358 Y79.206
G1 Z0.200
G1 E0.80000 F2100.00000
M204 S1000
G1 F1200
G1 X103.690 Y78.961 E0.01293
G1 X103.939 Y78.860 E0.00841
G1 X104.340 Y78.808 E0.01268
G1 X104.775 Y78.899 E0.01394
G1 X105.128 Y79.116 E0.01299
G1 X105.314 Y79.311 E0.00844
G1 X105.515 Y79.671 E0.01293
G1 X105.589 Y80.102 E0.01373
G1 X105.515 Y80.534 E0.01373
G1 X105.302 Y80.916 E0.01373
G1 X104.992 Y81.189 E0.01293
G1 X104.752 Y81.310 E0.00844
G1 X104.349 Y81.397 E0.01293
G1 X103.914 Y81.341 E0.01373
G1 X103.546 Y81.156 E0.01293
G1 X103.344 Y80.978 E0.00844
G1 X103.113 Y80.636 E0.01293
G1 X103.009 Y80.237 E0.01293
G1 X103.009 Y79.968 E0.00844
G1 X103.113 Y79.569 E0.01293
G1 X103.325 Y79.256 E0.01185
G1 X103.875 Y79.292 F10800.000
G1 F1200
G1 X104.035 Y79.228 E0.00540
G1 X104.325 Y79.190 E0.00917
G1 X104.633 Y79.255 E0.00987
G1 X104.889 Y79.412 E0.00941
G1 X105.008 Y79.537 E0.00541
G1 X105.155 Y79.798 E0.00939
G1 X105.207 Y80.102 E0.00968
G1 X105.155 Y80.407 E0.00968
G1 X105.004 Y80.676 E0.00968
G1 X104.779 Y80.874 E0.00939
G1 X104.625 Y80.951 E0.00541
G1 X104.332 Y81.015 E0.00939
G1 X104.026 Y80.975 E0.00968
G1 X103.759 Y80.841 E0.00939
G1 X103.629 Y80.727 E0.00541
G1 X103.462 Y80.478 E0.00939
G1 X103.386 Y80.189 E0.00939
G1 X103.386 Y80.016 E0.00541
G1 X103.462 Y79.726 E0.00939
G1 X103.634 Y79.471 E0.00968
G1 X103.827 Y79.328 E0.00751
G1 X103.875 Y79.120 F10800.000
G1 F8640
G1 X104.035 Y79.228 E-0.05330
G1 X104.325 Y79.190 E-0.06756
G1 X104.633 Y79.255 E-0.07272
G1 X104.889 Y79.412 E-0.06932
G1 X105.008 Y79.537 E-0.03984
G1 X105.155 Y79.798 E-0.06915
G1 X105.207 Y80.102 E-0.07126
G1 X105.155 Y80.407 E-0.07126
G1 X105.004 Y80.676 E-0.07126
G1 X104.779 Y80.874 E-0.06916
G1 X104.625 Y80.951 E-0.03983
G1 X104.348 Y81.011 E-0.06535
G1 E-0.04000 F2100.00000
G1 Z0.800 F10800.000
G1 X141.562 Y89.665
G1 Z0.200
G1 E0.80000 F2100.00000
G1 F1200
G1 X141.732 Y89.106 E0.01833
G1 X142.015 Y88.628 E0.01742
G1 X142.243 Y88.363 E0.01096
G1 X142.652 Y88.031 E0.01651
G1 X142.958 Y87.862 E0.01096
G1 X143.484 Y87.685 E0.01740
G1 X144.029 Y87.635 E0.01715
G1 X144.384 Y87.665 E0.01119
G1 X144.922 Y87.813 E0.01749
G1 X145.409 Y88.081 E0.01742
G1 X145.680 Y88.301 E0.01096
G1 X146.024 Y88.700 E0.01652
G1 X146.202 Y89.001 E0.01096
G1 X146.395 Y89.522 E0.01742
G1 X146.465 Y90.102 E0.01833
G1 X146.395 Y90.683 E0.01833
G1 X146.202 Y91.204 E0.01742
G1 X146.024 Y91.505 E0.01096
G1 X145.680 Y91.904 E0.01651
G1 X145.409 Y92.124 E0.01096
G1 X144.923 Y92.392 E0.01740
G1 X144.395 Y92.537 E0.01714
G1 X144.040 Y92.570 E0.01119
G1 X143.485 Y92.520 E0.01749
G1 X142.958 Y92.342 E0.01742
G1 X142.652 Y92.174 E0.01096
G1 X142.243 Y91.842 E0.01651
G1 X142.015 Y91.577 E0.01096
G1 X141.733 Y91.099 E0.01740
G1 X141.572 Y90.576 E0.01714
G1 X141.529 Y90.222 E0.01119
G1 X141.558 Y89.725 E0.01561
G1 X141.934 Y89.747 F10800.000
G1 F1200
G1 X142.080 Y89.259 E0.01597
G1 X142.322 Y88.849 E0.01496
G1 X142.507 Y88.635 E0.00885
G1 X142.864 Y88.345 E0.01441
G1 X143.111 Y88.209 E0.00885
G1 X143.563 Y88.056 E0.01495
G1 X144.030 Y88.014 E0.01471
G1 X144.318 Y88.038 E0.00907
G1 X144.780 Y88.164 E0.01500
G1 X145.197 Y88.395 E0.01496
G1 X145.417 Y88.573 E0.00885
G1 X145.717 Y88.921 E0.01441
G1 X145.860 Y89.164 E0.00885
G1 X146.026 Y89.611 E0.01496
G1 X146.085 Y90.102 E0.01551
G1 X146.026 Y90.594 E0.01551
G1 X145.860 Y91.041 E0.01496
G1 X145.717 Y91.284 E0.00885
G1 X145.417 Y91.632 E0.01441
G1 X145.197 Y91.810 E0.00885
G1 X144.780 Y92.040 E0.01495
G1 X144.327 Y92.164 E0.01471
G1 X144.039 Y92.191 E0.00907
G1 X143.563 Y92.149 E0.01500
G1 X143.111 Y91.996 E0.01496
G1 X142.864 Y91.860 E0.00885
G1 X142.507 Y91.570 E0.01441
G1 X142.322 Y91.356 E0.00885
G1 X142.080 Y90.946 E0.01495
G1 X141.942 Y90.497 E0.01471
G1 X141.907 Y90.210 E0.00907
G1 X141.931 Y89.807 E0.01264
G1 X142.309 Y89.800 F10800.000
G1 F1200
G1 X142.427 Y89.412 E0.01269
G1 X142.630 Y89.069 E0.01250
G1 X142.770 Y88.906 E0.00675
G1 X143.075 Y88.659 E0.01230
G1 X143.264 Y88.555 E0.00675
G1 X143.641 Y88.428 E0.01249
G1 X144.031 Y88.392 E0.01227
G1 X144.252 Y88.411 E0.00696
G1 X144.637 Y88.516 E0.01251
G1 X144.986 Y88.709 E0.01250
G1 X145.153 Y88.844 E0.00675
G1 X145.409 Y89.141 E0.01230
G1 X145.518 Y89.327 E0.00675
G1 X145.657 Y89.700 E0.01250
G1 X145.705 Y90.102 E0.01269
G1 X145.657 Y90.504 E0.01269
G1 X145.518 Y90.878 E0.01250
G1 X145.409 Y91.063 E0.00675
G1 X145.153 Y91.360 E0.01230
G1 X144.986 Y91.496 E0.00675
G1 X144.637 Y91.688 E0.01249
G1 X144.259 Y91.792 E0.01227
G1 X144.039 Y91.813 E0.00696
G1 X143.641 Y91.777 E0.01251
G1 X143.264 Y91.649 E0.01250
G1 X143.075 Y91.546 E0.00675
G1 X142.770 Y91.298 E0.01230
G1 X142.630 Y91.135 E0.00675
G1 X142.427 Y90.792 E0.01249
G1 X142.313 Y90.418 E0.01227
G1 X142.285 Y90.198 E0.00696
G1 X142.306 Y89.859 E0.01063
G1 X142.008 Y89.536 F10800.000
G1 F8640
G1 X142.427 Y89.412 E-0.10699
G1 X142.630 Y89.069 E-0.09203
G1 X142.770 Y88.906 E-0.04968
G1 X143.075 Y88.659 E-0.09057
G1 X143.264 Y88.555 E-0.04968
G1 X143.641 Y88.428 E-0.09200
G1 X144.031 Y88.392 E-0.09038
G1 X144.252 Y88.411 E-0.05125
G1 X144.637 Y88.516 E-0.09213
G1 X144.809 Y88.611 E-0.04528
G1 E-0.04000 F2100.00000
G1 Z0.800 F10800.000
G1 X107.737 Y98.916
G1 Z0.200
G1 E0.80000 F2100.00000
G1 F1200
G1 X107.854 Y99.602 E0.02184
G1 X107.737 Y100.289 E0.02184
G1 X107.397 Y100.897 E0.02184
G1 X106.874 Y101.357 E0.02184
G1 X106.282 Y101.595 E0.02002
G1 X105.880 Y101.647 E0.01269
G1 X105.478 Y101.629 E0.01264
G1 X104.877 Y101.447 E0.01968
G1 X104.308 Y101.032 E0.02208
G1 X103.916 Y100.451 E0.02198
G1 X103.740 Y99.777 E0.02184
G1 X103.799 Y99.083 E0.02184
G1 X104.062 Y98.501 E0.02001
G1 X104.353 Y98.142 E0.01450
G1 X104.819 Y97.797 E0.01819
G1 X105.246 Y97.625 E0.01444
G1 X105.869 Y97.544 E0.01968
G1 X106.558 Y97.688 E0.02208
G1 X107.106 Y98.025 E0.02015
G1 X107.425 Y98.358 E0.01449
G1 X107.707 Y98.863 E0.01814
G1 X107.376 Y99.043 F10800.000
G1 F1200
G1 X107.472 Y99.602 E0.01778
G1 X107.376 Y100.161 E0.01778
G1 X107.099 Y100.657 E0.01779
G1 X106.674 Y101.031 E0.01779
G1 X106.186 Y101.227 E0.01647
G1 X105.864 Y101.268 E0.01017
G1 X105.542 Y101.255 E0.01013
G1 X105.048 Y101.105 E0.01618
G1 X104.584 Y100.766 E0.01801
G1 X104.264 Y100.294 E0.01789
G1 X104.121 Y99.745 E0.01779
G1 X104.170 Y99.179 E0.01779
G1 X104.386 Y98.701 E0.01647
G1 X104.616 Y98.416 E0.01147
G1 X105.004 Y98.129 E0.01516
G1 X105.343 Y97.993 E0.01143
G1 X105.854 Y97.926 E0.01618
G1 X106.417 Y98.043 E0.01801
G1 X106.867 Y98.321 E0.01657
G1 X107.120 Y98.585 E0.01146
G1 X107.347 Y98.991 E0.01459
G1 X107.015 Y99.171 F10800.000
G1 F1200
G1 X107.089 Y99.602 E0.01373
G1 X107.015 Y100.034 E0.01373
G1 X106.802 Y100.416 E0.01373
G1 X106.473 Y100.706 E0.01373
G1 X106.090 Y100.859 E0.01293
G1 X105.848 Y100.890 E0.00765
G1 X105.605 Y100.880 E0.00762
G1 X105.219 Y100.763 E0.01268
G1 X104.859 Y100.500 E0.01394
G1 X104.613 Y100.136 E0.01379
G1 X104.503 Y99.712 E0.01373
G1 X104.540 Y99.276 E0.01373
G1 X104.710 Y98.900 E0.01293
G1 X104.879 Y98.691 E0.00844
G1 X105.190 Y98.461 E0.01213
G1 X105.439 Y98.361 E0.00841
G1 X105.840 Y98.308 E0.01268
G1 X106.275 Y98.399 E0.01394
G1 X106.628 Y98.616 E0.01299
G1 X106.814 Y98.811 E0.00844
G1 X106.986 Y99.118 E0.01105
G1 X106.508 Y99.037 F10800.000
G1 F1200
G1 X106.655 Y99.298 E0.00939
G1 X106.707 Y99.602 E0.00968
G1 X106.655 Y99.907 E0.00968
G1 X106.504 Y100.176 E0.00968
G1 X106.272 Y100.380 E0.00968
G1 X105.994 Y100.492 E0.00939
G1 X105.832 Y100.512 E0.00513
G1 X105.669 Y100.505 E0.00512
G1 X105.389 Y100.420 E0.00917
G1 X105.135 Y100.235 E0.00987
G1 X104.962 Y99.978 E0.00970
G1 X104.884 Y99.680 E0.00968
G1 X104.910 Y99.372 E0.00968
G1 X105.033 Y99.099 E0.00939
G1 X105.142 Y98.965 E0.00541
G1 X105.375 Y98.792 E0.00911
G1 X105.535 Y98.728 E0.00540
G1 X105.825 Y98.690 E0.00917
G1 X106.133 Y98.755 E0.00987
G1 X106.389 Y98.912 E0.00941
G1 X106.467 Y98.993 E0.00353
G1 X106.806 Y98.999 F10800.000
G1 F8640
G1 X106.655 Y99.298 E-0.08264
G1 X106.707 Y99.602 E-0.07126
G1 X106.655 Y99.907 E-0.07126
G1 X106.504 Y100.176 E-0.07126
G1 X106.272 Y100.380 E-0.07126
G1 X105.994 Y100.492 E-0.06916
G1 X105.832 Y100.512 E-0.03775
G1 X105.669 Y100.505 E-0.03769
G1 X105.389 Y100.420 E-0.06756
G1 X105.135 Y100.235 E-0.07272
G1 X104.962 Y99.978 E-0.07142
G1 X104.922 Y99.827 E-0.03602
G1 E-0.04000 F2100.00000
G1 Z0.800 F10800.000
G1 X107.952 Y95.444
G1 Z0.200
G1 E0.80000 F2100.00000
G1 F1200
G1 X107.952 Y80.761 E0.46036
G1 X133.550 Y80.761 E0.80260
G1 X133.954 Y81.201 E0.01873
G1 X134.302 Y80.679 E0.01969
G1 X134.819 Y80.297 E0.02015
G1 X135.246 Y80.125 E0.01444
G1 X135.869 Y80.044 E0.01968
G1 X136.558 Y80.188 E0.02208
G1 X137.155 Y80.555 E0.02198
G1 X137.556 Y81.052 E0.02001
G1 X137.747 Y81.473 E0.01449
G1 X137.854 Y82.102 E0.02002
G1 X137.747 Y82.732 E0.02002
G1 X137.557 Y83.151 E0.01444
G1 X137.164 Y83.640 E0.01968
G1 X136.537 Y84.020 E0.02295
G1 X136.635 Y84.126 E0.00452
G1 X136.635 Y97.235 E0.41102
G1 X137.106 Y97.525 E0.01733
G1 X137.425 Y97.858 E0.01449
G1 X137.737 Y98.416 E0.02001
G1 X137.854 Y99.102 E0.02184
G1 X137.737 Y99.789 E0.02184
G1 X137.397 Y100.397 E0.02184
G1 X136.874 Y100.857 E0.02184
G1 X136.282 Y101.095 E0.02002
G1 X135.823 Y101.154 E0.01449
G1 X135.190 Y101.073 E0.02001
G1 X134.620 Y100.785 E0.02001
G1 X134.273 Y100.480 E0.01449
G1 X133.916 Y99.951 E0.02001
G1 X133.755 Y99.333 E0.02001
G1 X133.755 Y98.873 E0.01444
G1 X133.866 Y98.444 E0.01390
G1 X131.635 Y98.444 E0.06994
G1 X131.635 Y99.444 E0.03135
G1 X110.952 Y99.444 E0.64848
G1 X110.952 Y95.444 E0.12542
G1 X108.012 Y95.444 E0.09218
G1 X108.329 Y95.066 F10800.000
G1 F1200
G1 X108.329 Y81.138 E0.43671
G1 X133.384 Y81.138 E0.78558
G1 X134.132 Y81.954 E0.03469
G1 X134.261 Y81.421 E0.01718
G1 X134.579 Y80.943 E0.01801
G1 X135.004 Y80.629 E0.01657
G1 X135.343 Y80.493 E0.01143
G1 X135.854 Y80.426 E0.01618
G1 X136.417 Y80.543 E0.01801
G1 X136.902 Y80.843 E0.01789
G1 X137.232 Y81.251 E0.01647
G1 X137.383 Y81.584 E0.01146
G1 X137.472 Y82.102 E0.01647
G1 X137.383 Y82.620 E0.01647
G1 X137.233 Y82.952 E0.01143
G1 X136.910 Y83.354 E0.01618
G1 X136.423 Y83.659 E0.01801
G1 X135.865 Y83.779 E0.01789
G1 X135.797 Y83.770 E0.00214
G1 X136.258 Y84.273 E0.02137
G1 X136.258 Y97.510 E0.41505
G1 X136.417 Y97.543 E0.00509
G1 X136.867 Y97.821 E0.01657
G1 X137.120 Y98.085 E0.01146
G1 X137.376 Y98.543 E0.01647
G1 X137.472 Y99.102 E0.01779
G1 X137.376 Y99.661 E0.01779
G1 X137.099 Y100.157 E0.01778
G1 X136.674 Y100.531 E0.01778
G1 X136.186 Y100.727 E0.01647
G1 X135.823 Y100.774 E0.01147
G1 X135.302 Y100.707 E0.01647
G1 X134.833 Y100.470 E0.01647
G1 X134.559 Y100.229 E0.01147
G1 X134.264 Y99.794 E0.01647
G1 X134.132 Y99.285 E0.01647
G1 X134.132 Y98.921 E0.01143
G1 X134.261 Y98.421 E0.01618
G1 X134.497 Y98.066 E0.01336
G1 X131.258 Y98.066 E0.10157
G1 X131.258 Y99.066 E0.03135
G1 X111.329 Y99.066 E0.62484
G1 X111.329 Y95.066 E0.12542
G1 X108.389 Y95.066 E0.09218
G1 F8640
G1 X108.375 Y91.775 E-0.76000
G1 E-0.04000 F2100.00000
G1 Z0.800 F10800.000
G1 X134.610 Y98.577
G1 Z0.200
G1 E0.80000 F2100.00000
G1 F1200
G1 X134.857 Y98.207 E0.01394
G1 X135.190 Y97.961 E0.01299
G1 X135.439 Y97.861 E0.00841
G1 X135.840 Y97.808 E0.01268
G1 X136.275 Y97.899 E0.01394
G1 X136.628 Y98.116 E0.01299
G1 X136.814 Y98.311 E0.00844
G1 X137.015 Y98.671 E0.01293
G1 X137.089 Y99.102 E0.01373
G1 X137.015 Y99.534 E0.01373
G1 X136.802 Y99.916 E0.01373
G1 X136.473 Y100.206 E0.01373
G1 X136.090 Y100.359 E0.01293
G1 X135.823 Y100.394 E0.00844
G1 X135.414 Y100.341 E0.01293
G1 X135.046 Y100.156 E0.01293
G1 X134.844 Y99.978 E0.00844
G1 X134.613 Y99.636 E0.01293
G1 X134.509 Y99.237 E0.01293
G1 X134.509 Y98.968 E0.00842
G1 X134.595 Y98.635 E0.01079
G1 X134.886 Y99.016 F10800.000
G1 F1200
G1 X134.959 Y98.733 E0.00917
G1 X135.134 Y98.471 E0.00987
G1 X135.375 Y98.292 E0.00941
G1 X135.535 Y98.228 E0.00540
G1 X135.825 Y98.190 E0.00917
G1 X136.133 Y98.255 E0.00987
G1 X136.389 Y98.412 E0.00941
G1 X136.508 Y98.537 E0.00541
G1 X136.655 Y98.798 E0.00939
G1 X136.707 Y99.102 E0.00968
G1 X136.655 Y99.407 E0.00968
G1 X136.504 Y99.676 E0.00968
G1 X136.272 Y99.880 E0.00968
G1 X135.994 Y99.992 E0.00939
G1 X135.823 Y100.013 E0.00541
G1 X135.526 Y99.975 E0.00939
G1 X135.259 Y99.841 E0.00939
G1 X135.129 Y99.727 E0.00541
G1 X134.962 Y99.478 E0.00939
G1 X134.886 Y99.189 E0.00939
G1 X134.886 Y99.076 E0.00352
G1 X134.651 Y98.842 F10800.000
G1 F8640
G1 X134.959 Y98.733 E-0.08104
G1 X135.134 Y98.471 E-0.07272
G1 X135.375 Y98.292 E-0.06932
G1 X135.535 Y98.228 E-0.03977
G1 X135.825 Y98.190 E-0.06756
G1 X136.133 Y98.255 E-0.07272
G1 X136.389 Y98.412 E-0.06931
G1 X136.508 Y98.537 E-0.03983
G1 X136.655 Y98.798 E-0.06916
G1 X136.707 Y99.102 E-0.07126
G1 X136.655 Y99.407 E-0.07126
G1 X136.578 Y99.543 E-0.03605
G1 E-0.04000 F2100.00000
G1 Z0.800 F10800.000
G1 X135.849 Y83.397
G1 Z0.200
G1 E0.80000 F2100.00000
G1 F1200
G1 X135.414 Y83.341 E0.01373
G1 X135.046 Y83.155 E0.01293
G1 X134.844 Y82.978 E0.00844
G1 X134.613 Y82.636 E0.01293
G1 X134.509 Y82.237 E0.01293
G1 X134.509 Y81.968 E0.00842
G1 X134.610 Y81.577 E0.01268
G1 X134.857 Y81.207 E0.01394
G1 X135.190 Y80.961 E0.01299
G1 X135.439 Y80.860 E0.00841
G1 X135.840 Y80.808 E0.01268
G1 X136.275 Y80.899 E0.01394
G1 X136.650 Y81.130 E0.01379
G1 X136.909 Y81.451 E0.01293
G1 X137.020 Y81.696 E0.00844
G1 X137.089 Y82.102 E0.01293
G1 X137.020 Y82.509 E0.01293
G1 X136.909 Y82.753 E0.00842
G1 X136.656 Y83.069 E0.01268
G1 X136.279 Y83.304 E0.01394
G1 X135.907 Y83.384 E0.01191
G1 X135.832 Y83.015 F10800.000
G1 F1200
G1 X135.526 Y82.975 E0.00968
G1 X135.259 Y82.841 E0.00939
G1 X135.129 Y82.727 E0.00541
G1 X134.962 Y82.478 E0.00939
G1 X134.886 Y82.189 E0.00939
G1 X134.886 Y82.016 E0.00540
G1 X134.959 Y81.733 E0.00917
G1 X135.134 Y81.471 E0.00987
G1 X135.375 Y81.292 E0.00941
G1 X135.535 Y81.228 E0.00540
G1 X135.825 Y81.190 E0.00917
G1 X136.133 Y81.255 E0.00987
G1 X136.397 Y81.417 E0.00970
G1 X136.585 Y81.650 E0.00939
G1 X136.656 Y81.807 E0.00541
G1 X136.707 Y82.102 E0.00939
G1 X136.656 Y82.398 E0.00939
G1 X136.585 Y82.554 E0.00540
G1 X136.402 Y82.783 E0.00917
G1 X136.135 Y82.949 E0.00987
G1 X135.891 Y83.002 E0.00782
G1 X135.690 Y83.288 F10800.000
G1 F8640
G1 X135.526 Y82.975 E-0.08445
G1 X135.259 Y82.841 E-0.06915
G1 X135.129 Y82.727 E-0.03983
G1 X134.962 Y82.478 E-0.06916
G1 X134.886 Y82.189 E-0.06916
G1 X134.886 Y82.016 E-0.03978
G1 X134.959 Y81.733 E-0.06756
G1 X135.134 Y81.471 E-0.07272
G1 X135.375 Y81.292 E-0.06932
G1 X135.535 Y81.228 E-0.03977
G1 X135.825 Y81.190 E-0.06756
G1 X136.129 Y81.254 E-0.07155
G1 E-0.04000 F2100.00000
G1 Z0.800 F10800.000
G1 X108.707 Y81.515
G1 Z0.200
G1 E0.80000 F2100.00000
G1 F1200
G1 X133.219 Y81.515 E0.76856
G1 X135.881 Y84.419 E0.12353
G1 X135.881 Y97.689 E0.41607
G1 X130.881 Y97.689 E0.15677
G1 X130.881 Y98.689 E0.03135
G1 X111.707 Y98.689 E0.60119
G1 X111.707 Y94.689 E0.12542
