; generated by PrusaSlicer 2.3.1+win64 on 2023-08-23 at 14:39:25 UTC

; 

; external perimeters extrusion width = 0.60mm
; perimeters extrusion width = 0.50mm
; infill extrusion width = 0.50mm
; solid infill extrusion width = 0.50mm
; top infill extrusion width = 0.45mm
; first layer extrusion width = 0.42mm

M73 P0 R138
M73 Q0 S139
M201 X1000 Y1000 Z200 E5000 ; sets maximum accelerations, mm/sec^2
M203 X200 Y200 Z12 E120 ; sets maximum feedrates, mm/sec
M204 P1250 R1250 T1250 ; sets acceleration (P, T) and retract acceleration (R), mm/sec^2
M205 X8.00 Y8.00 Z0.40 E4.50 ; sets the jerk limits, mm/sec
M205 S0 T0 ; sets the minimum extruding and travel feed rate, mm/sec
M107
;TYPE:Custom
M862.3 P "MK3S" ; printer model check
M862.1 P0.4 ; nozzle diameter check
M115 U3.9.3 ; tell printer latest fw version
G90 ; use absolute coordinates
M83 ; extruder relative mode
M104 S205 ; set extruder temp
M140 S67 ; set bed temp
M190 S67 ; wait for bed temp
M109 S205 ; wait for extruder temp
G28 W ; home all without mesh bed level
G80 ; mesh bed leveling
G1 Y-3.0 F1000.0 ; go outside print area
G92 E0.0
G1 X60.0 E9.0 F1000.0 ; intro line
G1 X100.0 E12.5 F1000.0 ; intro line
G92 E0.0
M221 S95

; Don't change E values below. Excessive value can damage the printer.

M907 E538 ; set extruder motor current
G21 ; set units to millimeters
G90 ; use absolute coordinates
M83 ; use relative distances for extrusion
M900 K0.05 ; Filament gcode LA 1.5
M900 K30 ; Filament gcode LA 1.0
;LAYER_CHANGE
;Z:0.2
;HEIGHT:0.2
;BEFORE_LAYER_CHANGE
G92 E0.0
;0.2


G1 E-0.80000 F2100.000
G1 Z0.400 F10800.000
;AFTER_LAYER_CHANGE
;0.2
; printing object back.stl id:0 copy 0
G1 X123.385 Y59.515
G1 Z0.200
G1 E0.80000 F2100.000
M204 S1000
;TYPE:Perimeter
;WIDTH:0.42
G1 F1200.000
G1 X123.662 Y59.120 E0.01513
G1 X124.003 Y58.779 E0.01513
G1 X124.398 Y58.502 E0.01513
G1 X124.836 Y58.298 E0.01513
G1 X125.302 Y58.173 E0.01513
G1 X125.749 Y58.134 E0.01408
G1 X126.257 Y58.171 E0.01596
G1 X126.730 Y58.298 E0.01534
G1 X127.167 Y58.502 E0.01513
G1 X127.562 Y58.779 E0.01513
G1 X127.904 Y59.120 E0.01513
G1 X128.180 Y59.515 E0.01513
G1 X128.384 Y59.953 E0.01513
G1 X128.509 Y60.419 E0.01513
G1 X128.551 Y60.900 E0.01513
G1 X128.509 Y61.380 E0.01513
G1 X128.384 Y61.847 E0.01513
G1 X128.180 Y62.284 E0.01513
G1 X127.904 Y62.679 E0.01513
G1 X127.562 Y63.021 E0.01513
G1 X127.167 Y63.297 E0.01513
G1 X126.730 Y63.501 E0.01513
G1 X126.263 Y63.626 E0.01513
G1 X125.783 Y63.668 E0.01513
G1 X125.302 Y63.626 E0.01513
G1 X124.836 Y63.501 E0.01513
G1 X124.398 Y63.297 E0.01513
G1 X124.003 Y63.021 E0.01513
G1 X123.662 Y62.679 E0.01513
G1 X123.385 Y62.284 E0.01513
G1 X123.181 Y61.847 E0.01513
G1 X123.056 Y61.380 E0.01513
G1 X123.014 Y60.900 E0.01513
G1 X123.056 Y60.419 E0.01513
G1 X123.181 Y59.953 E0.01513
G1 X123.360 Y59.570 E0.01325
G1 X123.701 Y59.729 F10800.000
G1 F1200.000
G1 X123.952 Y59.363 E0.01390
G1 X124.246 Y59.069 E0.01306
G1 X124.588 Y58.830 E0.01306
G1 X124.965 Y58.654 E0.01306
G1 X125.368 Y58.546 E0.01306
G1 X125.752 Y58.512 E0.01210
G1 X126.194 Y58.545 E0.01389
G1 X126.600 Y58.654 E0.01319
G1 X126.978 Y58.830 E0.01306
G1 X127.319 Y59.069 E0.01306
G1 X127.614 Y59.363 E0.01306
G1 X127.853 Y59.705 E0.01306
G1 X128.029 Y60.082 E0.01306
G1 X128.136 Y60.485 E0.01306
G1 X128.173 Y60.900 E0.01306
G1 X128.136 Y61.315 E0.01306
G1 X128.029 Y61.717 E0.01306
G1 X127.853 Y62.095 E0.01306
G1 X127.614 Y62.436 E0.01306
G1 X127.319 Y62.731 E0.01306
G1 X126.978 Y62.970 E0.01306
G1 X126.600 Y63.146 E0.01306
G1 X126.198 Y63.253 E0.01306
G1 X125.783 Y63.290 E0.01306
G1 X125.368 Y63.253 E0.01306
G1 X124.965 Y63.146 E0.01306
G1 X124.588 Y62.970 E0.01306
G1 X124.246 Y62.731 E0.01306
G1 X123.952 Y62.436 E0.01306
G1 X123.713 Y62.095 E0.01306
G1 X123.537 Y61.717 E0.01306
G1 X123.429 Y61.315 E0.01306
G1 X123.393 Y60.900 E0.01306
G1 X123.429 Y60.485 E0.01306
G1 X123.537 Y60.082 E0.01306
G1 X123.676 Y59.784 E0.01033
G1 X124.041 Y59.894 F10800.000
;TYPE:External perimeter
G1 F1200.000
G1 X124.242 Y59.607 E0.01099
G1 X124.490 Y59.359 E0.01099
G1 X124.777 Y59.158 E0.01099
G1 X125.095 Y59.009 E0.01099
G1 X125.433 Y58.919 E0.01099
G1 X125.755 Y58.891 E0.01011
G1 X126.131 Y58.918 E0.01182
G1 X126.471 Y59.009 E0.01104
G1 X126.788 Y59.158 E0.01099
G1 X127.076 Y59.359 E0.01099
G1 X127.324 Y59.607 E0.01099
G1 X127.525 Y59.894 E0.01099
G1 X127.673 Y60.212 E0.01099
G1 X127.764 Y60.550 E0.01099
G1 X127.794 Y60.900 E0.01099
G1 X127.764 Y61.249 E0.01099
G1 X127.673 Y61.588 E0.01099
G1 X127.525 Y61.905 E0.01099
G1 X127.324 Y62.193 E0.01099
G1 X127.076 Y62.441 E0.01099
G1 X126.788 Y62.642 E0.01099
G1 X126.471 Y62.790 E0.01099
G1 X126.132 Y62.881 E0.01099
G1 X125.783 Y62.911 E0.01099
G1 X125.433 Y62.881 E0.01099
G1 X125.095 Y62.790 E0.01099
G1 X124.777 Y62.642 E0.01099
G1 X124.490 Y62.441 E0.01099
G1 X124.242 Y62.193 E0.01099
G1 X124.041 Y61.905 E0.01099
G1 X123.892 Y61.588 E0.01099
G1 X123.802 Y61.249 E0.01099
G1 X123.771 Y60.900 E0.01099
G1 X123.802 Y60.550 E0.01099
G1 X123.892 Y60.212 E0.01099
G1 X124.015 Y59.948 E0.00911
G1 X123.865 Y59.590 F10800.000
;WIPE_START
G1 F8640.000
G1 X124.242 Y59.607 E-0.09464
G1 X124.490 Y59.359 E-0.08096
G1 X124.777 Y59.158 E-0.08096
G1 X125.095 Y59.009 E-0.08096
G1 X125.433 Y58.919 E-0.08096
G1 X125.755 Y58.891 E-0.07444
G1 X126.131 Y58.918 E-0.08706
G1 X126.471 Y59.009 E-0.08130
G1 X126.788 Y59.158 E-0.08096
G1 X126.851 Y59.202 E-0.01774
;WIPE_END
G1 E-0.04000 F2100.000
G1 Z0.600 F10800.000
G1 X198.061 Y20.982
G1 Z0.200
G1 E0.80000 F2100.000
;TYPE:Perimeter
G1 F1200.000
G1 X197.825 Y20.476 E0.01749
G1 X197.683 Y19.946 E0.01720
G1 X197.636 Y19.400 E0.01720
G1 X197.683 Y18.853 E0.01720
G1 X197.825 Y18.323 E0.01720
G1 X198.057 Y17.826 E0.01720
G1 X198.372 Y17.377 E0.01720
G1 X198.760 Y16.989 E0.01720
G1 X199.209 Y16.674 E0.01720
G1 X199.706 Y16.442 E0.01720
G1 X200.236 Y16.300 E0.01720
G1 X200.747 Y16.256 E0.01607
G1 X201.320 Y16.298 E0.01803
G1 X201.859 Y16.442 E0.01749
G1 X202.356 Y16.674 E0.01720
G1 X202.806 Y16.989 E0.01720
G1 X203.194 Y17.377 E0.01720
G1 X203.508 Y17.826 E0.01720
G1 X203.740 Y18.323 E0.01720
G1 X203.882 Y18.853 E0.01720
G1 X203.930 Y19.400 E0.01720
G1 X203.882 Y19.946 E0.01720
G1 X203.740 Y20.476 E0.01720
G1 X203.508 Y20.973 E0.01720
G1 X203.194 Y21.423 E0.01720
G1 X202.806 Y21.811 E0.01720
G1 X202.356 Y22.125 E0.01720
G1 X201.859 Y22.357 E0.01720
G1 X201.364 Y22.490 E0.01607
G1 X200.792 Y22.548 E0.01803
G1 X200.236 Y22.499 E0.01749
G1 X199.706 Y22.357 E0.01720
G1 X199.209 Y22.125 E0.01720
G1 X198.760 Y21.811 E0.01720
G1 X198.397 Y21.448 E0.01607
G1 X198.096 Y21.030 E0.01615
G1 X198.402 Y20.810 F10800.000
G1 F1200.000
G1 X198.181 Y20.347 E0.01609
G1 X198.056 Y19.880 E0.01513
G1 X198.014 Y19.400 E0.01513
G1 X198.056 Y18.919 E0.01513
G1 X198.181 Y18.453 E0.01513
G1 X198.385 Y18.015 E0.01513
G1 X198.662 Y17.620 E0.01513
G1 X199.003 Y17.279 E0.01513
G1 X199.398 Y17.002 E0.01513
G1 X199.836 Y16.798 E0.01513
G1 X200.302 Y16.673 E0.01513
G1 X200.749 Y16.634 E0.01408
G1 X201.257 Y16.671 E0.01596
G1 X201.730 Y16.798 E0.01534
G1 X202.167 Y17.002 E0.01513
G1 X202.562 Y17.279 E0.01513
G1 X202.904 Y17.620 E0.01513
G1 X203.180 Y18.015 E0.01513
G1 X203.384 Y18.453 E0.01513
G1 X203.509 Y18.919 E0.01513
G1 X203.551 Y19.400 E0.01513
G1 X203.509 Y19.880 E0.01513
G1 X203.384 Y20.347 E0.01513
G1 X203.180 Y20.784 E0.01513
G1 X202.904 Y21.179 E0.01513
G1 X202.562 Y21.521 E0.01513
G1 X202.167 Y21.797 E0.01513
G1 X201.730 Y22.001 E0.01513
G1 X201.296 Y22.118 E0.01408
G1 X200.789 Y22.169 E0.01596
G1 X200.302 Y22.126 E0.01534
G1 X199.836 Y22.001 E0.01513
G1 X199.398 Y21.797 E0.01513
G1 X199.003 Y21.521 E0.01513
G1 X198.685 Y21.203 E0.01408
G1 X198.437 Y20.859 E0.01331
G1 X198.715 Y20.598 F10800.000
G1 F1200.000
G1 X198.537 Y20.217 E0.01319
G1 X198.429 Y19.815 E0.01306
G1 X198.393 Y19.400 E0.01306
G1 X198.429 Y18.985 E0.01306
G1 X198.537 Y18.582 E0.01306
G1 X198.713 Y18.205 E0.01306
G1 X198.952 Y17.863 E0.01306
G1 X199.246 Y17.569 E0.01306
G1 X199.588 Y17.330 E0.01306
G1 X199.965 Y17.154 E0.01306
G1 X200.368 Y17.046 E0.01306
G1 X200.752 Y17.012 E0.01210
G1 X201.194 Y17.045 E0.01389
G1 X201.600 Y17.154 E0.01319
G1 X201.978 Y17.330 E0.01306
G1 X202.319 Y17.569 E0.01306
G1 X202.614 Y17.863 E0.01306
G1 X202.853 Y18.205 E0.01306
G1 X203.029 Y18.582 E0.01306
G1 X203.136 Y18.985 E0.01306
G1 X203.173 Y19.400 E0.01306
G1 X203.136 Y19.815 E0.01306
G1 X203.029 Y20.217 E0.01306
G1 X202.853 Y20.595 E0.01306
G1 X202.614 Y20.936 E0.01306
G1 X202.319 Y21.231 E0.01306
G1 X201.978 Y21.470 E0.01306
G1 X201.600 Y21.646 E0.01306
G1 X201.227 Y21.745 E0.01210
G1 X200.787 Y21.790 E0.01389
G1 X200.368 Y21.753 E0.01319
G1 X199.965 Y21.646 E0.01306
G1 X199.588 Y21.470 E0.01306
G1 X199.246 Y21.231 E0.01306
G1 X198.974 Y20.958 E0.01210
G1 X198.750 Y20.647 E0.01201
G1 X199.056 Y20.427 F10800.000
;TYPE:External perimeter
G1 F1200.000
G1 X198.892 Y20.088 E0.01179
G1 X198.802 Y19.749 E0.01099
G1 X198.771 Y19.400 E0.01099
G1 X198.802 Y19.050 E0.01099
G1 X198.892 Y18.712 E0.01099
G1 X199.041 Y18.394 E0.01099
G1 X199.242 Y18.107 E0.01099
G1 X199.490 Y17.859 E0.01099
G1 X199.777 Y17.658 E0.01099
G1 X200.095 Y17.509 E0.01099
G1 X200.433 Y17.419 E0.01099
G1 X200.755 Y17.391 E0.01011
G1 X201.131 Y17.418 E0.01182
G1 X201.471 Y17.509 E0.01104
G1 X201.788 Y17.658 E0.01099
G1 X202.076 Y17.859 E0.01099
G1 X202.324 Y18.107 E0.01099
G1 X202.525 Y18.394 E0.01099
G1 X202.673 Y18.712 E0.01099
G1 X202.764 Y19.050 E0.01099
G1 X202.794 Y19.400 E0.01099
G1 X202.764 Y19.749 E0.01099
G1 X202.673 Y20.088 E0.01099
G1 X202.525 Y20.405 E0.01099
G1 X202.324 Y20.693 E0.01099
G1 X202.076 Y20.941 E0.01099
G1 X201.788 Y21.142 E0.01099
G1 X201.471 Y21.290 E0.01099
G1 X201.159 Y21.373 E0.01011
G1 X200.784 Y21.411 E0.01182
G1 X200.433 Y21.381 E0.01104
G1 X200.095 Y21.290 E0.01099
G1 X199.777 Y21.142 E0.01099
G1 X199.490 Y20.941 E0.01099
G1 X199.262 Y20.713 E0.01011
G1 X199.091 Y20.475 E0.00918
G1 X198.679 Y20.430 F10800.000
;WIPE_START
G1 F8640.000
G1 X198.892 Y20.088 E-0.10051
G1 X198.802 Y19.749 E-0.08096
G1 X198.771 Y19.400 E-0.08096
G1 X198.802 Y19.050 E-0.08096
G1 X198.892 Y18.712 E-0.08096
G1 X199.041 Y18.394 E-0.08096
G1 X199.242 Y18.107 E-0.08096
G1 X199.490 Y17.859 E-0.08097
G1 X199.777 Y17.658 E-0.08096
G1 X199.823 Y17.636 E-0.01178
;WIPE_END
G1 E-0.04000 F2100.000
G1 Z0.600 F10800.000
G1 X53.930 Y19.400
G1 Z0.200
G1 E0.80000 F2100.000
;TYPE:Perimeter
G1 F1200.000
G1 X53.882 Y19.946 E0.01720
G1 X53.740 Y20.476 E0.01720
G1 X53.508 Y20.973 E0.01720
G1 X53.194 Y21.423 E0.01720
G1 X52.806 Y21.811 E0.01720
G1 X52.356 Y22.125 E0.01720
G1 X51.859 Y22.357 E0.01720
G1 X51.329 Y22.499 E0.01720
G1 X50.783 Y22.547 E0.01720
G1 X50.236 Y22.499 E0.01720
G1 X49.706 Y22.357 E0.01720
G1 X49.209 Y22.125 E0.01720
G1 X48.760 Y21.811 E0.01720
G1 X48.372 Y21.423 E0.01720
G1 X48.057 Y20.973 E0.01720
G1 X47.825 Y20.476 E0.01720
G1 X47.683 Y19.946 E0.01720
G1 X47.636 Y19.400 E0.01720
G1 X47.683 Y18.853 E0.01720
G1 X47.825 Y18.323 E0.01720
G1 X48.057 Y17.826 E0.01720
G1 X48.372 Y17.377 E0.01720
G1 X48.760 Y16.989 E0.01720
G1 X49.209 Y16.674 E0.01720
G1 X49.706 Y16.442 E0.01720
G1 X50.236 Y16.300 E0.01720
G1 X50.747 Y16.256 E0.01607
G1 X51.320 Y16.298 E0.01803
G1 X51.859 Y16.442 E0.01749
G1 X52.356 Y16.674 E0.01720
G1 X52.806 Y16.989 E0.01720
G1 X53.194 Y17.377 E0.01720
G1 X53.508 Y17.826 E0.01720
G1 X53.740 Y18.323 E0.01720
G1 X53.882 Y18.853 E0.01720
G1 X53.925 Y19.340 E0.01532
G1 X53.549 Y19.373 F10800.000
G1 F1200.000
G1 X53.509 Y19.880 E0.01597
G1 X53.384 Y20.347 E0.01513
G1 X53.180 Y20.784 E0.01513
G1 X52.904 Y21.179 E0.01513
G1 X52.562 Y21.521 E0.01513
G1 X52.167 Y21.797 E0.01513
G1 X51.730 Y22.001 E0.01513
G1 X51.263 Y22.126 E0.01513
G1 X50.783 Y22.168 E0.01513
G1 X50.302 Y22.126 E0.01513
G1 X49.836 Y22.001 E0.01513
G1 X49.398 Y21.797 E0.01513
G1 X49.003 Y21.521 E0.01513
G1 X48.662 Y21.179 E0.01513
G1 X48.385 Y20.784 E0.01513
G1 X48.181 Y20.347 E0.01513
G1 X48.056 Y19.880 E0.01513
G1 X48.014 Y19.400 E0.01513
G1 X48.056 Y18.919 E0.01513
G1 X48.181 Y18.453 E0.01513
G1 X48.385 Y18.015 E0.01513
G1 X48.662 Y17.620 E0.01513
G1 X49.003 Y17.279 E0.01513
G1 X49.398 Y17.002 E0.01513
G1 X49.836 Y16.798 E0.01513
G1 X50.302 Y16.673 E0.01513
G1 X50.749 Y16.634 E0.01408
M73 P0 R137
G1 X51.257 Y16.671 E0.01596
G1 X51.730 Y16.798 E0.01534
G1 X52.167 Y17.002 E0.01513
G1 X52.562 Y17.279 E0.01513
G1 X52.904 Y17.620 E0.01513
G1 X53.180 Y18.015 E0.01513
G1 X53.384 Y18.453 E0.01513
G1 X53.509 Y18.919 E0.01513
G1 X53.544 Y19.313 E0.01240
G1 X53.168 Y19.346 F10800.000
G1 F1200.000
G1 X53.136 Y19.815 E0.01473
G1 X53.029 Y20.217 E0.01306
G1 X52.853 Y20.595 E0.01306
G1 X52.614 Y20.936 E0.01306
G1 X52.319 Y21.231 E0.01306
G1 X51.978 Y21.470 E0.01306
G1 X51.600 Y21.646 E0.01306
G1 X51.198 Y21.753 E0.01306
G1 X50.783 Y21.790 E0.01306
G1 X50.368 Y21.753 E0.01306
G1 X49.965 Y21.646 E0.01306
G1 X49.588 Y21.470 E0.01306
G1 X49.246 Y21.231 E0.01306
G1 X48.952 Y20.936 E0.01306
G1 X48.713 Y20.595 E0.01306
G1 X48.537 Y20.217 E0.01306
G1 X48.429 Y19.815 E0.01306
G1 X48.393 Y19.400 E0.01306
G1 X48.429 Y18.985 E0.01306
G1 X48.537 Y18.582 E0.01306
G1 X48.713 Y18.205 E0.01306
G1 X48.952 Y17.863 E0.01306
G1 X49.246 Y17.569 E0.01306
G1 X49.588 Y17.330 E0.01306
G1 X49.965 Y17.154 E0.01306
G1 X50.368 Y17.046 E0.01306
G1 X50.752 Y17.012 E0.01210
G1 X51.194 Y17.045 E0.01389
G1 X51.600 Y17.154 E0.01319
G1 X51.978 Y17.330 E0.01306
G1 X52.319 Y17.569 E0.01306
G1 X52.614 Y17.863 E0.01306
G1 X52.853 Y18.205 E0.01306
G1 X53.029 Y18.582 E0.01306
G1 X53.136 Y18.985 E0.01306
G1 X53.163 Y19.286 E0.00949
G1 X52.794 Y19.400 F10800.000
;TYPE:External perimeter
G1 F1200.000
G1 X52.764 Y19.749 E0.01099
G1 X52.673 Y20.088 E0.01099
G1 X52.525 Y20.405 E0.01099
G1 X52.324 Y20.693 E0.01099
G1 X52.076 Y20.941 E0.01099
G1 X51.788 Y21.142 E0.01099
G1 X51.471 Y21.290 E0.01099
G1 X51.132 Y21.381 E0.01099
G1 X50.783 Y21.411 E0.01099
G1 X50.433 Y21.381 E0.01099
G1 X50.095 Y21.290 E0.01099
G1 X49.777 Y21.142 E0.01099
G1 X49.490 Y20.941 E0.01099
G1 X49.242 Y20.693 E0.01099
G1 X49.041 Y20.405 E0.01099
G1 X48.892 Y20.088 E0.01099
G1 X48.802 Y19.749 E0.01099
G1 X48.771 Y19.400 E0.01099
G1 X48.802 Y19.050 E0.01099
G1 X48.892 Y18.712 E0.01099
G1 X49.041 Y18.394 E0.01099
G1 X49.242 Y18.107 E0.01099
G1 X49.490 Y17.859 E0.01099
G1 X49.777 Y17.658 E0.01099
G1 X50.095 Y17.509 E0.01099
G1 X50.433 Y17.419 E0.01099
G1 X50.755 Y17.391 E0.01011
G1 X51.131 Y17.418 E0.01182
G1 X51.471 Y17.509 E0.01104
G1 X51.788 Y17.658 E0.01099
G1 X52.076 Y17.859 E0.01099
G1 X52.324 Y18.107 E0.01099
G1 X52.525 Y18.394 E0.01099
G1 X52.673 Y18.712 E0.01099
G1 X52.764 Y19.050 E0.01099
G1 X52.789 Y19.340 E0.00911
G1 X53.098 Y19.575 F10800.000
;WIPE_START
G1 F8640.000
G1 X52.764 Y19.749 E-0.09464
G1 X52.673 Y20.088 E-0.08096
G1 X52.525 Y20.405 E-0.08096
G1 X52.324 Y20.693 E-0.08096
G1 X52.076 Y20.941 E-0.08097
G1 X51.788 Y21.142 E-0.08096
G1 X51.471 Y21.290 E-0.08096
G1 X51.132 Y21.381 E-0.08096
G1 X50.783 Y21.411 E-0.08096
G1 X50.707 Y21.405 E-0.01765
;WIPE_END
G1 E-0.04000 F2100.000
G1 Z0.600 F10800.000
G1 X153.114 Y16.856
G1 Z0.200
G1 E0.80000 F2100.000
;TYPE:Perimeter
G1 F1200.000
G1 X170.451 Y16.856 E0.54358
G1 X170.451 Y33.693 E0.52790
G1 X153.114 Y33.693 E0.54358
G1 X153.114 Y16.916 E0.52602
G1 X153.491 Y17.233 F10800.000
G1 F1200.000
G1 X170.074 Y17.233 E0.51993
G1 X170.074 Y33.316 E0.50425
G1 X153.491 Y33.316 E0.51993
G1 X153.491 Y17.293 E0.50237
G1 X153.869 Y17.611 F10800.000
G1 F1200.000
G1 X169.697 Y17.611 E0.49629
G1 X169.697 Y32.939 E0.48061
G1 X153.869 Y32.939 E0.49629
G1 X153.869 Y17.671 E0.47873
G1 X154.246 Y17.988 F10800.000
G1 F1200.000
G1 X169.320 Y17.988 E0.47264
G1 X169.320 Y32.562 E0.45696
G1 X154.246 Y32.562 E0.47264
G1 X154.246 Y18.048 E0.45508
G1 X154.623 Y18.365 F10800.000
;TYPE:External perimeter
G1 F1200.000
G1 X168.943 Y18.365 E0.44899
G1 X168.943 Y32.185 E0.43332
G1 X154.623 Y32.185 E0.44899
G1 X154.623 Y18.425 E0.43144
G1 X154.517 Y17.979 F10800.000
;WIPE_START
G1 F8640.000
G1 X157.914 Y18.411 E-0.76000
;WIPE_END
G1 E-0.04000 F2100.000
G1 Z0.600 F10800.000
G1 X129.626 Y23.707
G1 Z0.200
G1 E0.80000 F2100.000
;TYPE:Perimeter
