; generated by PrusaSlicer 2.3.1+win64 on 2023-08-02 at 20:27:02 UTC

; 

; external perimeters extrusion width = 0.60mm
; perimeters extrusion width = 0.50mm
; infill extrusion width = 0.50mm
; solid infill extrusion width = 0.50mm
; top infill extrusion width = 0.45mm
; support material extrusion width = 0.38mm
; first layer extrusion width = 0.42mm

M73 P0 R227
M73 Q0 S229
M201 X1000 Y1000 Z200 E5000 ; sets maximum accelerations, mm/sec^2
M203 X200 Y200 Z12 E120 ; sets maximum feedrates, mm/sec
M204 P1250 R1250 T1250 ; sets acceleration (P, T) and retract acceleration (R), mm/sec^2
M205 X8.00 Y8.00 Z0.40 E4.50 ; sets the jerk limits, mm/sec
M205 S0 T0 ; sets the minimum extruding and travel feed rate, mm/sec
M107
;TYPE:Custom
M862.3 P "MK3S" ; printer model check
M862.1 P0.4 ; nozzle diameter check
M115 U3.9.3 ; tell printer latest fw version
G90 ; use absolute coordinates
M83 ; extruder relative mode
M104 S215 ; set extruder temp
M140 S67 ; set bed temp
M190 S67 ; wait for bed temp
M109 S215 ; wait for extruder temp
G28 W ; home all without mesh bed level
G80 ; mesh bed leveling
G1 Y-3.0 F1000.0 ; go outside print area
G92 E0.0
G1 X60.0 E9.0 F1000.0 ; intro line
M73 P0 R226
G1 X100.0 E12.5 F1000.0 ; intro line
G92 E0.0
M221 S95

; Don't change E values below. Excessive value can damage the printer.

M907 E538 ; set extruder motor current
G21 ; set units to millimeters
G90 ; use absolute coordinates
M83 ; use relative distances for extrusion
M900 K0.05 ; Filament gcode LA 1.5
M900 K30 ; Filament gcode LA 1.0
;LAYER_CHANGE
;Z:0.2
;HEIGHT:0.2
;BEFORE_LAYER_CHANGE
G92 E0.0
;0.2


G1 E-0.80000 F2100.000
G1 Z0.400 F10800.000
;AFTER_LAYER_CHANGE
;0.2
; printing object base3.stl id:0 copy 0
G1 X20.087 Y6.110
G1 Z0.200
G1 E0.80000 F2100.000
M204 S1000
;TYPE:Support material
;WIDTH:0.42
G1 F1200.000
G1 X20.087 Y23.775 E0.55390
G1 X20.841 Y23.775 E0.02365
G1 X20.841 Y6.279 E0.54858
G1 X21.595 Y6.279 E0.02365
G1 X21.595 Y23.775 E0.54858
G1 X22.350 Y23.775 E0.02365
G1 X22.350 Y6.279 E0.54858
G1 X23.104 Y6.279 E0.02365
G1 X23.104 Y23.775 E0.54858
G1 X23.858 Y23.775 E0.02365
G1 X23.858 Y6.279 E0.54858
G1 X24.612 Y6.279 E0.02365
G1 X24.612 Y23.775 E0.54858
G1 X25.366 Y23.775 E0.02365
G1 X25.366 Y6.279 E0.54858
G1 X26.120 Y6.279 E0.02365
G1 X26.120 Y23.775 E0.54858
G1 X26.875 Y23.775 E0.02365
G1 X26.875 Y6.279 E0.54858
G1 X27.629 Y6.279 E0.02365
G1 X27.629 Y23.775 E0.54858
G1 X28.383 Y23.775 E0.02365
G1 X28.383 Y6.279 E0.54858
G1 X29.137 Y6.279 E0.02365
G1 X29.137 Y23.775 E0.54858
G1 X29.891 Y23.775 E0.02365
G1 X29.891 Y6.279 E0.54858
G1 X30.645 Y6.279 E0.02365
G1 X30.645 Y23.775 E0.54858
G1 X31.399 Y23.775 E0.02365
G1 X31.399 Y6.279 E0.54858
G1 X32.154 Y6.279 E0.02365
G1 X32.154 Y23.775 E0.54858
G1 X32.908 Y23.775 E0.02365
G1 X32.908 Y6.279 E0.54858
G1 X33.662 Y6.279 E0.02365
G1 X33.662 Y23.775 E0.54858
G1 X34.416 Y23.775 E0.02365
G1 X34.416 Y6.279 E0.54858
G1 X35.170 Y6.279 E0.02365
G1 X35.170 Y23.775 E0.54858
G1 X35.924 Y23.775 E0.02365
G1 X35.924 Y6.279 E0.54858
G1 X36.679 Y6.279 E0.02365
G1 X36.679 Y23.775 E0.54858
G1 X37.433 Y23.775 E0.02365
G1 X37.433 Y6.279 E0.54858
G1 X38.187 Y6.279 E0.02365
G1 X38.187 Y23.775 E0.54858
G1 X38.941 Y23.775 E0.02365
G1 X38.941 Y6.279 E0.54858
G1 X39.695 Y6.279 E0.02365
G1 X39.695 Y23.775 E0.54858
G1 X40.449 Y23.775 E0.02365
G1 X40.449 Y6.279 E0.54858
G1 X41.204 Y6.279 E0.02365
G1 X41.204 Y23.775 E0.54858
G1 X41.958 Y23.775 E0.02365
G1 X41.958 Y6.279 E0.54858
G1 X42.712 Y6.279 E0.02365
G1 X42.712 Y23.775 E0.54858
G1 X43.466 Y23.775 E0.02365
G1 X43.466 Y6.279 E0.54858
G1 X44.220 Y6.279 E0.02365
G1 X44.220 Y23.775 E0.54858
G1 X44.974 Y23.775 E0.02365
G1 X44.974 Y6.279 E0.54858
G1 X45.729 Y6.279 E0.02365
G1 X45.729 Y23.775 E0.54858
G1 X46.483 Y23.775 E0.02365
G1 X46.483 Y6.279 E0.54858
G1 X47.237 Y6.279 E0.02365
G1 X47.237 Y23.775 E0.54858
G1 X47.991 Y23.775 E0.02365
G1 X47.991 Y6.279 E0.54858
G1 X48.745 Y6.279 E0.02365
G1 X48.745 Y23.945 E0.55390
;WIPE_START
M73 Q0 S228
G1 F8640.000
G1 X48.745 Y20.654 E-0.76000
;WIPE_END
G1 E-0.04000 F2100.000
G1 Z0.600 F10800.000
G1 X110.586 Y6.110
G1 Z0.200
G1 E0.80000 F2100.000
G1 F1200.000
G1 X110.586 Y23.775 E0.55390
G1 X111.340 Y23.775 E0.02365
G1 X111.340 Y6.279 E0.54858
G1 X112.094 Y6.279 E0.02365
G1 X112.094 Y23.775 E0.54858
G1 X112.849 Y23.775 E0.02365
G1 X112.849 Y6.279 E0.54858
G1 X113.603 Y6.279 E0.02365
G1 X113.603 Y23.775 E0.54858
G1 X114.357 Y23.775 E0.02365
G1 X114.357 Y6.279 E0.54858
G1 X115.111 Y6.279 E0.02365
G1 X115.111 Y23.775 E0.54858
G1 X115.865 Y23.775 E0.02365
G1 X115.865 Y6.279 E0.54858
G1 X116.619 Y6.279 E0.02365
G1 X116.619 Y23.775 E0.54858
G1 X117.374 Y23.775 E0.02365
G1 X117.374 Y6.279 E0.54858
G1 X118.128 Y6.279 E0.02365
G1 X118.128 Y23.775 E0.54858
G1 X118.882 Y23.775 E0.02365
G1 X118.882 Y6.279 E0.54858
G1 X119.636 Y6.279 E0.02365
G1 X119.636 Y23.775 E0.54858
G1 X120.390 Y23.775 E0.02365
G1 X120.390 Y6.279 E0.54858
G1 X121.144 Y6.279 E0.02365
G1 X121.144 Y23.775 E0.54858
G1 X121.899 Y23.775 E0.02365
G1 X121.899 Y6.279 E0.54858
G1 X122.653 Y6.279 E0.02365
G1 X122.653 Y23.775 E0.54858
G1 X123.407 Y23.775 E0.02365
G1 X123.407 Y6.279 E0.54858
G1 X124.161 Y6.279 E0.02365
G1 X124.161 Y23.775 E0.54858
G1 X124.915 Y23.775 E0.02365
G1 X124.915 Y6.279 E0.54858
G1 X125.669 Y6.279 E0.02365
G1 X125.669 Y23.775 E0.54858
G1 X126.424 Y23.775 E0.02365
G1 X126.424 Y6.279 E0.54858
M73 P0 R225
G1 X127.178 Y6.279 E0.02365
G1 X127.178 Y23.775 E0.54858
G1 X127.932 Y23.775 E0.02365
G1 X127.932 Y6.279 E0.54858
G1 X128.686 Y6.279 E0.02365
G1 X128.686 Y23.775 E0.54858
G1 X129.440 Y23.775 E0.02365
G1 X129.440 Y6.279 E0.54858
G1 X130.194 Y6.279 E0.02365
G1 X130.194 Y23.775 E0.54858
G1 X130.948 Y23.775 E0.02365
G1 X130.948 Y6.279 E0.54858
G1 X131.703 Y6.279 E0.02365
G1 X131.703 Y23.775 E0.54858
G1 X132.457 Y23.775 E0.02365
G1 X132.457 Y6.279 E0.54858
G1 X133.211 Y6.279 E0.02365
G1 X133.211 Y23.775 E0.54858
G1 X133.965 Y23.775 E0.02365
G1 X133.965 Y6.279 E0.54858
G1 X134.719 Y6.279 E0.02365
G1 X134.719 Y23.775 E0.54858
G1 X135.473 Y23.775 E0.02365
G1 X135.473 Y6.279 E0.54858
G1 X136.228 Y6.279 E0.02365
G1 X136.228 Y23.775 E0.54858
G1 X136.982 Y23.775 E0.02365
G1 X136.982 Y6.279 E0.54858
G1 X137.736 Y6.279 E0.02365
G1 X137.736 Y23.775 E0.54858
G1 X138.490 Y23.775 E0.02365
G1 X138.490 Y6.279 E0.54858
G1 X139.244 Y6.279 E0.02365
G1 X139.244 Y23.945 E0.55390
;WIPE_START
G1 F8640.000
G1 X139.244 Y20.654 E-0.76000
;WIPE_END
G1 E-0.04000 F2100.000
G1 Z0.600 F10800.000
G1 X201.085 Y6.110
G1 Z0.200
G1 E0.80000 F2100.000
G1 F1200.000
G1 X201.085 Y23.775 E0.55390
G1 X201.839 Y23.775 E0.02365
G1 X201.839 Y6.279 E0.54858
G1 X202.594 Y6.279 E0.02365
G1 X202.594 Y23.775 E0.54858
G1 X203.348 Y23.775 E0.02365
G1 X203.348 Y6.279 E0.54858
G1 X204.102 Y6.279 E0.02365
G1 X204.102 Y23.775 E0.54858
G1 X204.856 Y23.775 E0.02365
G1 X204.856 Y6.279 E0.54858
G1 X205.610 Y6.279 E0.02365
G1 X205.610 Y23.775 E0.54858
G1 X206.364 Y23.775 E0.02365
G1 X206.364 Y6.279 E0.54858
G1 X207.119 Y6.279 E0.02365
G1 X207.119 Y23.775 E0.54858
G1 X207.873 Y23.775 E0.02365
G1 X207.873 Y6.279 E0.54858
G1 X208.627 Y6.279 E0.02365
G1 X208.627 Y23.775 E0.54858
G1 X209.381 Y23.775 E0.02365
G1 X209.381 Y6.279 E0.54858
G1 X210.135 Y6.279 E0.02365
G1 X210.135 Y23.775 E0.54858
G1 X210.889 Y23.775 E0.02365
G1 X210.889 Y6.279 E0.54858
G1 X211.643 Y6.279 E0.02365
G1 X211.643 Y23.775 E0.54858
G1 X212.398 Y23.775 E0.02365
G1 X212.398 Y6.279 E0.54858
G1 X213.152 Y6.279 E0.02365
G1 X213.152 Y23.775 E0.54858
G1 X213.906 Y23.775 E0.02365
G1 X213.906 Y6.279 E0.54858
G1 X214.660 Y6.279 E0.02365
G1 X214.660 Y23.775 E0.54858
G1 X215.414 Y23.775 E0.02365
G1 X215.414 Y6.279 E0.54858
G1 X216.168 Y6.279 E0.02365
G1 X216.168 Y23.775 E0.54858
G1 X216.923 Y23.775 E0.02365
G1 X216.923 Y6.279 E0.54858
G1 X217.677 Y6.279 E0.02365
G1 X217.677 Y23.775 E0.54858
M73 Q0 S227
G1 X218.431 Y23.775 E0.02365
G1 X218.431 Y6.279 E0.54858
G1 X219.185 Y6.279 E0.02365
G1 X219.185 Y23.775 E0.54858
G1 X219.939 Y23.775 E0.02365
G1 X219.939 Y6.279 E0.54858
G1 X220.693 Y6.279 E0.02365
G1 X220.693 Y23.775 E0.54858
G1 X221.448 Y23.775 E0.02365
G1 X221.448 Y6.279 E0.54858
G1 X222.202 Y6.279 E0.02365
G1 X222.202 Y23.775 E0.54858
G1 X222.956 Y23.775 E0.02365
G1 X222.956 Y6.279 E0.54858
G1 X223.710 Y6.279 E0.02365
G1 X223.710 Y23.775 E0.54858
G1 X224.464 Y23.775 E0.02365
G1 X224.464 Y6.279 E0.54858
G1 X225.218 Y6.279 E0.02365
G1 X225.218 Y23.775 E0.54858
G1 X225.973 Y23.775 E0.02365
G1 X225.973 Y6.279 E0.54858
G1 X226.727 Y6.279 E0.02365
G1 X226.727 Y23.775 E0.54858
G1 X227.481 Y23.775 E0.02365
G1 X227.481 Y6.279 E0.54858
G1 X228.235 Y6.279 E0.02365
G1 X228.235 Y23.775 E0.54858
G1 X228.989 Y23.775 E0.02365
G1 X228.989 Y6.279 E0.54858
G1 X229.743 Y6.279 E0.02365
G1 X229.743 Y23.945 E0.55390
;WIPE_START
G1 F8640.000
G1 X229.743 Y20.654 E-0.76000
;WIPE_END
G1 E-0.04000 F2100.000
G1 Z0.600 F10800.000
G1 X235.022 Y81.060
G1 Z0.200
G1 E0.80000 F2100.000
G1 F1200.000
G1 X235.022 Y83.013 E0.06124
G1 X235.153 Y83.353 E0.01142
G1 X235.289 Y83.600 E0.00883
G1 X235.452 Y83.829 E0.00883
G1 X235.777 Y84.161 E0.01455
G1 X235.777 Y80.366 E0.11899
G1 X236.079 Y80.138 E0.01189
G1 X236.326 Y80.002 E0.00883
G1 X236.531 Y79.917 E0.00695
G1 X236.531 Y84.611 E0.14717
G1 X236.857 Y84.712 E0.01069
G1 X237.285 Y84.767 E0.01354
G1 X237.285 Y79.761 E0.15698
G1 X237.696 Y79.769 E0.01290
G1 X238.039 Y79.835 E0.01094
G1 X238.039 Y84.693 E0.15232
G1 X238.244 Y84.634 E0.00670
G1 X238.505 Y84.526 E0.00883
G1 X238.793 Y84.360 E0.01044
G1 X238.793 Y80.168 E0.13143
G1 X238.981 Y80.301 E0.00720
G1 X239.191 Y80.489 E0.00883
G1 X239.378 Y80.699 E0.00883
G1 X239.547 Y80.940 E0.00923
G1 X239.547 Y83.884 E0.09232
;WIPE_START
G1 F8640.000
G1 X239.547 Y80.940 E-0.67989
G1 X239.378 Y80.699 E-0.06800
G1 X239.343 Y80.659 E-0.01211
;WIPE_END
G1 E-0.04000 F2100.000
G1 Z0.600 F10800.000
G1 X237.285 Y87.583
G1 Z0.200
G1 E0.80000 F2100.000
G1 F1200.000
G1 X237.285 Y87.942 E0.01126
;WIPE_START
G1 F8640.000
G1 X237.285 Y87.583 E-0.08292
;WIPE_END
G1 E-0.71708 F2100.000
G1 Z0.600 F10800.000
G1 X12.546 Y87.942
G1 Z0.200
G1 E0.80000 F2100.000
G1 F1200.000
G1 X12.546 Y87.583 E0.01126
;WIPE_START
G1 F8640.000
G1 X12.546 Y87.942 E-0.08294
;WIPE_END
G1 E-0.71706 F2100.000
G1 Z0.600 F10800.000
G1 X14.808 Y83.468
G1 Z0.200
G1 E0.80000 F2100.000
G1 F1200.000
G1 X14.808 Y81.514 E0.06124
G1 X14.677 Y81.175 E0.01142
G1 X14.541 Y80.928 E0.00883
G1 X14.378 Y80.699 E0.00883
G1 X14.054 Y80.366 E0.01455
G1 X14.054 Y84.161 E0.11899
G1 X13.751 Y84.390 E0.01189
G1 X13.505 Y84.526 E0.00883
G1 X13.300 Y84.611 E0.00695
G1 X13.300 Y79.917 E0.14717
G1 X12.974 Y79.816 E0.01069
G1 X12.546 Y79.761 E0.01354
G1 X12.546 Y84.767 E0.15698
G1 X12.134 Y84.759 E0.01290
G1 X11.791 Y84.693 E0.01094
G1 X11.791 Y79.835 E0.15232
G1 X11.586 Y79.894 E0.00670
G1 X11.326 Y80.002 E0.00883
G1 X11.037 Y80.168 E0.01044
G1 X11.037 Y84.360 E0.13143
G1 X10.850 Y84.227 E0.00720
G1 X10.640 Y84.039 E0.00883
G1 X10.452 Y83.829 E0.00883
G1 X10.283 Y83.588 E0.00923
G1 X10.283 Y80.644 E0.09232
;WIPE_START
M73 P0 R224
G1 F8640.000
G1 X10.283 Y83.588 E-0.67989
G1 X10.452 Y83.829 E-0.06800
G1 X10.487 Y83.868 E-0.01211
;WIPE_END
G1 E-0.04000 F2100.000
G1 Z0.600 F10800.000
G1 X233.627 Y82.264
G1 Z0.200
G1 E0.80000 F2100.000
;TYPE:Perimeter
G1 F1200.000
G1 X233.651 Y81.840 E0.01332
G1 X233.722 Y81.421 E0.01332
G1 X233.839 Y81.013 E0.01332
G1 X234.002 Y80.620 E0.01332
G1 X234.208 Y80.248 E0.01332
G1 X234.439 Y79.922 E0.01256
G1 X234.735 Y79.587 E0.01402
G1 X235.053 Y79.302 E0.01338
G1 X235.400 Y79.056 E0.01332
G1 X235.771 Y78.851 E0.01332
G1 X236.164 Y78.688 E0.01332
G1 X236.572 Y78.571 E0.01332
G1 X236.991 Y78.499 E0.01332
G1 X237.391 Y78.477 E0.01256
G1 X237.837 Y78.499 E0.01402
G1 X238.258 Y78.571 E0.01338
G1 X238.666 Y78.688 E0.01332
G1 X239.059 Y78.851 E0.01332
G1 X239.431 Y79.056 E0.01332
G1 X239.777 Y79.302 E0.01332
G1 X240.094 Y79.585 E0.01332
G1 X240.377 Y79.902 E0.01332
G1 X240.623 Y80.248 E0.01332
G1 X240.828 Y80.620 E0.01332
G1 X240.991 Y81.013 E0.01332
G1 X241.109 Y81.421 E0.01332
G1 X241.180 Y81.840 E0.01332
G1 X241.204 Y82.264 E0.01332
G1 X241.180 Y82.688 E0.01332
G1 X241.109 Y83.107 E0.01332
G1 X240.991 Y83.515 E0.01332
G1 X240.828 Y83.908 E0.01332
G1 X240.623 Y84.279 E0.01332
G1 X240.391 Y84.606 E0.01256
G1 X240.095 Y84.941 E0.01402
G1 X239.777 Y85.226 E0.01338
G1 X239.431 Y85.472 E0.01332
G1 X239.059 Y85.677 E0.01332
G1 X238.666 Y85.840 E0.01332
G1 X238.258 Y85.957 E0.01332
G1 X237.839 Y86.028 E0.01332
G1 X237.415 Y86.052 E0.01332
G1 X236.991 Y86.028 E0.01332
G1 X236.572 Y85.957 E0.01332
G1 X236.164 Y85.840 E0.01332
G1 X235.771 Y85.677 E0.01332
G1 X235.400 Y85.472 E0.01332
G1 X235.053 Y85.226 E0.01332
G1 X234.736 Y84.943 E0.01332
G1 X234.453 Y84.626 E0.01332
G1 X234.208 Y84.279 E0.01332
G1 X234.002 Y83.908 E0.01332
G1 X233.839 Y83.515 E0.01332
G1 X233.722 Y83.107 E0.01332
G1 X233.651 Y82.688 E0.01332
G1 X233.630 Y82.324 E0.01144
G1 X234.007 Y82.303 F10800.000
;TYPE:External perimeter
G1 F1200.000
G1 X234.026 Y81.882 E0.01320
G1 X234.090 Y81.505 E0.01199
G1 X234.196 Y81.137 E0.01199
G1 X234.342 Y80.784 E0.01199
G1 X234.527 Y80.449 E0.01199
G1 X234.735 Y80.156 E0.01127
G1 X235.003 Y79.853 E0.01269
G1 X235.289 Y79.597 E0.01201
G1 X235.601 Y79.376 E0.01199
G1 X235.935 Y79.191 E0.01199
G1 X236.289 Y79.045 E0.01199
G1 X236.656 Y78.939 E0.01199
G1 X237.033 Y78.875 E0.01199
G1 X237.392 Y78.855 E0.01127
G1 X237.796 Y78.875 E0.01269
G1 X238.174 Y78.939 E0.01201
G1 X238.542 Y79.045 E0.01199
G1 X238.895 Y79.191 E0.01199
G1 X239.230 Y79.376 E0.01199
G1 X239.542 Y79.597 E0.01199
G1 X239.827 Y79.852 E0.01199
G1 X240.082 Y80.137 E0.01199
G1 X240.303 Y80.449 E0.01199
G1 X240.488 Y80.784 E0.01199
G1 X240.634 Y81.137 E0.01199
G1 X240.740 Y81.505 E0.01199
G1 X240.804 Y81.882 E0.01199
G1 X240.826 Y82.264 E0.01199
G1 X240.804 Y82.646 E0.01199
G1 X240.740 Y83.023 E0.01199
G1 X240.634 Y83.390 E0.01199
G1 X240.488 Y83.744 E0.01199
G1 X240.303 Y84.079 E0.01199
G1 X240.095 Y84.372 E0.01127
G1 X239.827 Y84.675 E0.01269
G1 X239.542 Y84.930 E0.01201
G1 X239.230 Y85.152 E0.01199
G1 X238.895 Y85.337 E0.01199
G1 X238.542 Y85.483 E0.01199
G1 X238.174 Y85.589 E0.01199
G1 X237.797 Y85.653 E0.01199
G1 X237.415 Y85.675 E0.01199
G1 X237.033 Y85.653 E0.01199
G1 X236.656 Y85.589 E0.01199
G1 X236.289 Y85.483 E0.01199
G1 X235.935 Y85.337 E0.01199
G1 X235.601 Y85.152 E0.01199
G1 X235.289 Y84.930 E0.01199
G1 X235.004 Y84.676 E0.01199
G1 X234.749 Y84.390 E0.01199
G1 X234.527 Y84.079 E0.01199
G1 X234.342 Y83.744 E0.01199
G1 X234.196 Y83.390 E0.01199
G1 X234.090 Y83.023 E0.01199
G1 X234.026 Y82.646 E0.01199
G1 X234.010 Y82.363 E0.00889
G1 X233.659 Y82.105 F10800.000
;WIPE_START
G1 F8640.000
G1 X234.026 Y81.882 E-0.11102
G1 X234.090 Y81.505 E-0.08831
G1 X234.196 Y81.137 E-0.08831
G1 X234.342 Y80.784 E-0.08831
G1 X234.527 Y80.449 E-0.08831
G1 X234.735 Y80.156 E-0.08297
G1 X235.003 Y79.853 E-0.09346
G1 X235.289 Y79.597 E-0.08848
G1 X235.398 Y79.520 E-0.03081
;WIPE_END
G1 E-0.04000 F2100.000
G1 Z0.600 F10800.000
G1 X233.568 Y85.332
G1 Z0.200
G1 E0.80000 F2100.000
;TYPE:Perimeter
G1 F1200.000
G1 X233.579 Y85.346 E0.00056
G1 X16.251 Y85.346 E6.81418
M73 P1 R224
M73 Q1 S227
G1 X16.582 Y84.882 E0.01786
G1 X16.849 Y84.399 E0.01730
G1 X17.060 Y83.889 E0.01730
G1 X17.213 Y83.359 E0.01730
G1 X17.306 Y82.815 E0.01730
G1 X17.337 Y82.264 E0.01730
G1 X17.306 Y81.713 E0.01730
G1 X17.213 Y81.169 E0.01730
G1 X17.060 Y80.639 E0.01730
G1 X16.849 Y80.129 E0.01730
G1 X16.582 Y79.646 E0.01730
G1 X16.263 Y79.195 E0.01731
G1 X15.895 Y78.784 E0.01730
G1 X15.484 Y78.416 E0.01730
G1 X15.034 Y78.097 E0.01730
G1 X14.551 Y77.830 E0.01730
G1 X14.041 Y77.619 E0.01731
G1 X13.510 Y77.466 E0.01730
G1 X12.961 Y77.373 E0.01748
G1 X12.387 Y77.344 E0.01800
G1 X11.864 Y77.374 E0.01642
G1 X11.320 Y77.466 E0.01730
G1 X10.790 Y77.619 E0.01730
G1 X10.280 Y77.830 E0.01731
G1 X9.797 Y78.097 E0.01730
G1 X9.347 Y78.416 E0.01730
G1 X8.935 Y78.784 E0.01730
G1 X8.568 Y79.195 E0.01730
G1 X8.334 Y79.525 E0.01268
G1 X8.334 Y26.182 E1.67254
G1 X241.497 Y26.182 E7.31067
G1 X241.497 Y79.525 E1.67254
G1 X241.263 Y79.195 E0.01268
