; generated by PrusaSlicer 2.3.1+win64 on 2023-08-02 at 20:08:16 UTC

; 

; external perimeters extrusion width = 0.60mm
; perimeters extrusion width = 0.50mm
; infill extrusion width = 0.50mm
; solid infill extrusion width = 0.50mm
; top infill extrusion width = 0.45mm
; first layer extrusion width = 0.42mm

M73 P0 R135
M73 Q0 S137
M201 X1000 Y1000 Z1000 E5000 ; sets maximum accelerations, mm/sec^2
M203 X200 Y200 Z12 E120 ; sets maximum feedrates, mm/sec
M204 P1250 R1250 T1250 ; sets acceleration (P, T) and retract acceleration (R), mm/sec^2
M205 X8.00 Y8.00 Z0.40 E1.50 ; sets the jerk limits, mm/sec
M205 S0 T0 ; sets the minimum extruding and travel feed rate, mm/sec
M107
;TYPE:Custom
M115 U3.8.0 ; tell printer latest fw version
G90 ; use absolute coordinates
M83 ; extruder relative mode
M104 S215 ; set extruder temp
M140 S67 ; set bed temp
M190 S67 ; wait for bed temp
M109 S215 ; wait for extruder temp
G28 W ; home all without mesh bed level
G80 ; mesh bed leveling
G1 Y-3.0 F1000.0 ; go outside print area
G92 E0.0
G1 X60.0 E9.0 F1000.0 ; intro line
G1 X100.0 E12.5 F1000.0 ; intro line
G92 E0.0
M221 S95
G21 ; set units to millimeters
G90 ; use absolute coordinates
M83 ; use relative distances for extrusion
M900 K0.05 ; Filament gcode LA 1.5
M900 K30 ; Filament gcode LA 1.0
;LAYER_CHANGE
;Z:0.2
;HEIGHT:0.2
;BEFORE_LAYER_CHANGE
G92 E0.0
;0.2


G1 E-0.80000 F2100.000
G1 Z0.600 F10800.000
;AFTER_LAYER_CHANGE
;0.2
; printing object button_base.stl id:1 copy 0
G1 X204.601 Y18.283
G1 Z0.200
G1 E0.80000 F2100.000
M204 S1000
;TYPE:Perimeter
;WIDTH:0.42
M73 Q0 S136
G1 F1200.000
G1 X211.529 Y18.283 E0.21720
G1 X211.529 Y41.058 E0.71407
G1 X204.601 Y41.058 E0.21720
G1 X204.601 Y18.343 E0.71219
G1 X204.979 Y18.660 F10800.000
;TYPE:External perimeter
G1 F1200.000
G1 X211.152 Y18.660 E0.19355
G1 X211.152 Y40.680 E0.69042
G1 X204.979 Y40.680 E0.19355
G1 X204.979 Y18.720 E0.68854
G1 X204.942 Y18.262 F10800.000
;WIPE_START
G1 F8640.000
G1 X208.270 Y18.688 E-0.76000
;WIPE_END
G1 E-0.04000 F2100.000
G1 Z0.800 F10800.000
G1 X212.723 Y18.720
G1 Z0.200
G1 E0.80000 F2100.000
;TYPE:Perimeter
G1 F1200.000
G1 X212.723 Y18.702 E0.00057
G1 X238.560 Y18.702 E0.81009
G1 X238.560 Y39.539 E0.65332
G1 X212.723 Y39.539 E0.81009
G1 X212.723 Y18.780 E0.65086
G1 X213.100 Y19.079 F10800.000
G1 F1200.000
G1 X238.183 Y19.079 E0.78644
G1 X238.183 Y39.162 E0.62967
G1 X213.100 Y39.162 E0.78644
G1 X213.100 Y19.139 E0.62779
G1 X213.477 Y19.456 F10800.000
G1 F1200.000
G1 X237.806 Y19.456 E0.76280
G1 X237.806 Y38.785 E0.60603
G1 X213.477 Y38.785 E0.76280
G1 X213.477 Y19.516 E0.60414
G1 X213.854 Y19.833 F10800.000
G1 F1200.000
G1 X237.429 Y19.833 E0.73915
G1 X237.429 Y38.408 E0.58238
G1 X213.854 Y38.408 E0.73915
G1 X213.854 Y19.893 E0.58050
G1 X214.232 Y20.210 F10800.000
;TYPE:External perimeter
G1 F1200.000
G1 X237.052 Y20.210 E0.71551
G1 X237.052 Y38.030 E0.55873
G1 X214.232 Y38.030 E0.71551
G1 X214.232 Y20.270 E0.55685
G1 X214.112 Y19.829 F10800.000
;WIPE_START
G1 F8640.000
G1 X217.523 Y20.262 E-0.76000
;WIPE_END
G1 E-0.04000 F2100.000
G1 Z0.800 F10800.000
G1 X212.660 Y42.189
G1 Z0.200
G1 E0.80000 F2100.000
;TYPE:Perimeter
G1 F1200.000
G1 X212.660 Y17.152 E0.78501
G1 X205.560 Y17.152 E0.22262
G1 X205.560 Y14.002 E0.09878
G1 X206.251 Y13.764 E0.02291
G1 X207.022 Y13.397 E0.02676
G1 X207.531 Y13.089 E0.01865
G1 X241.723 Y13.089 E1.07209
G1 X241.723 Y45.152 E1.00532
G1 X207.531 Y45.152 E1.07209
G1 X207.022 Y44.844 E0.01865
G1 X206.251 Y44.477 E0.02676
G1 X205.560 Y44.239 E0.02291
G1 X205.560 Y42.189 E0.06430
G1 X212.600 Y42.189 E0.22073
G1 X212.283 Y41.812 F10800.000
G1 F1200.000
G1 X212.283 Y17.529 E0.76136
G1 X205.183 Y17.529 E0.22262
G1 X205.183 Y13.716 E0.11955
G1 X206.108 Y13.414 E0.03052
G1 X206.846 Y13.063 E0.02561
G1 X207.412 Y12.712 E0.02091
G1 X242.100 Y12.712 E1.08762
G1 X242.100 Y45.529 E1.02897
G1 X207.412 Y45.529 E1.08762
G1 X206.846 Y45.178 E0.02091
G1 X206.108 Y44.827 E0.02561
G1 X205.183 Y44.524 E0.03052
G1 X205.183 Y41.812 E0.08506
G1 X212.223 Y41.812 E0.22073
G1 X211.906 Y41.435 F10800.000
G1 F1200.000
G1 X211.906 Y17.906 E0.73771
G1 X204.806 Y17.906 E0.22262
G1 X204.806 Y13.420 E0.14067
G1 X205.252 Y13.310 E0.01442
G1 X205.965 Y13.064 E0.02364
G1 X206.669 Y12.730 E0.02445
G1 X207.018 Y12.527 E0.01265
G1 X207.294 Y12.335 E0.01054
G1 X242.477 Y12.335 E1.10315
M73 P0 R134
G1 X242.477 Y45.906 E1.05262
G1 X207.294 Y45.906 E1.10315
G1 X207.018 Y45.714 E0.01054
G1 X206.669 Y45.511 E0.01265
G1 X205.965 Y45.177 E0.02445
G1 X205.252 Y44.931 E0.02364
G1 X204.806 Y44.821 E0.01442
G1 X204.806 Y41.435 E0.10618
G1 X211.846 Y41.435 E0.22073
;WIPE_START
G1 F8640.000
G1 X211.854 Y38.143 E-0.76000
;WIPE_END
G1 E-0.04000 F2100.000
G1 Z0.800 F10800.000
G1 X204.429 Y45.132
G1 Z0.200
G1 E0.80000 F2100.000
G1 F1200.000
G1 X204.429 Y13.109 E1.00405
G1 X205.144 Y12.948 E0.02300
G1 X205.823 Y12.715 E0.02249
G1 X206.493 Y12.396 E0.02329
G1 X206.815 Y12.208 E0.01168
G1 X207.176 Y11.958 E0.01377
G1 X242.854 Y11.958 E1.11868
G1 X242.854 Y46.283 E1.07626
G1 X207.176 Y46.283 E1.11868
G1 X206.815 Y46.033 E0.01377
G1 X206.493 Y45.845 E0.01168
G1 X205.823 Y45.526 E0.02329
G1 X205.144 Y45.293 E0.02249
G1 X204.488 Y45.143 E0.02112
G1 X204.052 Y45.465 F10800.000
;TYPE:External perimeter
G1 F1200.000
G1 X204.052 Y12.776 E1.02496
M73 Q0 S135
G1 X204.695 Y12.673 E0.02043
G1 X205.037 Y12.587 E0.01105
G1 X205.680 Y12.365 E0.02133
G1 X206.317 Y12.062 E0.02213
G1 X206.612 Y11.890 E0.01071
G1 X207.058 Y11.580 E0.01700
G1 X243.232 Y11.580 E1.13421
G1 X243.232 Y46.660 E1.09991
G1 X207.058 Y46.660 E1.13421
G1 X206.612 Y46.351 E0.01700
G1 X206.317 Y46.179 E0.01071
G1 X205.680 Y45.876 E0.02213
G1 X205.037 Y45.654 E0.02133
G1 X204.695 Y45.568 E0.01105
G1 X204.111 Y45.472 E0.01855
G1 X204.273 Y45.132 F10800.000
;WIPE_START
G1 F8640.000
G1 X204.105 Y42.181 E-0.76000
;WIPE_END
G1 E-0.04000 F2100.000
G1 Z0.800 F10800.000
G1 X206.988 Y44.702
G1 Z0.200
G1 E0.80000 F2100.000
;TYPE:Solid infill
;WIDTH:0.421725
G1 F1200.000
G1 X205.843 Y43.557 E0.05102
G1 X205.843 Y43.021 E0.01687
G1 X207.691 Y44.869 E0.08232
G1 X208.226 Y44.869 E0.01687
G1 X205.843 Y42.472 E0.10649
G1 X206.364 Y42.472 E0.01643
G1 X208.762 Y44.869 E0.10681
G1 X209.298 Y44.869 E0.01687
G1 X206.900 Y42.472 E0.10681
G1 X207.436 Y42.472 E0.01687
G1 X209.833 Y44.869 E0.10681
G1 X210.369 Y44.869 E0.01687
G1 X207.971 Y42.472 E0.10681
G1 X208.507 Y42.472 E0.01687
G1 X210.905 Y44.869 E0.10681
G1 X211.441 Y44.869 E0.01687
G1 X209.043 Y42.472 E0.10681
G1 X209.579 Y42.472 E0.01687
G1 X211.976 Y44.869 E0.10681
G1 X212.512 Y44.869 E0.01687
G1 X210.114 Y42.472 E0.10681
G1 X210.650 Y42.472 E0.01687
G1 X213.048 Y44.869 E0.10681
G1 X213.583 Y44.869 E0.01687
G1 X211.186 Y42.472 E0.10681
G1 X211.721 Y42.472 E0.01687
G1 X214.119 Y44.869 E0.10681
G1 X214.655 Y44.869 E0.01687
G1 X212.257 Y42.472 E0.10681
G1 X212.793 Y42.472 E0.01687
G1 X215.191 Y44.869 E0.10681
G1 X215.726 Y44.869 E0.01687
G1 X212.943 Y42.086 E0.12399
G1 X212.943 Y41.550 E0.01687
G1 X216.262 Y44.869 E0.14786
G1 X216.798 Y44.869 E0.01687
G1 X212.943 Y41.014 E0.17172
G1 X212.943 Y40.479 E0.01687
G1 X217.333 Y44.869 E0.19558
G1 X217.869 Y44.869 E0.01687
G1 X212.943 Y39.943 E0.21945
G1 X212.943 Y39.822 E0.00382
G1 X213.357 Y39.822 E0.01305
G1 X218.405 Y44.869 E0.22485
G1 X218.941 Y44.869 E0.01687
G1 X213.893 Y39.822 E0.22485
G1 X214.428 Y39.822 E0.01687
G1 X219.476 Y44.869 E0.22485
G1 X220.012 Y44.869 E0.01687
G1 X214.964 Y39.822 E0.22485
G1 X215.500 Y39.822 E0.01687
G1 X220.548 Y44.869 E0.22485
M73 P1 R134
G1 X221.083 Y44.869 E0.01687
G1 X216.036 Y39.822 E0.22485
M73 Q1 S135
G1 X216.571 Y39.822 E0.01687
G1 X221.619 Y44.869 E0.22485
G1 X222.155 Y44.869 E0.01687
G1 X217.107 Y39.822 E0.22485
G1 X217.643 Y39.822 E0.01687
G1 X222.691 Y44.869 E0.22485
G1 X223.226 Y44.869 E0.01687
G1 X218.178 Y39.822 E0.22485
G1 X218.714 Y39.822 E0.01687
G1 X223.762 Y44.869 E0.22485
G1 X224.298 Y44.869 E0.01687
G1 X219.250 Y39.822 E0.22485
G1 X219.786 Y39.822 E0.01687
G1 X224.833 Y44.869 E0.22485
G1 X225.369 Y44.869 E0.01687
G1 X220.321 Y39.822 E0.22485
G1 X220.857 Y39.822 E0.01687
G1 X225.905 Y44.869 E0.22485
G1 X226.440 Y44.869 E0.01687
G1 X221.393 Y39.822 E0.22485
G1 X221.928 Y39.822 E0.01687
G1 X226.976 Y44.869 E0.22485
G1 X227.512 Y44.869 E0.01687
G1 X222.464 Y39.822 E0.22485
G1 X223.000 Y39.822 E0.01687
G1 X228.048 Y44.869 E0.22485
G1 X228.583 Y44.869 E0.01687
G1 X223.536 Y39.822 E0.22485
G1 X224.071 Y39.822 E0.01687
G1 X229.119 Y44.869 E0.22485
G1 X229.655 Y44.869 E0.01687
G1 X224.607 Y39.822 E0.22485
G1 X225.143 Y39.822 E0.01687
G1 X230.190 Y44.869 E0.22485
G1 X230.726 Y44.869 E0.01687
G1 X225.678 Y39.822 E0.22485
G1 X226.214 Y39.822 E0.01687
G1 X231.262 Y44.869 E0.22485
G1 X231.798 Y44.869 E0.01687
G1 X226.750 Y39.822 E0.22485
G1 X227.286 Y39.822 E0.01687
G1 X232.333 Y44.869 E0.22485
G1 X232.869 Y44.869 E0.01687
G1 X227.821 Y39.822 E0.22485
G1 X228.357 Y39.822 E0.01687
G1 X233.405 Y44.869 E0.22485
G1 X233.940 Y44.869 E0.01687
G1 X228.893 Y39.822 E0.22485
G1 X229.428 Y39.822 E0.01687
G1 X234.476 Y44.869 E0.22485
G1 X235.012 Y44.869 E0.01687
G1 X229.964 Y39.822 E0.22485
G1 X230.500 Y39.822 E0.01687
G1 X235.548 Y44.869 E0.22485
G1 X236.083 Y44.869 E0.01687
G1 X231.036 Y39.822 E0.22485
G1 X231.571 Y39.822 E0.01687
G1 X236.619 Y44.869 E0.22485
G1 X237.155 Y44.869 E0.01687
G1 X232.107 Y39.822 E0.22485
G1 X232.643 Y39.822 E0.01687
G1 X237.690 Y44.869 E0.22485
G1 X238.226 Y44.869 E0.01687
G1 X233.178 Y39.822 E0.22485
G1 X233.714 Y39.822 E0.01687
G1 X238.762 Y44.869 E0.22485
G1 X239.298 Y44.869 E0.01687
G1 X234.250 Y39.822 E0.22485
G1 X234.786 Y39.822 E0.01687
G1 X239.833 Y44.869 E0.22485
G1 X240.369 Y44.869 E0.01687
G1 X235.321 Y39.822 E0.22485
G1 X235.857 Y39.822 E0.01687
G1 X240.905 Y44.869 E0.22485
G1 X241.440 Y44.869 E0.01687
G1 X236.393 Y39.822 E0.22485
G1 X236.928 Y39.822 E0.01687
G1 X241.440 Y44.334 E0.20099
G1 X241.440 Y43.798 E0.01687
G1 X237.464 Y39.822 E0.17713
G1 X238.000 Y39.822 E0.01687
G1 X241.440 Y43.262 E0.15326
G1 X241.440 Y42.727 E0.01687
G1 X238.535 Y39.822 E0.12940
G1 X238.843 Y39.822 E0.00968
G1 X238.843 Y39.593 E0.00720
G1 X241.440 Y42.191 E0.11572
G1 X241.440 Y41.655 E0.01687
G1 X238.843 Y39.057 E0.11572
G1 X238.843 Y38.522 E0.01687
G1 X241.440 Y41.119 E0.11572
G1 X241.440 Y40.584 E0.01687
G1 X238.843 Y37.986 E0.11572
G1 X238.843 Y37.450 E0.01687
G1 X241.440 Y40.048 E0.11572
G1 X241.440 Y39.512 E0.01687
G1 X238.843 Y36.914 E0.11572
G1 X238.843 Y36.379 E0.01687
G1 X241.440 Y38.977 E0.11572
G1 X241.440 Y38.441 E0.01687
G1 X238.843 Y35.843 E0.11572
G1 X238.843 Y35.307 E0.01687
G1 X241.440 Y37.905 E0.11572
G1 X241.440 Y37.369 E0.01687
G1 X238.843 Y34.772 E0.11572
G1 X238.843 Y34.236 E0.01687
G1 X241.440 Y36.834 E0.11572
G1 X241.440 Y36.298 E0.01687
G1 X238.843 Y33.700 E0.11572
G1 X238.843 Y33.165 E0.01687
G1 X241.440 Y35.762 E0.11572
G1 X241.440 Y35.227 E0.01687
G1 X238.843 Y32.629 E0.11572
G1 X238.843 Y32.093 E0.01687
G1 X241.440 Y34.691 E0.11572
G1 X241.440 Y34.155 E0.01687
G1 X238.843 Y31.557 E0.11572
G1 X238.843 Y31.022 E0.01687
G1 X241.440 Y33.619 E0.11572
G1 X241.440 Y33.084 E0.01687
G1 X238.843 Y30.486 E0.11572
G1 X238.843 Y29.950 E0.01687
G1 X241.440 Y32.548 E0.11572
G1 X241.440 Y32.012 E0.01687
G1 X238.843 Y29.415 E0.11572
G1 X238.843 Y28.879 E0.01687
G1 X241.440 Y31.477 E0.11572
G1 X241.440 Y30.941 E0.01687
G1 X238.843 Y28.343 E0.11572
G1 X238.843 Y27.807 E0.01687
G1 X241.440 Y30.405 E0.11572
G1 X241.440 Y29.869 E0.01687
G1 X238.843 Y27.272 E0.11572
G1 X238.843 Y26.736 E0.01687
G1 X241.440 Y29.334 E0.11572
G1 X241.440 Y28.798 E0.01687
G1 X238.843 Y26.200 E0.11572
G1 X238.843 Y25.665 E0.01687
G1 X241.440 Y28.262 E0.11572
G1 X241.440 Y27.727 E0.01687
G1 X238.843 Y25.129 E0.11572
G1 X238.843 Y24.593 E0.01687
G1 X241.440 Y27.191 E0.11572
G1 X241.440 Y26.655 E0.01687
G1 X238.843 Y24.057 E0.11572
G1 X238.843 Y23.522 E0.01687
G1 X241.440 Y26.119 E0.11572
G1 X241.440 Y25.584 E0.01687
G1 X238.843 Y22.986 E0.11572
G1 X238.843 Y22.450 E0.01687
G1 X241.440 Y25.048 E0.11572
G1 X241.440 Y24.512 E0.01687
G1 X238.843 Y21.915 E0.11572
G1 X238.843 Y21.379 E0.01687
G1 X241.440 Y23.977 E0.11572
G1 X241.440 Y23.441 E0.01687
G1 X238.843 Y20.843 E0.11572
G1 X238.843 Y20.307 E0.01687
G1 X241.440 Y22.905 E0.11572
G1 X241.440 Y22.370 E0.01687
G1 X238.843 Y19.772 E0.11572
G1 X238.843 Y19.236 E0.01687
G1 X241.610 Y22.003 E0.12328
;WIPE_START
G1 F8640.000
G1 X239.283 Y19.676 E-0.76000
;WIPE_END
G1 E-0.04000 F2100.000
G1 Z0.800 F10800.000
G1 X241.610 Y13.968
G1 Z0.200
G1 E0.80000 F2100.000
G1 F1200.000
G1 X241.014 Y13.372 E0.02656
G1 X240.478 Y13.372 E0.01687
G1 X241.440 Y14.334 E0.04286
G1 X241.440 Y14.870 E0.01687
G1 X239.942 Y13.372 E0.06673
G1 X239.407 Y13.372 E0.01687
G1 X241.440 Y15.405 E0.09059
G1 X241.440 Y15.941 E0.01687
G1 X238.871 Y13.372 E0.11445
G1 X238.335 Y13.372 E0.01687
G1 X241.440 Y16.477 E0.13832
G1 X241.440 Y17.012 E0.01687
G1 X237.800 Y13.372 E0.16218
G1 X237.264 Y13.372 E0.01687
G1 X241.440 Y17.548 E0.18604
G1 X241.440 Y18.084 E0.01687
G1 X236.728 Y13.372 E0.20991
G1 X236.192 Y13.372 E0.01687
G1 X241.440 Y18.620 E0.23377
G1 X241.440 Y19.155 E0.01687
G1 X235.657 Y13.372 E0.25763
G1 X235.121 Y13.372 E0.01687
G1 X241.440 Y19.691 E0.28149
G1 X241.440 Y20.227 E0.01687
G1 X234.585 Y13.372 E0.30536
G1 X234.050 Y13.372 E0.01687
G1 X241.440 Y20.762 E0.32922
G1 X241.440 Y21.298 E0.01687
G1 X233.514 Y13.372 E0.35308
G1 X232.978 Y13.372 E0.01687
G1 X238.026 Y18.419 E0.22485
G1 X237.490 Y18.419 E0.01687
G1 X232.443 Y13.372 E0.22485
G1 X231.907 Y13.372 E0.01687
G1 X236.955 Y18.419 E0.22485
G1 X236.419 Y18.419 E0.01687
G1 X231.371 Y13.372 E0.22485
G1 X230.835 Y13.372 E0.01687
G1 X235.883 Y18.419 E0.22485
G1 X235.347 Y18.419 E0.01687
G1 X230.300 Y13.372 E0.22485
G1 X229.764 Y13.372 E0.01687
G1 X234.812 Y18.419 E0.22485
M73 P1 R133
G1 X234.276 Y18.419 E0.01687
G1 X229.228 Y13.372 E0.22485
G1 X228.693 Y13.372 E0.01687
G1 X233.740 Y18.419 E0.22485
G1 X233.205 Y18.419 E0.01687
G1 X228.157 Y13.372 E0.22485
G1 X227.621 Y13.372 E0.01687
G1 X232.669 Y18.419 E0.22485
G1 X232.133 Y18.419 E0.01687
G1 X227.085 Y13.372 E0.22485
G1 X226.550 Y13.372 E0.01687
G1 X231.597 Y18.419 E0.22485
G1 X231.062 Y18.419 E0.01687
G1 X226.014 Y13.372 E0.22485
G1 X225.478 Y13.372 E0.01687
G1 X230.526 Y18.419 E0.22485
G1 X229.990 Y18.419 E0.01687
G1 X224.943 Y13.372 E0.22485
G1 X224.407 Y13.372 E0.01687
G1 X229.455 Y18.419 E0.22485
G1 X228.919 Y18.419 E0.01687
G1 X223.871 Y13.372 E0.22485
G1 X223.335 Y13.372 E0.01687
G1 X228.383 Y18.419 E0.22485
G1 X227.847 Y18.419 E0.01687
G1 X222.800 Y13.372 E0.22485
G1 X222.264 Y13.372 E0.01687
G1 X227.312 Y18.419 E0.22485
G1 X226.776 Y18.419 E0.01687
G1 X221.728 Y13.372 E0.22485
G1 X221.193 Y13.372 E0.01687
G1 X226.240 Y18.419 E0.22485
G1 X225.705 Y18.419 E0.01687
G1 X220.657 Y13.372 E0.22485
G1 X220.121 Y13.372 E0.01687
G1 X225.169 Y18.419 E0.22485
G1 X224.633 Y18.419 E0.01687
G1 X219.585 Y13.372 E0.22485
G1 X219.050 Y13.372 E0.01687
G1 X224.097 Y18.419 E0.22485
G1 X223.562 Y18.419 E0.01687
G1 X218.514 Y13.372 E0.22485
G1 X217.978 Y13.372 E0.01687
G1 X223.026 Y18.419 E0.22485
G1 X222.490 Y18.419 E0.01687
G1 X217.443 Y13.372 E0.22485
G1 X216.907 Y13.372 E0.01687
G1 X221.955 Y18.419 E0.22485
G1 X221.419 Y18.419 E0.01687
G1 X216.371 Y13.372 E0.22485
G1 X215.835 Y13.372 E0.01687
G1 X220.883 Y18.419 E0.22485
G1 X220.348 Y18.419 E0.01687
G1 X215.300 Y13.372 E0.22485
G1 X214.764 Y13.372 E0.01687
G1 X219.812 Y18.419 E0.22485
G1 X219.276 Y18.419 E0.01687
G1 X214.228 Y13.372 E0.22485
G1 X213.693 Y13.372 E0.01687
G1 X218.740 Y18.419 E0.22485
G1 X218.205 Y18.419 E0.01687
G1 X213.157 Y13.372 E0.22485
G1 X212.621 Y13.372 E0.01687
M73 Q1 S134
G1 X217.669 Y18.419 E0.22485
G1 X217.133 Y18.419 E0.01687
G1 X212.085 Y13.372 E0.22485
G1 X211.550 Y13.372 E0.01687
G1 X216.598 Y18.419 E0.22485
G1 X216.062 Y18.419 E0.01687
G1 X211.014 Y13.372 E0.22485
G1 X210.478 Y13.372 E0.01687
G1 X215.526 Y18.419 E0.22485
G1 X214.990 Y18.419 E0.01687
G1 X209.943 Y13.372 E0.22485
G1 X209.407 Y13.372 E0.01687
G1 X214.455 Y18.419 E0.22485
G1 X213.919 Y18.419 E0.01687
G1 X212.943 Y17.443 E0.04349
