; generated by PrusaSlicer 2.3.1+win64 on 2023-08-02 at 20:09:20 UTC

; 

; external perimeters extrusion width = 0.45mm
; perimeters extrusion width = 0.45mm
; infill extrusion width = 0.45mm
; solid infill extrusion width = 0.45mm
; top infill extrusion width = 0.40mm
; first layer extrusion width = 0.42mm

M73 P0 R143
M73 Q0 S143
M201 X1000 Y1000 Z1000 E5000 ; sets maximum accelerations, mm/sec^2
M203 X200 Y200 Z12 E120 ; sets maximum feedrates, mm/sec
M204 P1250 R1250 T1250 ; sets acceleration (P, T) and retract acceleration (R), mm/sec^2
M205 X8.00 Y8.00 Z0.40 E1.50 ; sets the jerk limits, mm/sec
M205 S0 T0 ; sets the minimum extruding and travel feed rate, mm/sec
M107
;TYPE:Custom
M115 U3.8.0 ; tell printer latest fw version
G90 ; use absolute coordinates
M83 ; extruder relative mode
M104 S215 ; set extruder temp
M140 S67 ; set bed temp
M190 S67 ; wait for bed temp
M109 S215 ; wait for extruder temp
G28 W ; home all without mesh bed level
G80 ; mesh bed leveling
G1 Y-3.0 F1000.0 ; go outside print area
G92 E0.0
G1 X60.0 E9.0 F1000.0 ; intro line
G1 X100.0 E12.5 F1000.0 ; intro line
G92 E0.0
M221 S95
G21 ; set units to millimeters
G90 ; use absolute coordinates
M83 ; use relative distances for extrusion
M900 K0.05 ; Filament gcode LA 1.5
M900 K30 ; Filament gcode LA 1.0
;LAYER_CHANGE
;Z:0.2
;HEIGHT:0.2
;BEFORE_LAYER_CHANGE
G92 E0.0
;0.2


G1 E-0.80000 F2100.000
G1 Z0.600 F10800.000
;AFTER_LAYER_CHANGE
;0.2
G1 X149.558 Y80.211
M73 P0 R142
G1 Z0.200
G1 E0.80000 F2100.000
M204 S1000
;TYPE:Perimeter
;WIDTH:0.42
G1 F1200.000
G1 X150.366 Y80.211 E0.02532
G1 X150.366 Y96.820 E0.52077
G1 X149.558 Y96.820 E0.02532
G1 X149.558 Y80.271 E0.51889
G1 X149.181 Y79.833 F10800.000
G1 F1200.000
G1 X150.743 Y79.833 E0.04897
G1 X150.743 Y97.197 E0.54442
G1 X149.181 Y97.197 E0.04897
G1 X149.181 Y79.893 E0.54253
G1 X148.804 Y79.456 F10800.000
G1 F1200.000
G1 X151.120 Y79.456 E0.07262
G1 X151.120 Y97.574 E0.56806
G1 X148.804 Y97.574 E0.07262
G1 X148.804 Y79.516 E0.56618
G1 X148.427 Y79.079 F10800.000
G1 F1200.000
G1 X151.497 Y79.079 E0.09626
G1 X151.497 Y97.951 E0.59171
G1 X148.427 Y97.951 E0.09626
G1 X148.427 Y79.139 E0.58983
G1 X148.050 Y78.702 F10800.000
G1 F1200.000
G1 X151.874 Y78.702 E0.11991
G1 X151.874 Y98.328 E0.61535
G1 X148.050 Y98.328 E0.11991
G1 X148.050 Y78.762 E0.61347
G1 X147.673 Y78.325 F10800.000
;TYPE:External perimeter
G1 F1200.000
G1 X152.251 Y78.325 E0.14355
G1 X152.251 Y98.705 E0.63900
G1 X147.673 Y98.705 E0.14355
G1 X147.673 Y78.385 E0.63712
G1 X148.033 Y78.499 F10800.000
;WIPE_START
G1 F8640.000
G1 X150.964 Y78.342 E-0.76000
;WIPE_END
G1 E-0.04000 F2100.000
G1 Z0.800 F10800.000
G1 X149.671 Y95.920
G1 Z0.200
G1 E0.80000 F2100.000
;TYPE:Solid infill
;WIDTH:0.431596
G1 F1200.000
G1 X150.083 Y96.332 E0.01882
G1 X150.083 Y95.782 E0.01776
G1 X149.841 Y95.540 E0.01106
G1 X149.841 Y94.990 E0.01776
G1 X150.083 Y95.232 E0.01106
G1 X150.083 Y94.683 E0.01776
G1 X149.841 Y94.441 E0.01106
G1 X149.841 Y93.891 E0.01776
G1 X150.083 Y94.133 E0.01106
G1 X150.083 Y93.583 E0.01776
G1 X149.841 Y93.341 E0.01106
G1 X149.841 Y92.792 E0.01776
G1 X150.083 Y93.034 E0.01106
G1 X150.083 Y92.484 E0.01776
G1 X149.841 Y92.242 E0.01106
G1 X149.841 Y91.692 E0.01776
G1 X150.083 Y91.934 E0.01106
G1 X150.083 Y91.385 E0.01776
G1 X149.841 Y91.143 E0.01106
G1 X149.841 Y90.593 E0.01776
G1 X150.083 Y90.835 E0.01106
G1 X150.083 Y90.285 E0.01776
G1 X149.841 Y90.043 E0.01106
G1 X149.841 Y89.493 E0.01776
G1 X150.083 Y89.736 E0.01106
G1 X150.083 Y89.186 E0.01776
G1 X149.841 Y88.944 E0.01106
G1 X149.841 Y88.394 E0.01776
G1 X150.083 Y88.636 E0.01106
G1 X150.083 Y88.087 E0.01776
G1 X149.841 Y87.844 E0.01106
G1 X149.841 Y87.295 E0.01776
G1 X150.083 Y87.537 E0.01106
G1 X150.083 Y86.987 E0.01776
G1 X149.841 Y86.745 E0.01106
G1 X149.841 Y86.195 E0.01776
G1 X150.083 Y86.438 E0.01106
G1 X150.083 Y85.888 E0.01776
G1 X149.841 Y85.646 E0.01106
G1 X149.841 Y85.096 E0.01776
G1 X150.083 Y85.338 E0.01106
G1 X150.083 Y84.789 E0.01776
G1 X149.841 Y84.546 E0.01106
G1 X149.841 Y83.997 E0.01776
G1 X150.083 Y84.239 E0.01106
G1 X150.083 Y83.689 E0.01776
G1 X149.841 Y83.447 E0.01106
G1 X149.841 Y82.897 E0.01776
G1 X150.083 Y83.139 E0.01106
G1 X150.083 Y82.590 E0.01776
G1 X149.841 Y82.348 E0.01106
G1 X149.841 Y81.798 E0.01776
G1 X150.083 Y82.040 E0.01106
G1 X150.083 Y81.490 E0.01776
G1 X149.841 Y81.248 E0.01106
G1 X149.841 Y80.699 E0.01776
G1 X150.253 Y81.110 E0.01882
;WIPE_START
G1 F8640.000
G1 X149.841 Y80.699 E-0.13445
G1 X149.841 Y81.248 E-0.12692
G1 X150.083 Y81.490 E-0.07904
G1 X150.083 Y82.040 E-0.12692
G1 X149.841 Y81.798 E-0.07904
G1 X149.841 Y82.348 E-0.12692
G1 X150.083 Y82.590 E-0.07904
G1 X150.083 Y82.623 E-0.00767
;WIPE_END
G1 E-0.04000 F2100.000
G1 Z0.800 F10800.000
G1 X155.558 Y80.211
G1 Z0.200
G1 E0.80000 F2100.000
;TYPE:Perimeter
;WIDTH:0.42
G1 F1200.000
G1 X156.366 Y80.211 E0.02532
G1 X156.366 Y96.820 E0.52077
G1 X155.558 Y96.820 E0.02532
G1 X155.558 Y80.271 E0.51889
G1 X155.181 Y79.833 F10800.000
G1 F1200.000
G1 X156.743 Y79.833 E0.04897
G1 X156.743 Y97.197 E0.54442
G1 X155.181 Y97.197 E0.04897
G1 X155.181 Y79.893 E0.54253
G1 X154.804 Y79.456 F10800.000
G1 F1200.000
G1 X157.120 Y79.456 E0.07262
G1 X157.120 Y97.574 E0.56806
G1 X154.804 Y97.574 E0.07262
G1 X154.804 Y79.516 E0.56618
G1 X154.427 Y79.079 F10800.000
G1 F1200.000
G1 X157.497 Y79.079 E0.09626
G1 X157.497 Y97.951 E0.59171
G1 X154.427 Y97.951 E0.09626
G1 X154.427 Y79.139 E0.58983
G1 X154.050 Y78.702 F10800.000
G1 F1200.000
G1 X157.874 Y78.702 E0.11991
G1 X157.874 Y98.328 E0.61535
G1 X154.050 Y98.328 E0.11991
G1 X154.050 Y78.762 E0.61347
G1 X153.673 Y78.325 F10800.000
;TYPE:External perimeter
G1 F1200.000
G1 X158.251 Y78.325 E0.14355
G1 X158.251 Y98.705 E0.63900
G1 X153.673 Y98.705 E0.14355
G1 X153.673 Y78.385 E0.63712
G1 X154.033 Y78.499 F10800.000
;WIPE_START
G1 F8640.000
G1 X156.964 Y78.342 E-0.76000
;WIPE_END
G1 E-0.04000 F2100.000
G1 Z0.800 F10800.000
G1 X155.671 Y95.920
G1 Z0.200
G1 E0.80000 F2100.000
;TYPE:Solid infill
;WIDTH:0.431596
G1 F1200.000
G1 X156.083 Y96.332 E0.01882
G1 X156.083 Y95.782 E0.01776
G1 X155.841 Y95.540 E0.01106
G1 X155.841 Y94.990 E0.01776
G1 X156.083 Y95.232 E0.01106
G1 X156.083 Y94.683 E0.01776
G1 X155.841 Y94.441 E0.01106
G1 X155.841 Y93.891 E0.01776
G1 X156.083 Y94.133 E0.01106
G1 X156.083 Y93.583 E0.01776
G1 X155.841 Y93.341 E0.01106
G1 X155.841 Y92.792 E0.01776
G1 X156.083 Y93.034 E0.01106
G1 X156.083 Y92.484 E0.01776
G1 X155.841 Y92.242 E0.01106
G1 X155.841 Y91.692 E0.01776
G1 X156.083 Y91.934 E0.01106
G1 X156.083 Y91.385 E0.01776
G1 X155.841 Y91.143 E0.01106
G1 X155.841 Y90.593 E0.01776
G1 X156.083 Y90.835 E0.01106
G1 X156.083 Y90.285 E0.01776
G1 X155.841 Y90.043 E0.01106
G1 X155.841 Y89.493 E0.01776
G1 X156.083 Y89.736 E0.01106
G1 X156.083 Y89.186 E0.01776
G1 X155.841 Y88.944 E0.01106
G1 X155.841 Y88.394 E0.01776
G1 X156.083 Y88.636 E0.01106
G1 X156.083 Y88.087 E0.01776
G1 X155.841 Y87.844 E0.01106
G1 X155.841 Y87.295 E0.01776
G1 X156.083 Y87.537 E0.01106
G1 X156.083 Y86.987 E0.01776
G1 X155.841 Y86.745 E0.01106
G1 X155.841 Y86.195 E0.01776
G1 X156.083 Y86.438 E0.01106
G1 X156.083 Y85.888 E0.01776
G1 X155.841 Y85.646 E0.01106
G1 X155.841 Y85.096 E0.01776
G1 X156.083 Y85.338 E0.01106
G1 X156.083 Y84.789 E0.01776
G1 X155.841 Y84.546 E0.01106
G1 X155.841 Y83.997 E0.01776
G1 X156.083 Y84.239 E0.01106
G1 X156.083 Y83.689 E0.01776
G1 X155.841 Y83.447 E0.01106
G1 X155.841 Y82.897 E0.01776
G1 X156.083 Y83.139 E0.01106
G1 X156.083 Y82.590 E0.01776
G1 X155.841 Y82.348 E0.01106
G1 X155.841 Y81.798 E0.01776
G1 X156.083 Y82.040 E0.01106
G1 X156.083 Y81.490 E0.01776
G1 X155.841 Y81.248 E0.01106
G1 X155.841 Y80.699 E0.01776
G1 X156.253 Y81.110 E0.01882
;WIPE_START
G1 F8640.000
G1 X155.841 Y80.699 E-0.13445
G1 X155.841 Y81.248 E-0.12692
G1 X156.083 Y81.490 E-0.07904
G1 X156.083 Y82.040 E-0.12692
G1 X155.841 Y81.798 E-0.07904
G1 X155.841 Y82.348 E-0.12692
G1 X156.083 Y82.590 E-0.07904
G1 X156.083 Y82.623 E-0.00767
;WIPE_END
G1 E-0.04000 F2100.000
G1 Z0.800 F10800.000
G1 X161.558 Y80.211
G1 Z0.200
G1 E0.80000 F2100.000
;TYPE:Perimeter
;WIDTH:0.42
G1 F1200.000
G1 X162.366 Y80.211 E0.02532
G1 X162.366 Y96.820 E0.52077
G1 X161.558 Y96.820 E0.02532
G1 X161.558 Y80.271 E0.51889
G1 X161.181 Y79.833 F10800.000
G1 F1200.000
G1 X162.743 Y79.833 E0.04897
G1 X162.743 Y97.197 E0.54442
G1 X161.181 Y97.197 E0.04897
G1 X161.181 Y79.893 E0.54253
M73 Q0 S142
G1 X160.804 Y79.456 F10800.000
G1 F1200.000
G1 X163.120 Y79.456 E0.07262
G1 X163.120 Y97.574 E0.56806
G1 X160.804 Y97.574 E0.07262
G1 X160.804 Y79.516 E0.56618
G1 X160.427 Y79.079 F10800.000
G1 F1200.000
G1 X163.497 Y79.079 E0.09626
G1 X163.497 Y97.951 E0.59171
G1 X160.427 Y97.951 E0.09626
G1 X160.427 Y79.139 E0.58983
G1 X160.050 Y78.702 F10800.000
G1 F1200.000
G1 X163.874 Y78.702 E0.11991
G1 X163.874 Y98.328 E0.61535
G1 X160.050 Y98.328 E0.11991
G1 X160.050 Y78.762 E0.61347
G1 X159.673 Y78.325 F10800.000
;TYPE:External perimeter
G1 F1200.000
G1 X164.251 Y78.325 E0.14355
G1 X164.251 Y98.705 E0.63900
G1 X159.673 Y98.705 E0.14355
G1 X159.673 Y78.385 E0.63712
G1 X160.033 Y78.499 F10800.000
;WIPE_START
G1 F8640.000
G1 X162.964 Y78.342 E-0.76000
;WIPE_END
G1 E-0.04000 F2100.000
G1 Z0.800 F10800.000
G1 X161.671 Y95.920
G1 Z0.200
G1 E0.80000 F2100.000
;TYPE:Solid infill
;WIDTH:0.431596
G1 F1200.000
G1 X162.083 Y96.332 E0.01882
G1 X162.083 Y95.782 E0.01776
G1 X161.841 Y95.540 E0.01106
G1 X161.841 Y94.990 E0.01776
G1 X162.083 Y95.232 E0.01106
G1 X162.083 Y94.683 E0.01776
G1 X161.841 Y94.441 E0.01106
G1 X161.841 Y93.891 E0.01776
G1 X162.083 Y94.133 E0.01106
G1 X162.083 Y93.583 E0.01776
G1 X161.841 Y93.341 E0.01106
G1 X161.841 Y92.792 E0.01776
G1 X162.083 Y93.034 E0.01106
G1 X162.083 Y92.484 E0.01776
G1 X161.841 Y92.242 E0.01106
G1 X161.841 Y91.692 E0.01776
G1 X162.083 Y91.934 E0.01106
G1 X162.083 Y91.385 E0.01776
G1 X161.841 Y91.143 E0.01106
G1 X161.841 Y90.593 E0.01776
G1 X162.083 Y90.835 E0.01106
G1 X162.083 Y90.285 E0.01776
G1 X161.841 Y90.043 E0.01106
G1 X161.841 Y89.493 E0.01776
G1 X162.083 Y89.736 E0.01106
G1 X162.083 Y89.186 E0.01776
G1 X161.841 Y88.944 E0.01106
G1 X161.841 Y88.394 E0.01776
G1 X162.083 Y88.636 E0.01106
G1 X162.083 Y88.087 E0.01776
G1 X161.841 Y87.844 E0.01106
G1 X161.841 Y87.295 E0.01776
G1 X162.083 Y87.537 E0.01106
G1 X162.083 Y86.987 E0.01776
G1 X161.841 Y86.745 E0.01106
G1 X161.841 Y86.195 E0.01776
G1 X162.083 Y86.438 E0.01106
G1 X162.083 Y85.888 E0.01776
G1 X161.841 Y85.646 E0.01106
G1 X161.841 Y85.096 E0.01776
G1 X162.083 Y85.338 E0.01106
G1 X162.083 Y84.789 E0.01776
G1 X161.841 Y84.546 E0.01106
G1 X161.841 Y83.997 E0.01776
G1 X162.083 Y84.239 E0.01106
G1 X162.083 Y83.689 E0.01776
G1 X161.841 Y83.447 E0.01106
G1 X161.841 Y82.897 E0.01776
G1 X162.083 Y83.139 E0.01106
G1 X162.083 Y82.590 E0.01776
G1 X161.841 Y82.348 E0.01106
G1 X161.841 Y81.798 E0.01776
G1 X162.083 Y82.040 E0.01106
G1 X162.083 Y81.490 E0.01776
G1 X161.841 Y81.248 E0.01106
G1 X161.841 Y80.699 E0.01776
G1 X162.253 Y81.110 E0.01882
;WIPE_START
G1 F8640.000
G1 X161.841 Y80.699 E-0.13445
G1 X161.841 Y81.248 E-0.12692
G1 X162.083 Y81.490 E-0.07904
G1 X162.083 Y82.040 E-0.12692
G1 X161.841 Y81.798 E-0.07904
G1 X161.841 Y82.348 E-0.12692
G1 X162.083 Y82.590 E-0.07904
G1 X162.083 Y82.623 E-0.00767
;WIPE_END
G1 E-0.04000 F2100.000
G1 Z0.800 F10800.000
G1 X167.558 Y80.211
G1 Z0.200
G1 E0.80000 F2100.000
;TYPE:Perimeter
;WIDTH:0.42
G1 F1200.000
G1 X168.366 Y80.211 E0.02532
G1 X168.366 Y96.820 E0.52077
G1 X167.558 Y96.820 E0.02532
G1 X167.558 Y80.271 E0.51889
G1 X167.181 Y79.833 F10800.000
G1 F1200.000
G1 X168.743 Y79.833 E0.04897
G1 X168.743 Y97.197 E0.54442
G1 X167.181 Y97.197 E0.04897
G1 X167.181 Y79.893 E0.54253
G1 X166.804 Y79.456 F10800.000
G1 F1200.000
G1 X169.120 Y79.456 E0.07262
G1 X169.120 Y97.574 E0.56806
G1 X166.804 Y97.574 E0.07262
G1 X166.804 Y79.516 E0.56618
G1 X166.427 Y79.079 F10800.000
G1 F1200.000
G1 X169.497 Y79.079 E0.09626
G1 X169.497 Y97.951 E0.59171
G1 X166.427 Y97.951 E0.09626
G1 X166.427 Y79.139 E0.58983
G1 X166.050 Y78.702 F10800.000
G1 F1200.000
G1 X169.874 Y78.702 E0.11991
G1 X169.874 Y98.328 E0.61535
G1 X166.050 Y98.328 E0.11991
G1 X166.050 Y78.762 E0.61347
G1 X165.673 Y78.325 F10800.000
;TYPE:External perimeter
G1 F1200.000
G1 X170.251 Y78.325 E0.14355
G1 X170.251 Y98.705 E0.63900
G1 X165.673 Y98.705 E0.14355
G1 X165.673 Y78.385 E0.63712
M73 P0 R141
G1 X166.033 Y78.499 F10800.000
;WIPE_START
G1 F8640.000
G1 X168.964 Y78.342 E-0.76000
;WIPE_END
G1 E-0.04000 F2100.000
G1 Z0.800 F10800.000
G1 X167.671 Y95.920
G1 Z0.200
G1 E0.80000 F2100.000
;TYPE:Solid infill
;WIDTH:0.431596
G1 F1200.000
G1 X168.083 Y96.332 E0.01882
G1 X168.083 Y95.782 E0.01776
G1 X167.841 Y95.540 E0.01106
G1 X167.841 Y94.990 E0.01776
G1 X168.083 Y95.232 E0.01106
G1 X168.083 Y94.683 E0.01776
G1 X167.841 Y94.441 E0.01106
G1 X167.841 Y93.891 E0.01776
G1 X168.083 Y94.133 E0.01106
G1 X168.083 Y93.583 E0.01776
G1 X167.841 Y93.341 E0.01106
G1 X167.841 Y92.792 E0.01776
G1 X168.083 Y93.034 E0.01106
G1 X168.083 Y92.484 E0.01776
G1 X167.841 Y92.242 E0.01106
G1 X167.841 Y91.692 E0.01776
G1 X168.083 Y91.934 E0.01106
G1 X168.083 Y91.385 E0.01776
G1 X167.841 Y91.143 E0.01106
G1 X167.841 Y90.593 E0.01776
G1 X168.083 Y90.835 E0.01106
G1 X168.083 Y90.285 E0.01776
G1 X167.841 Y90.043 E0.01106
G1 X167.841 Y89.493 E0.01776
G1 X168.083 Y89.736 E0.01106
G1 X168.083 Y89.186 E0.01776
G1 X167.841 Y88.944 E0.01106
G1 X167.841 Y88.394 E0.01776
G1 X168.083 Y88.636 E0.01106
G1 X168.083 Y88.087 E0.01776
G1 X167.841 Y87.844 E0.01106
G1 X167.841 Y87.295 E0.01776
G1 X168.083 Y87.537 E0.01106
G1 X168.083 Y86.987 E0.01776
G1 X167.841 Y86.745 E0.01106
G1 X167.841 Y86.195 E0.01776
G1 X168.083 Y86.438 E0.01106
G1 X168.083 Y85.888 E0.01776
G1 X167.841 Y85.646 E0.01106
G1 X167.841 Y85.096 E0.01776
G1 X168.083 Y85.338 E0.01106
G1 X168.083 Y84.789 E0.01776
G1 X167.841 Y84.546 E0.01106
G1 X167.841 Y83.997 E0.01776
G1 X168.083 Y84.239 E0.01106
G1 X168.083 Y83.689 E0.01776
G1 X167.841 Y83.447 E0.01106
G1 X167.841 Y82.897 E0.01776
G1 X168.083 Y83.139 E0.01106
G1 X168.083 Y82.590 E0.01776
G1 X167.841 Y82.348 E0.01106
G1 X167.841 Y81.798 E0.01776
G1 X168.083 Y82.040 E0.01106
G1 X168.083 Y81.490 E0.01776
G1 X167.841 Y81.248 E0.01106
G1 X167.841 Y80.699 E0.01776
G1 X168.253 Y81.110 E0.01882
;WIPE_START
G1 F8640.000
G1 X167.841 Y80.699 E-0.13445
G1 X167.841 Y81.248 E-0.12692
G1 X168.083 Y81.490 E-0.07904
G1 X168.083 Y82.040 E-0.12692
G1 X167.841 Y81.798 E-0.07904
G1 X167.841 Y82.348 E-0.12692
G1 X168.083 Y82.590 E-0.07904
G1 X168.083 Y82.623 E-0.00767
;WIPE_END
G1 E-0.04000 F2100.000
G1 Z0.800 F10800.000
G1 X173.558 Y80.211
G1 Z0.200
G1 E0.80000 F2100.000
;TYPE:Perimeter
;WIDTH:0.42
G1 F1200.000
G1 X174.366 Y80.211 E0.02532
G1 X174.366 Y96.820 E0.52077
G1 X173.558 Y96.820 E0.02532
G1 X173.558 Y80.271 E0.51889
G1 X173.181 Y79.833 F10800.000
G1 F1200.000
G1 X174.743 Y79.833 E0.04897
G1 X174.743 Y97.197 E0.54442
G1 X173.181 Y97.197 E0.04897
G1 X173.181 Y79.893 E0.54253
G1 X172.804 Y79.456 F10800.000
G1 F1200.000
G1 X175.120 Y79.456 E0.07262
G1 X175.120 Y97.574 E0.56806
G1 X172.804 Y97.574 E0.07262
G1 X172.804 Y79.516 E0.56618
G1 X172.427 Y79.079 F10800.000
G1 F1200.000
G1 X175.497 Y79.079 E0.09626
G1 X175.497 Y97.951 E0.59171
G1 X172.427 Y97.951 E0.09626
G1 X172.427 Y79.139 E0.58983
G1 X172.050 Y78.702 F10800.000
G1 F1200.000
G1 X175.874 Y78.702 E0.11991
G1 X175.874 Y98.328 E0.61535
G1 X172.050 Y98.328 E0.11991
G1 X172.050 Y78.762 E0.61347
G1 X171.673 Y78.325 F10800.000
;TYPE:External perimeter
G1 F1200.000
G1 X176.251 Y78.325 E0.14355
G1 X176.251 Y98.705 E0.63900
G1 X171.673 Y98.705 E0.14355
G1 X171.673 Y78.385 E0.63712
G1 X172.033 Y78.499 F10800.000
;WIPE_START
G1 F8640.000
G1 X174.964 Y78.342 E-0.76000
;WIPE_END
G1 E-0.04000 F2100.000
G1 Z0.800 F10800.000
G1 X173.671 Y95.920
G1 Z0.200
G1 E0.80000 F2100.000
;TYPE:Solid infill
;WIDTH:0.431596
G1 F1200.000
G1 X174.083 Y96.332 E0.01882
G1 X174.083 Y95.782 E0.01776
G1 X173.841 Y95.540 E0.01106
G1 X173.841 Y94.990 E0.01776
G1 X174.083 Y95.232 E0.01106
G1 X174.083 Y94.683 E0.01776
G1 X173.841 Y94.441 E0.01106
G1 X173.841 Y93.891 E0.01776
