; generated by PrusaSlicer 2.3.1+win64 on 2023-08-02 at 20:09:55 UTC

; 

; external perimeters extrusion width = 0.45mm
; perimeters extrusion width = 0.45mm
; infill extrusion width = 0.45mm
; solid infill extrusion width = 0.45mm
; top infill extrusion width = 0.40mm
; support material extrusion width = 0.35mm
; first layer extrusion width = 0.42mm

M73 P0 R137
M73 Q0 S141
M201 X1000 Y1000 Z1000 E5000 ; sets maximum accelerations, mm/sec^2
M203 X200 Y200 Z12 E120 ; sets maximum feedrates, mm/sec
M204 P1250 R1250 T1250 ; sets acceleration (P, T) and retract acceleration (R), mm/sec^2
M205 X8.00 Y8.00 Z0.40 E1.50 ; sets the jerk limits, mm/sec
M205 S0 T0 ; sets the minimum extruding and travel feed rate, mm/sec
M107
;TYPE:Custom
M115 U3.8.0 ; tell printer latest fw version
G90 ; use absolute coordinates
M83 ; extruder relative mode
M104 S215 ; set extruder temp
M140 S67 ; set bed temp
M190 S67 ; wait for bed temp
M109 S215 ; wait for extruder temp
G28 W ; home all without mesh bed level
G80 ; mesh bed leveling
G1 Y-3.0 F1000.0 ; go outside print area
G92 E0.0
G1 X60.0 E9.0 F1000.0 ; intro line
G1 X100.0 E12.5 F1000.0 ; intro line
G92 E0.0
M221 S95
G21 ; set units to millimeters
G90 ; use absolute coordinates
M83 ; use relative distances for extrusion
M900 K0.05 ; Filament gcode LA 1.5
M900 K30 ; Filament gcode LA 1.0
;LAYER_CHANGE
;Z:0.2
;HEIGHT:0.2
;BEFORE_LAYER_CHANGE
G92 E0.0
;0.2


G1 E-0.80000 F2100.000
G1 Z0.600 F10800.000
;AFTER_LAYER_CHANGE
;0.2
; printing object button_top.stl id:1 copy 0
G1 X47.335 Y14.720
G1 Z0.200
G1 E0.80000 F2100.000
M204 S1000
;TYPE:Support material
;WIDTH:0.42
G1 F1200.000
G1 X47.335 Y34.662 E0.62527
G1 X48.089 Y34.662 E0.02365
G1 X48.089 Y14.890 E0.61995
G1 X48.843 Y14.890 E0.02365
G1 X48.843 Y34.662 E0.61995
G1 X49.597 Y34.662 E0.02365
G1 X49.597 Y14.890 E0.61995
G1 X50.351 Y14.890 E0.02365
G1 X50.351 Y34.662 E0.61995
G1 X51.106 Y34.662 E0.02365
G1 X51.106 Y14.890 E0.61995
G1 X51.860 Y14.890 E0.02365
G1 X51.860 Y34.662 E0.61995
G1 X52.614 Y34.662 E0.02365
G1 X52.614 Y14.890 E0.61995
M73 Q0 S140
G1 X53.368 Y14.890 E0.02365
G1 X53.368 Y34.832 E0.62527
;WIPE_START
G1 F8640.000
G1 X53.368 Y31.541 E-0.76000
;WIPE_END
G1 E-0.04000 F2100.000
G1 Z0.800 F10800.000
G1 X85.043 Y34.832
G1 Z0.200
G1 E0.80000 F2100.000
G1 F1200.000
G1 X85.043 Y14.890 E0.62527
G1 X85.797 Y14.890 E0.02365
G1 X85.797 Y34.662 E0.61995
G1 X86.551 Y34.662 E0.02365
G1 X86.551 Y14.890 E0.61995
G1 X87.305 Y14.890 E0.02365
G1 X87.305 Y34.662 E0.61995
G1 X88.059 Y34.662 E0.02365
G1 X88.059 Y14.890 E0.61995
G1 X88.813 Y14.890 E0.02365
G1 X88.813 Y34.662 E0.61995
G1 X89.568 Y34.662 E0.02365
G1 X89.568 Y14.890 E0.61995
G1 X90.322 Y14.890 E0.02365
G1 X90.322 Y34.662 E0.61995
G1 X91.076 Y34.662 E0.02365
G1 X91.076 Y14.890 E0.61995
G1 X91.830 Y14.890 E0.02365
G1 X91.830 Y34.832 E0.62527
;WIPE_START
G1 F8640.000
G1 X91.830 Y31.541 E-0.76000
;WIPE_END
G1 E-0.04000 F2100.000
G1 Z0.800 F10800.000
G1 X83.676 Y37.989
G1 Z0.200
G1 E0.80000 F2100.000
;TYPE:Perimeter
G1 F1200.000
G1 X55.250 Y37.989 E0.89127
G1 X55.250 Y11.563 E0.82856
G1 X83.676 Y11.563 E0.89127
G1 X83.676 Y37.929 E0.82668
G1 X84.053 Y38.366 F10800.000
;TYPE:External perimeter
G1 F1200.000
G1 X54.873 Y38.366 E0.91492
G1 X54.873 Y11.186 E0.85221
G1 X84.053 Y11.186 E0.91492
G1 X84.053 Y38.306 E0.85033
G1 X83.666 Y38.267 F10800.000
;WIPE_START
G1 F8640.000
G1 X80.762 Y38.313 E-0.76000
;WIPE_END
G1 E-0.04000 F2100.000
G1 Z0.800 F10800.000
G1 X82.800 Y11.676
G1 Z0.200
G1 E0.80000 F2100.000
;TYPE:Solid infill
;WIDTH:0.420561
G1 F1200.000
G1 X83.393 Y12.270 E0.02637
G1 X83.393 Y12.804 E0.01677
G1 X82.435 Y11.846 E0.04255
G1 X81.901 Y11.846 E0.01677
G1 X83.393 Y13.338 E0.06627
G1 X83.393 Y13.872 E0.01677
G1 X81.367 Y11.846 E0.08998
G1 X80.833 Y11.846 E0.01677
G1 X83.393 Y14.406 E0.11370
G1 X83.393 Y14.941 E0.01677
G1 X80.299 Y11.846 E0.13742
G1 X79.765 Y11.846 E0.01677
G1 X83.393 Y15.475 E0.16113
G1 X83.393 Y16.009 E0.01677
G1 X79.231 Y11.846 E0.18485
G1 X78.697 Y11.846 E0.01677
G1 X83.393 Y16.543 E0.20857
G1 X83.393 Y17.077 E0.01677
G1 X78.163 Y11.846 E0.23228
G1 X77.629 Y11.846 E0.01677
G1 X83.393 Y17.611 E0.25600
G1 X83.393 Y18.145 E0.01677
G1 X77.095 Y11.846 E0.27972
G1 X76.561 Y11.846 E0.01677
G1 X83.393 Y18.679 E0.30343
G1 X83.393 Y19.213 E0.01677
G1 X76.027 Y11.846 E0.32715
G1 X75.492 Y11.846 E0.01677
G1 X83.393 Y19.747 E0.35087
G1 X83.393 Y20.281 E0.01677
G1 X74.958 Y11.846 E0.37458
G1 X74.424 Y11.846 E0.01677
G1 X83.393 Y20.815 E0.39830
G1 X83.393 Y21.349 E0.01677
G1 X73.890 Y11.846 E0.42201
G1 X73.356 Y11.846 E0.01677
G1 X83.393 Y21.883 E0.44573
G1 X83.393 Y22.417 E0.01677
G1 X72.822 Y11.846 E0.46945
G1 X72.288 Y11.846 E0.01677
G1 X83.393 Y22.952 E0.49316
G1 X83.393 Y23.486 E0.01677
G1 X71.754 Y11.846 E0.51688
G1 X71.220 Y11.846 E0.01677
G1 X83.393 Y24.020 E0.54060
G1 X83.393 Y24.554 E0.01677
G1 X70.686 Y11.846 E0.56431
G1 X70.152 Y11.846 E0.01677
G1 X83.393 Y25.088 E0.58803
G1 X83.393 Y25.622 E0.01677
G1 X69.618 Y11.846 E0.61175
G1 X69.084 Y11.846 E0.01677
G1 X83.393 Y26.156 E0.63546
G1 X83.393 Y26.690 E0.01677
G1 X68.550 Y11.846 E0.65918
G1 X68.016 Y11.846 E0.01677
G1 X83.393 Y27.224 E0.68290
G1 X83.393 Y27.758 E0.01677
G1 X67.482 Y11.846 E0.70661
M73 P0 R136
G1 X66.947 Y11.846 E0.01677
G1 X83.393 Y28.292 E0.73033
G1 X83.393 Y28.826 E0.01677
G1 X66.413 Y11.846 E0.75405
G1 X65.879 Y11.846 E0.01677
G1 X83.393 Y29.360 E0.77776
G1 X83.393 Y29.894 E0.01677
G1 X65.345 Y11.846 E0.80148
G1 X64.811 Y11.846 E0.01677
G1 X83.393 Y30.428 E0.82520
G1 X83.393 Y30.963 E0.01677
G1 X64.277 Y11.846 E0.84891
G1 X63.743 Y11.846 E0.01677
G1 X83.393 Y31.497 E0.87263
G1 X83.393 Y32.031 E0.01677
G1 X63.209 Y11.846 E0.89635
G1 X62.675 Y11.846 E0.01677
G1 X83.393 Y32.565 E0.92006
G1 X83.393 Y33.099 E0.01677
G1 X62.141 Y11.846 E0.94378
G1 X61.607 Y11.846 E0.01677
G1 X83.393 Y33.633 E0.96750
G1 X83.393 Y34.167 E0.01677
G1 X61.073 Y11.846 E0.99121
M73 Q0 S139
G1 X60.539 Y11.846 E0.01677
G1 X83.393 Y34.701 E1.01493
G1 X83.393 Y35.235 E0.01677
G1 X60.005 Y11.846 E1.03865
G1 X59.471 Y11.846 E0.01677
G1 X83.393 Y35.769 E1.06236
G1 X83.393 Y36.303 E0.01677
G1 X58.936 Y11.846 E1.08608
G1 X58.402 Y11.846 E0.01677
G1 X83.393 Y36.837 E1.10980
M73 P1 R136
G1 X83.393 Y37.371 E0.01677
G1 X57.868 Y11.846 E1.13351
M73 Q1 S139
G1 X57.334 Y11.846 E0.01677
G1 X83.195 Y37.706 E1.14839
G1 X82.660 Y37.706 E0.01677
G1 X56.800 Y11.846 E1.14839
G1 X56.266 Y11.846 E0.01677
G1 X82.126 Y37.706 E1.14839
G1 X81.592 Y37.706 E0.01677
G1 X55.732 Y11.846 E1.14839
G1 X55.533 Y11.846 E0.00624
G1 X55.533 Y12.181 E0.01053
G1 X81.058 Y37.706 E1.13351
G1 X80.524 Y37.706 E0.01677
G1 X55.533 Y12.715 E1.10979
G1 X55.533 Y13.250 E0.01677
G1 X79.990 Y37.706 E1.08607
G1 X79.456 Y37.706 E0.01677
G1 X55.533 Y13.784 E1.06236
G1 X55.533 Y14.318 E0.01677
G1 X78.922 Y37.706 E1.03864
G1 X78.388 Y37.706 E0.01677
G1 X55.533 Y14.852 E1.01492
G1 X55.533 Y15.386 E0.01677
G1 X77.854 Y37.706 E0.99121
G1 X77.320 Y37.706 E0.01677
G1 X55.533 Y15.920 E0.96749
G1 X55.533 Y16.454 E0.01677
G1 X76.786 Y37.706 E0.94377
G1 X76.252 Y37.706 E0.01677
G1 X55.533 Y16.988 E0.92006
G1 X55.533 Y17.522 E0.01677
G1 X75.718 Y37.706 E0.89634
G1 X75.184 Y37.706 E0.01677
G1 X55.533 Y18.056 E0.87262
G1 X55.533 Y18.590 E0.01677
G1 X74.649 Y37.706 E0.84891
G1 X74.115 Y37.706 E0.01677
G1 X55.533 Y19.124 E0.82519
G1 X55.533 Y19.658 E0.01677
G1 X73.581 Y37.706 E0.80147
G1 X73.047 Y37.706 E0.01677
G1 X55.533 Y20.192 E0.77776
M73 P1 R135
G1 X55.533 Y20.726 E0.01677
G1 X72.513 Y37.706 E0.75404
G1 X71.979 Y37.706 E0.01677
G1 X55.533 Y21.260 E0.73033
G1 X55.533 Y21.795 E0.01677
G1 X71.445 Y37.706 E0.70661
G1 X70.911 Y37.706 E0.01677
G1 X55.533 Y22.329 E0.68289
G1 X55.533 Y22.863 E0.01677
G1 X70.377 Y37.706 E0.65918
G1 X69.843 Y37.706 E0.01677
G1 X55.533 Y23.397 E0.63546
G1 X55.533 Y23.931 E0.01677
G1 X69.309 Y37.706 E0.61174
G1 X68.775 Y37.706 E0.01677
G1 X55.533 Y24.465 E0.58803
G1 X55.533 Y24.999 E0.01677
G1 X68.241 Y37.706 E0.56431
G1 X67.707 Y37.706 E0.01677
G1 X55.533 Y25.533 E0.54059
G1 X55.533 Y26.067 E0.01677
G1 X67.173 Y37.706 E0.51688
G1 X66.639 Y37.706 E0.01677
G1 X55.533 Y26.601 E0.49316
G1 X55.533 Y27.135 E0.01677
G1 X66.104 Y37.706 E0.46944
G1 X65.570 Y37.706 E0.01677
G1 X55.533 Y27.669 E0.44573
G1 X55.533 Y28.203 E0.01677
G1 X65.036 Y37.706 E0.42201
G1 X64.502 Y37.706 E0.01677
G1 X55.533 Y28.737 E0.39829
G1 X55.533 Y29.271 E0.01677
G1 X63.968 Y37.706 E0.37458
G1 X63.434 Y37.706 E0.01677
G1 X55.533 Y29.806 E0.35086
G1 X55.533 Y30.340 E0.01677
G1 X62.900 Y37.706 E0.32714
M73 Q1 S138
G1 X62.366 Y37.706 E0.01677
G1 X55.533 Y30.874 E0.30343
G1 X55.533 Y31.408 E0.01677
G1 X61.832 Y37.706 E0.27971
G1 X61.298 Y37.706 E0.01677
G1 X55.533 Y31.942 E0.25599
G1 X55.533 Y32.476 E0.01677
G1 X60.764 Y37.706 E0.23228
G1 X60.230 Y37.706 E0.01677
G1 X55.533 Y33.010 E0.20856
G1 X55.533 Y33.544 E0.01677
G1 X59.696 Y37.706 E0.18484
G1 X59.162 Y37.706 E0.01677
G1 X55.533 Y34.078 E0.16113
G1 X55.533 Y34.612 E0.01677
G1 X58.628 Y37.706 E0.13741
G1 X58.093 Y37.706 E0.01677
G1 X55.533 Y35.146 E0.11369
G1 X55.533 Y35.680 E0.01677
G1 X57.559 Y37.706 E0.08998
G1 X57.025 Y37.706 E0.01677
G1 X55.533 Y36.214 E0.06626
G1 X55.533 Y36.748 E0.01677
G1 X56.491 Y37.706 E0.04254
G1 X55.957 Y37.706 E0.01677
G1 X55.364 Y37.113 E0.02636
; stop printing object button_top.stl id:1 copy 0
; printing object button_top.stl id:4 copy 0
;WIPE_START
G1 F8640.000
G1 X55.957 Y37.706 E-0.19385
G1 X56.491 Y37.706 E-0.12332
G1 X55.533 Y36.748 E-0.31284
G1 X55.533 Y36.214 E-0.12332
G1 X55.554 Y36.235 E-0.00667
;WIPE_END
G1 E-0.04000 F2100.000
G1 Z0.800 F10800.000
G1 X50.254 Y167.963
G1 Z0.200
G1 E0.80000 F2100.000
;TYPE:Support material
;WIDTH:0.42
G1 F1200.000
G1 X50.254 Y187.905 E0.62527
G1 X51.009 Y187.905 E0.02365
G1 X51.009 Y168.133 E0.61995
G1 X51.763 Y168.133 E0.02365
G1 X51.763 Y187.905 E0.61995
G1 X52.517 Y187.905 E0.02365
G1 X52.517 Y168.133 E0.61995
G1 X53.271 Y168.133 E0.02365
G1 X53.271 Y187.905 E0.61995
G1 X54.025 Y187.905 E0.02365
G1 X54.025 Y168.133 E0.61995
G1 X54.779 Y168.133 E0.02365
G1 X54.779 Y187.905 E0.61995
G1 X55.533 Y187.905 E0.02365
G1 X55.533 Y168.133 E0.61995
G1 X56.288 Y168.133 E0.02365
G1 X56.288 Y188.075 E0.62527
;WIPE_START
G1 F8640.000
G1 X56.288 Y184.783 E-0.76000
;WIPE_END
G1 E-0.04000 F2100.000
G1 Z0.800 F10800.000
G1 X87.962 Y188.075
G1 Z0.200
G1 E0.80000 F2100.000
G1 F1200.000
G1 X87.962 Y168.133 E0.62527
G1 X88.716 Y168.133 E0.02365
G1 X88.716 Y187.905 E0.61995
G1 X89.471 Y187.905 E0.02365
G1 X89.471 Y168.133 E0.61995
G1 X90.225 Y168.133 E0.02365
G1 X90.225 Y187.905 E0.61995
G1 X90.979 Y187.905 E0.02365
G1 X90.979 Y168.133 E0.61995
G1 X91.733 Y168.133 E0.02365
G1 X91.733 Y187.905 E0.61995
G1 X92.487 Y187.905 E0.02365
G1 X92.487 Y168.133 E0.61995
G1 X93.241 Y168.133 E0.02365
G1 X93.241 Y187.905 E0.61995
G1 X93.996 Y187.905 E0.02365
G1 X93.996 Y168.133 E0.61995
G1 X94.750 Y168.133 E0.02365
G1 X94.750 Y188.075 E0.62527
;WIPE_START
G1 F8640.000
G1 X94.750 Y184.783 E-0.76000
;WIPE_END
G1 E-0.04000 F2100.000
G1 Z0.800 F10800.000
G1 X86.596 Y191.232
G1 Z0.200
G1 E0.80000 F2100.000
;TYPE:Perimeter
G1 F1200.000
G1 X58.170 Y191.232 E0.89127
G1 X58.170 Y164.806 E0.82856
G1 X86.596 Y164.806 E0.89127
M73 P2 R135
G1 X86.596 Y191.172 E0.82668
G1 X86.973 Y191.609 F10800.000
;TYPE:External perimeter
G1 F1200.000
G1 X57.793 Y191.609 E0.91492
G1 X57.793 Y164.429 E0.85221
M73 Q2 S138
G1 X86.973 Y164.429 E0.91492
G1 X86.973 Y191.549 E0.85033
G1 X86.585 Y191.510 F10800.000
;WIPE_START
G1 F8640.000
G1 X83.682 Y191.556 E-0.76000
;WIPE_END
G1 E-0.04000 F2100.000
G1 Z0.800 F10800.000
G1 X85.719 Y164.919
G1 Z0.200
G1 E0.80000 F2100.000
;TYPE:Solid infill
;WIDTH:0.420561
G1 F1200.000
G1 X86.313 Y165.513 E0.02637
G1 X86.313 Y166.047 E0.01677
G1 X85.355 Y165.089 E0.04255
G1 X84.821 Y165.089 E0.01677
G1 X86.313 Y166.581 E0.06627
G1 X86.313 Y167.115 E0.01677
G1 X84.287 Y165.089 E0.08998
G1 X83.753 Y165.089 E0.01677
G1 X86.313 Y167.649 E0.11370
G1 X86.313 Y168.183 E0.01677
G1 X83.219 Y165.089 E0.13742
G1 X82.685 Y165.089 E0.01677
G1 X86.313 Y168.717 E0.16113
G1 X86.313 Y169.251 E0.01677
G1 X82.151 Y165.089 E0.18485
G1 X81.617 Y165.089 E0.01677
G1 X86.313 Y169.785 E0.20857
G1 X86.313 Y170.320 E0.01677
G1 X81.082 Y165.089 E0.23228
G1 X80.548 Y165.089 E0.01677
G1 X86.313 Y170.854 E0.25600
G1 X86.313 Y171.388 E0.01677
G1 X80.014 Y165.089 E0.27972
G1 X79.480 Y165.089 E0.01677
G1 X86.313 Y171.922 E0.30343
G1 X86.313 Y172.456 E0.01677
G1 X78.946 Y165.089 E0.32715
G1 X78.412 Y165.089 E0.01677
G1 X86.313 Y172.990 E0.35087
M73 P2 R134
G1 X86.313 Y173.524 E0.01677
G1 X77.878 Y165.089 E0.37458
G1 X77.344 Y165.089 E0.01677
G1 X86.313 Y174.058 E0.39830
G1 X86.313 Y174.592 E0.01677
G1 X76.810 Y165.089 E0.42201
G1 X76.276 Y165.089 E0.01677
G1 X86.313 Y175.126 E0.44573
G1 X86.313 Y175.660 E0.01677
G1 X75.742 Y165.089 E0.46945
G1 X75.208 Y165.089 E0.01677
G1 X86.313 Y176.194 E0.49316
G1 X86.313 Y176.728 E0.01677
G1 X74.674 Y165.089 E0.51688
G1 X74.140 Y165.089 E0.01677
G1 X86.313 Y177.262 E0.54060
G1 X86.313 Y177.796 E0.01677
G1 X73.606 Y165.089 E0.56431
G1 X73.071 Y165.089 E0.01677
G1 X86.313 Y178.331 E0.58803
G1 X86.313 Y178.865 E0.01677
G1 X72.537 Y165.089 E0.61175
G1 X72.003 Y165.089 E0.01677
G1 X86.313 Y179.399 E0.63546
G1 X86.313 Y179.933 E0.01677
G1 X71.469 Y165.089 E0.65918
G1 X70.935 Y165.089 E0.01677
G1 X86.313 Y180.467 E0.68290
G1 X86.313 Y181.001 E0.01677
G1 X70.401 Y165.089 E0.70661
G1 X69.867 Y165.089 E0.01677
G1 X86.313 Y181.535 E0.73033
G1 X86.313 Y182.069 E0.01677
G1 X69.333 Y165.089 E0.75405
G1 X68.799 Y165.089 E0.01677
G1 X86.313 Y182.603 E0.77776
M73 Q2 S137
G1 X86.313 Y183.137 E0.01677
G1 X68.265 Y165.089 E0.80148
G1 X67.731 Y165.089 E0.01677
G1 X86.313 Y183.671 E0.82520
G1 X86.313 Y184.205 E0.01677
G1 X67.197 Y165.089 E0.84891
G1 X66.663 Y165.089 E0.01677
G1 X86.313 Y184.739 E0.87263
G1 X86.313 Y185.273 E0.01677
G1 X66.129 Y165.089 E0.89635
G1 X65.595 Y165.089 E0.01677
G1 X86.313 Y185.807 E0.92006
G1 X86.313 Y186.342 E0.01677
G1 X65.061 Y165.089 E0.94378
G1 X64.526 Y165.089 E0.01677
G1 X86.313 Y186.876 E0.96750
G1 X86.313 Y187.410 E0.01677
G1 X63.992 Y165.089 E0.99121
G1 X63.458 Y165.089 E0.01677
G1 X86.313 Y187.944 E1.01493
G1 X86.313 Y188.478 E0.01677
G1 X62.924 Y165.089 E1.03865
G1 X62.390 Y165.089 E0.01677
G1 X86.313 Y189.012 E1.06236
G1 X86.313 Y189.546 E0.01677
G1 X61.856 Y165.089 E1.08608
G1 X61.322 Y165.089 E0.01677
G1 X86.313 Y190.080 E1.10980
G1 X86.313 Y190.614 E0.01677
G1 X60.788 Y165.089 E1.13351
G1 X60.254 Y165.089 E0.01677
G1 X86.114 Y190.949 E1.14839
G1 X85.580 Y190.949 E0.01677
G1 X59.720 Y165.089 E1.14839
G1 X59.186 Y165.089 E0.01677
G1 X85.046 Y190.949 E1.14839
G1 X84.512 Y190.949 E0.01677
G1 X58.652 Y165.089 E1.14839
G1 X58.453 Y165.089 E0.00624
G1 X58.453 Y165.424 E0.01053
G1 X83.978 Y190.949 E1.13351
G1 X83.444 Y190.949 E0.01677
G1 X58.453 Y165.958 E1.10979
G1 X58.453 Y166.492 E0.01677
G1 X82.910 Y190.949 E1.08607
G1 X82.376 Y190.949 E0.01677
G1 X58.453 Y167.026 E1.06236
G1 X58.453 Y167.560 E0.01677
G1 X81.842 Y190.949 E1.03864
G1 X81.308 Y190.949 E0.01677
G1 X58.453 Y168.094 E1.01492
G1 X58.453 Y168.628 E0.01677
G1 X80.774 Y190.949 E0.99121
M73 P2 R133
G1 X80.239 Y190.949 E0.01677
G1 X58.453 Y169.163 E0.96749
G1 X58.453 Y169.697 E0.01677
G1 X79.705 Y190.949 E0.94377
G1 X79.171 Y190.949 E0.01677
G1 X58.453 Y170.231 E0.92006
G1 X58.453 Y170.765 E0.01677
G1 X78.637 Y190.949 E0.89634
G1 X78.103 Y190.949 E0.01677
G1 X58.453 Y171.299 E0.87262
G1 X58.453 Y171.833 E0.01677
G1 X77.569 Y190.949 E0.84891
G1 X77.035 Y190.949 E0.01677
G1 X58.453 Y172.367 E0.82519
M73 P3 R133
G1 X58.453 Y172.901 E0.01677
G1 X76.501 Y190.949 E0.80147
G1 X75.967 Y190.949 E0.01677
G1 X58.453 Y173.435 E0.77776
G1 X58.453 Y173.969 E0.01677
G1 X75.433 Y190.949 E0.75404
G1 X74.899 Y190.949 E0.01677
G1 X58.453 Y174.503 E0.73033
M73 Q3 S137
G1 X58.453 Y175.037 E0.01677
G1 X74.365 Y190.949 E0.70661
M73 Q3 S136
G1 X73.831 Y190.949 E0.01677
G1 X58.453 Y175.571 E0.68289
G1 X58.453 Y176.105 E0.01677
G1 X73.297 Y190.949 E0.65918
G1 X72.763 Y190.949 E0.01677
G1 X58.453 Y176.639 E0.63546
G1 X58.453 Y177.174 E0.01677
