; generated by PrusaSlicer 2.3.1+win64 on 2023-08-02 at 20:32:19 UTC

; 

; external perimeters extrusion width = 0.60mm
; perimeters extrusion width = 0.50mm
; infill extrusion width = 0.50mm
; solid infill extrusion width = 0.50mm
; top infill extrusion width = 0.45mm
; first layer extrusion width = 0.42mm

M73 P0 R21
M73 Q0 S21
M201 X1000 Y1000 Z1000 E5000 ; sets maximum accelerations, mm/sec^2
M203 X200 Y200 Z12 E120 ; sets maximum feedrates, mm/sec
M204 P1250 R1250 T1250 ; sets acceleration (P, T) and retract acceleration (R), mm/sec^2
M205 X8.00 Y8.00 Z0.40 E1.50 ; sets the jerk limits, mm/sec
M205 S0 T0 ; sets the minimum extruding and travel feed rate, mm/sec
M107
;TYPE:Custom
M115 U3.8.0 ; tell printer latest fw version
G90 ; use absolute coordinates
M83 ; extruder relative mode
M104 S215 ; set extruder temp
M140 S67 ; set bed temp
M190 S67 ; wait for bed temp
M109 S215 ; wait for extruder temp
G28 W ; home all without mesh bed level
G80 ; mesh bed leveling
G1 Y-3.0 F1000.0 ; go outside print area
G92 E0.0
G1 X60.0 E9.0 F1000.0 ; intro line
G1 X100.0 E12.5 F1000.0 ; intro line
G92 E0.0
M221 S95
G21 ; set units to millimeters
G90 ; use absolute coordinates
M83 ; use relative distances for extrusion
M900 K30 ; Filament gcode
;LAYER_CHANGE
;Z:0.2
;HEIGHT:0.2
;BEFORE_LAYER_CHANGE
G92 E0.0
;0.2


G1 E-0.80000 F2100.000
G1 Z0.600 F10800.000
;AFTER_LAYER_CHANGE
;0.2
; printing object display_secure.stl id:1 copy 0
G1 X119.439 Y97.913
G1 Z0.200
G1 E0.80000 F2100.000
M204 S1000
;TYPE:Perimeter
;WIDTH:0.42
G1 F1200.000
G1 X119.645 Y97.714 E0.00896
G1 X119.875 Y97.545 E0.00896
G1 X120.125 Y97.407 E0.00896
G1 X120.395 Y97.303 E0.00906
G1 X120.691 Y97.236 E0.00951
G1 X120.954 Y97.210 E0.00830
G1 X121.240 Y97.219 E0.00896
G1 X121.521 Y97.267 E0.00896
G1 X121.794 Y97.351 E0.00896
G1 X122.053 Y97.472 E0.00896
G1 X122.294 Y97.625 E0.00896
G1 X122.513 Y97.810 E0.00896
G1 X122.704 Y98.022 E0.00896
G1 X122.868 Y98.260 E0.00906
G1 X123.002 Y98.532 E0.00952
G1 X123.088 Y98.782 E0.00830
G1 X123.145 Y99.062 E0.00896
G1 X123.164 Y99.347 E0.00896
G1 X123.145 Y99.633 E0.00896
G1 X123.088 Y99.912 E0.00896
G1 X122.995 Y100.182 E0.00896
G1 X122.866 Y100.437 E0.00896
G1 X122.704 Y100.673 E0.00896
G1 X122.513 Y100.885 E0.00896
G1 X122.294 Y101.069 E0.00896
G1 X122.053 Y101.223 E0.00896
G1 X121.794 Y101.343 E0.00896
G1 X121.521 Y101.428 E0.00896
G1 X121.240 Y101.476 E0.00896
G1 X120.954 Y101.485 E0.00896
G1 X120.670 Y101.456 E0.00896
G1 X120.392 Y101.390 E0.00896
G1 X120.125 Y101.288 E0.00896
G1 X119.875 Y101.150 E0.00896
G1 X119.645 Y100.981 E0.00896
G1 X119.439 Y100.782 E0.00896
G1 X119.262 Y100.558 E0.00896
G1 X119.117 Y100.312 E0.00896
G1 X119.005 Y100.049 E0.00896
G1 X118.930 Y99.773 E0.00896
G1 X118.892 Y99.490 E0.00896
G1 X118.892 Y99.205 E0.00896
G1 X118.930 Y98.921 E0.00896
G1 X119.005 Y98.646 E0.00896
G1 X119.117 Y98.383 E0.00896
G1 X119.262 Y98.137 E0.00896
G1 X119.402 Y97.960 E0.00708
G1 X119.698 Y98.194 F10800.000
;TYPE:External perimeter
G1 F1200.000
G1 X119.889 Y98.003 E0.00846
G1 X120.078 Y97.863 E0.00738
G1 X120.284 Y97.750 E0.00738
G1 X120.505 Y97.665 E0.00741
G1 X120.752 Y97.609 E0.00793
G1 X120.967 Y97.587 E0.00678
G1 X121.202 Y97.595 E0.00738
G1 X121.434 Y97.634 E0.00738
G1 X121.658 Y97.704 E0.00738
G1 X121.872 Y97.803 E0.00738
G1 X122.070 Y97.930 E0.00738
G1 X122.250 Y98.082 E0.00738
G1 X122.408 Y98.256 E0.00738
G1 X122.541 Y98.451 E0.00741
G1 X122.653 Y98.678 E0.00793
G1 X122.724 Y98.882 E0.00678
G1 X122.771 Y99.113 E0.00737
G1 X122.787 Y99.347 E0.00738
G1 X122.771 Y99.582 E0.00738
G1 X122.724 Y99.813 E0.00737
G1 X122.647 Y100.035 E0.00738
G1 X122.541 Y100.245 E0.00738
G1 X122.408 Y100.439 E0.00737
G1 X122.250 Y100.613 E0.00738
G1 X122.070 Y100.765 E0.00738
G1 X121.872 Y100.892 E0.00738
G1 X121.658 Y100.991 E0.00738
G1 X121.434 Y101.060 E0.00738
G1 X121.202 Y101.099 E0.00738
G1 X120.967 Y101.107 E0.00738
G1 X120.733 Y101.084 E0.00738
G1 X120.504 Y101.029 E0.00737
G1 X120.284 Y100.945 E0.00738
G1 X120.078 Y100.832 E0.00738
G1 X119.889 Y100.692 E0.00738
G1 X119.720 Y100.529 E0.00737
G1 X119.574 Y100.344 E0.00738
G1 X119.454 Y100.142 E0.00738
G1 X119.362 Y99.925 E0.00738
G1 X119.300 Y99.698 E0.00738
G1 X119.269 Y99.465 E0.00738
G1 X119.269 Y99.230 E0.00738
G1 X119.300 Y98.997 E0.00738
G1 X119.362 Y98.770 E0.00738
G1 X119.454 Y98.553 E0.00738
G1 X119.661 Y98.241 E0.01176
G1 X119.606 Y97.940 F10800.000
;WIPE_START
G1 F8640.000
G1 X119.889 Y98.003 E-0.07606
G1 X120.078 Y97.863 E-0.05432
G1 X120.284 Y97.750 E-0.05431
G1 X120.505 Y97.665 E-0.05458
G1 X120.752 Y97.609 E-0.05841
G1 X120.967 Y97.587 E-0.04993
G1 X121.202 Y97.595 E-0.05431
G1 X121.434 Y97.634 E-0.05432
G1 X121.658 Y97.704 E-0.05432
G1 X121.872 Y97.803 E-0.05431
G1 X122.070 Y97.930 E-0.05431
G1 X122.250 Y98.082 E-0.05432
G1 X122.408 Y98.256 E-0.05432
G1 X122.486 Y98.371 E-0.03218
;WIPE_END
G1 E-0.04000 F2100.000
G1 Z0.800 F10800.000
G1 X106.124 Y86.056
G1 Z0.200
G1 E0.80000 F2100.000
;TYPE:Perimeter
G1 F1200.000
G1 X125.634 Y93.372 E0.65332
G1 X126.688 Y90.563 E0.09406
G1 X147.315 Y98.299 E0.69074
G1 X147.315 Y100.429 E0.06680
G1 X124.107 Y100.429 E0.72768
M73 Q1 S21
G1 X124.182 Y100.212 E0.00721
G1 X124.269 Y99.784 E0.01370
G1 X124.298 Y99.347 E0.01371
M73 P1 R21
G1 X124.269 Y98.911 E0.01371
G1 X124.182 Y98.483 E0.01370
G1 X124.047 Y98.095 E0.01286
G1 X123.847 Y97.687 E0.01427
G1 X123.594 Y97.319 E0.01399
G1 X123.301 Y96.995 E0.01371
G1 X122.967 Y96.713 E0.01371
G1 X122.598 Y96.478 E0.01371
G1 X122.202 Y96.293 E0.01371
G1 X121.784 Y96.164 E0.01371
G1 X121.353 Y96.091 E0.01371
G1 X120.916 Y96.077 E0.01371
G1 X120.508 Y96.118 E0.01286
G1 X120.065 Y96.218 E0.01426
G1 X119.648 Y96.379 E0.01399
G1 X119.265 Y96.589 E0.01371
G1 X118.913 Y96.848 E0.01371
G1 X118.598 Y97.152 E0.01371
G1 X118.328 Y97.495 E0.01371
G1 X118.105 Y97.872 E0.01371
G1 X117.934 Y98.274 E0.01371
G1 X117.819 Y98.696 E0.01371
G1 X117.760 Y99.129 E0.01371
G1 X117.760 Y99.566 E0.01371
G1 X117.819 Y99.999 E0.01371
G1 X117.938 Y100.429 E0.01398
G1 X95.444 Y100.429 E0.70527
G1 X95.444 Y81.500 E0.59351
G1 X97.512 Y81.500 E0.06485
G1 X98.130 Y79.854 E0.05511
G1 X107.178 Y83.247 E0.30299
G1 X106.145 Y86.000 E0.09218
G1 X106.610 Y85.836 F10800.000
G1 F1200.000
G1 X125.414 Y92.887 E0.62967
G1 X126.467 Y90.078 E0.09406
G1 X147.692 Y98.037 E0.71076
G1 X147.692 Y100.806 E0.08681
G1 X123.524 Y100.806 E0.75776
G1 X123.691 Y100.478 E0.01155
G1 X123.817 Y100.112 E0.01213
G1 X123.894 Y99.733 E0.01212
G1 X123.920 Y99.347 E0.01213
G1 X123.894 Y98.962 E0.01213
G1 X123.817 Y98.583 E0.01212
G1 X123.699 Y98.241 E0.01134
G1 X123.520 Y97.878 E0.01268
G1 X123.297 Y97.553 E0.01235
G1 X123.038 Y97.267 E0.01213
G1 X122.743 Y97.017 E0.01212
G1 X122.417 Y96.809 E0.01212
G1 X122.066 Y96.646 E0.01212
G1 X121.697 Y96.532 E0.01212
G1 X121.315 Y96.467 E0.01212
G1 X120.929 Y96.454 E0.01212
G1 X120.569 Y96.491 E0.01134
G1 X120.175 Y96.580 E0.01268
G1 X119.807 Y96.722 E0.01235
G1 X119.468 Y96.907 E0.01212
G1 X119.157 Y97.137 E0.01213
G1 X118.879 Y97.406 E0.01212
G1 X118.639 Y97.709 E0.01212
G1 X118.442 Y98.042 E0.01213
G1 X118.291 Y98.398 E0.01212
G1 X118.189 Y98.771 E0.01212
G1 X118.137 Y99.154 E0.01212
G1 X118.137 Y99.541 E0.01213
G1 X118.189 Y99.924 E0.01212
G1 X118.291 Y100.297 E0.01212
G1 X118.442 Y100.653 E0.01212
G1 X118.533 Y100.806 E0.00559
G1 X95.067 Y100.806 E0.73576
G1 X95.067 Y81.123 E0.61716
G1 X97.251 Y81.123 E0.06848
G1 X97.909 Y79.369 E0.05874
G1 X107.663 Y83.027 E0.32663
G1 X106.631 Y85.779 E0.09218
G1 X107.095 Y85.615 F10800.000
G1 F1200.000
G1 X125.193 Y92.401 E0.60603
G1 X126.246 Y89.592 E0.09406
G1 X148.069 Y97.776 E0.73077
M73 P2 R21
M73 Q2 S21
G1 X148.069 Y101.183 E0.10683
G1 X122.744 Y101.183 E0.79406
G1 X123.001 Y100.907 E0.01183
G1 X123.191 Y100.630 E0.01054
G1 X123.343 Y100.330 E0.01054
G1 X123.453 Y100.012 E0.01054
G1 X123.520 Y99.683 E0.01054
G1 X123.542 Y99.347 E0.01054
G1 X123.520 Y99.012 E0.01054
G1 X123.453 Y98.683 E0.01054
G1 X123.350 Y98.387 E0.00982
G1 X123.194 Y98.069 E0.01110
G1 X123.001 Y97.788 E0.01070
G1 X122.775 Y97.538 E0.01054
G1 X122.518 Y97.321 E0.01054
G1 X122.235 Y97.140 E0.01054
G1 X121.930 Y96.999 E0.01054
G1 X121.609 Y96.899 E0.01054
G1 X121.278 Y96.843 E0.01054
G1 X120.942 Y96.832 E0.01054
G1 X120.630 Y96.863 E0.00982
G1 X120.285 Y96.942 E0.01110
G1 X119.966 Y97.064 E0.01070
G1 X119.671 Y97.226 E0.01054
G1 X119.401 Y97.425 E0.01054
G1 X119.159 Y97.659 E0.01054
G1 X118.951 Y97.923 E0.01054
G1 X118.779 Y98.212 E0.01054
G1 X118.648 Y98.522 E0.01054
G1 X118.559 Y98.846 E0.01054
G1 X118.514 Y99.179 E0.01054
G1 X118.514 Y99.516 E0.01054
G1 X118.559 Y99.849 E0.01054
G1 X118.648 Y100.173 E0.01054
G1 X118.779 Y100.482 E0.01054
G1 X118.951 Y100.772 E0.01054
G1 X119.159 Y101.036 E0.01054
G1 X119.312 Y101.183 E0.00666
G1 X94.690 Y101.183 E0.77200
G1 X94.690 Y80.746 E0.64081
G1 X96.990 Y80.746 E0.07211
G1 X97.688 Y78.883 E0.06237
G1 X108.149 Y82.806 E0.35028
G1 X107.116 Y85.559 E0.09218
G1 X107.581 Y85.394 F10800.000
G1 F1200.000
G1 X124.972 Y91.916 E0.58238
G1 X126.026 Y89.107 E0.09406
G1 X148.446 Y97.515 E0.75079
M73 P2 R20
G1 X148.446 Y101.560 E0.12685
G1 X94.313 Y101.560 E1.69732
G1 X94.313 Y80.369 E0.66445
G1 X96.728 Y80.369 E0.07574
M73 Q2 S20
G1 X97.468 Y78.398 E0.06600
M73 Q3 S20
G1 X108.634 Y82.585 E0.37393
M73 P3 R20
G1 X107.602 Y85.338 E0.09218
G1 X108.066 Y85.173 F10800.000
;TYPE:External perimeter
G1 F1200.000
G1 X124.752 Y91.431 E0.55873
G1 X125.805 Y88.622 E0.09406
G1 X148.823 Y97.253 E0.77080
G1 X148.823 Y101.937 E0.14686
G1 X93.936 Y101.937 E1.72097
G1 X93.936 Y79.992 E0.68810
G1 X96.467 Y79.992 E0.07937
G1 X97.247 Y77.912 E0.06963
G1 X109.119 Y82.365 E0.39757
G1 X108.087 Y85.117 E0.09218
G1 X108.101 Y85.572 F10800.000
;WIPE_START
G1 F8640.000
G1 X111.165 Y86.283 E-0.76000
;WIPE_END
G1 E-0.04000 F2100.000
G1 Z0.800 F10800.000
G1 X145.965 Y97.913
G1 Z0.200
G1 E0.80000 F2100.000
;TYPE:Solid infill
;WIDTH:0.422306
G1 F1200.000
G1 X147.032 Y98.980 E0.04760
G1 X147.032 Y99.517 E0.01693
G1 X145.397 Y97.881 E0.07297
G1 X144.538 Y97.559 E0.02892
G1 X147.032 Y100.053 E0.11126
G1 X147.032 Y100.146 E0.00293
G1 X146.589 Y100.146 E0.01400
G1 X143.680 Y97.238 E0.12977
G1 X142.821 Y96.916 E0.02892
G1 X146.052 Y100.146 E0.14413
G1 X145.515 Y100.146 E0.01693
G1 X141.963 Y96.594 E0.15849
G1 X141.104 Y96.272 E0.02892
G1 X144.979 Y100.146 E0.17285
G1 X144.442 Y100.146 E0.01693
G1 X140.246 Y95.950 E0.18722
G1 X139.387 Y95.628 E0.02892
G1 X143.906 Y100.146 E0.20158
G1 X143.369 Y100.146 E0.01693
G1 X138.529 Y95.306 E0.21594
G1 X137.671 Y94.984 E0.02892
G1 X142.833 Y100.146 E0.23030
G1 X142.296 Y100.146 E0.01693
G1 X136.812 Y94.662 E0.24466
G1 X135.954 Y94.340 E0.02892
G1 X141.760 Y100.146 E0.25903
M73 P4 R20
M73 Q4 S20
G1 X141.223 Y100.146 E0.01693
G1 X135.095 Y94.018 E0.27339
G1 X134.237 Y93.696 E0.02892
G1 X140.687 Y100.146 E0.28775
G1 X140.150 Y100.146 E0.01693
G1 X133.378 Y93.374 E0.30211
G1 X132.520 Y93.053 E0.02892
G1 X139.614 Y100.146 E0.31647
G1 X139.077 Y100.146 E0.01693
G1 X131.661 Y92.731 E0.33083
G1 X130.803 Y92.409 E0.02892
G1 X138.541 Y100.146 E0.34520
G1 X138.004 Y100.146 E0.01693
G1 X129.945 Y92.087 E0.35956
G1 X129.086 Y91.765 E0.02892
G1 X137.467 Y100.146 E0.37392
G1 X136.931 Y100.146 E0.01693
G1 X128.228 Y91.443 E0.38828
G1 X127.369 Y91.121 E0.02892
G1 X136.394 Y100.146 E0.40264
G1 X135.858 Y100.146 E0.01693
G1 X126.795 Y91.083 E0.40434
G1 X126.648 Y91.473 E0.01315
G1 X135.321 Y100.146 E0.38693
G1 X134.785 Y100.146 E0.01693
G1 X126.502 Y91.864 E0.36952
G1 X126.356 Y92.254 E0.01315
G1 X134.248 Y100.146 E0.35211
G1 X133.712 Y100.146 E0.01693
G1 X126.209 Y92.644 E0.33470
G1 X126.063 Y93.034 E0.01315
G1 X133.175 Y100.146 E0.31729
G1 X132.639 Y100.146 E0.01693
G1 X125.917 Y93.424 E0.29989
G1 X125.800 Y93.736 E0.01052
G1 X125.628 Y93.672 E0.00579
G1 X132.102 Y100.146 E0.28883
G1 X131.566 Y100.146 E0.01693
G1 X124.769 Y93.350 E0.30319
G1 X123.911 Y93.028 E0.02892
G1 X131.029 Y100.146 E0.31756
G1 X130.493 Y100.146 E0.01693
G1 X123.053 Y92.706 E0.33192
G1 X122.194 Y92.384 E0.02892
G1 X129.956 Y100.146 E0.34628
M73 P5 R20
M73 Q5 S20
G1 X129.419 Y100.146 E0.01693
G1 X121.336 Y92.062 E0.36064
G1 X120.477 Y91.741 E0.02892
G1 X128.883 Y100.146 E0.37500
G1 X128.346 Y100.146 E0.01693
G1 X119.619 Y91.419 E0.38937
G1 X118.760 Y91.097 E0.02892
G1 X127.810 Y100.146 E0.40373
G1 X127.273 Y100.146 E0.01693
G1 X117.902 Y90.775 E0.41809
G1 X117.043 Y90.453 E0.02892
G1 X126.737 Y100.146 E0.43245
G1 X126.200 Y100.146 E0.01693
G1 X124.452 Y98.398 E0.07801
G1 X124.550 Y98.873 E0.01532
G1 X124.561 Y99.044 E0.00539
G1 X125.664 Y100.146 E0.04918
G1 X125.127 Y100.146 E0.01693
G1 X124.566 Y99.585 E0.02505
G1 X124.550 Y99.821 E0.00748
G1 X124.502 Y100.058 E0.00760
G1 X124.760 Y100.316 E0.01153
;WIPE_START
G1 F8640.000
G1 X124.502 Y100.058 E-0.08440
G1 X124.550 Y99.821 E-0.05563
G1 X124.566 Y99.585 E-0.05476
G1 X125.127 Y100.146 E-0.18335
G1 X125.664 Y100.146 E-0.12389
G1 X124.874 Y99.356 E-0.25798
;WIPE_END
G1 E-0.04000 F2100.000
G1 Z0.800 F10800.000
G1 X122.241 Y96.187
G1 Z0.200
G1 E0.80000 F2100.000
G1 F1200.000
G1 X116.185 Y90.131 E0.27019
G1 X115.327 Y89.809 E0.02892
G1 X121.325 Y95.807 E0.26760
G1 X120.907 Y95.793 E0.01319
G1 X120.786 Y95.805 E0.00382
G1 X114.468 Y89.487 E0.28188
G1 X113.610 Y89.165 E0.02892
G1 X120.316 Y95.871 E0.29918
G1 X119.890 Y95.982 E0.01387
G1 X112.751 Y88.843 E0.31850
G1 X111.893 Y88.521 E0.02892
G1 X119.506 Y96.134 E0.33964
G1 X119.159 Y96.324 E0.01247
G1 X111.034 Y88.199 E0.36247
G1 X110.176 Y87.878 E0.02892
G1 X118.845 Y96.547 E0.38676
G1 X118.559 Y96.797 E0.01200
G1 X109.317 Y87.556 E0.41229
G1 X108.459 Y87.234 E0.02892
G1 X118.300 Y97.074 E0.43902
G1 X118.068 Y97.379 E0.01208
G1 X107.600 Y86.912 E0.46697
G1 X106.742 Y86.590 E0.02892
G1 X117.994 Y97.842 E0.50200
;WIPE_START
G1 F8640.000
G1 X115.667 Y95.515 E-0.76000
;WIPE_END
M73 Q6 S20
G1 E-0.04000 F2100.000
G1 Z0.800 F10800.000
G1 X106.937 Y83.566
M73 P6 R20
G1 Z0.200
G1 E0.80000 F2100.000
G1 F1200.000
G1 X106.766 Y83.395 E0.00763
G1 X105.908 Y83.073 E0.02892
G1 X106.659 Y83.824 E0.03352
G1 X106.513 Y84.215 E0.01315
G1 X105.049 Y82.751 E0.06529
G1 X104.191 Y82.429 E0.02892
G1 X106.366 Y84.605 E0.09706
G1 X106.220 Y84.995 E0.01315
G1 X103.333 Y82.107 E0.12883
G1 X102.474 Y81.785 E0.02892
G1 X106.074 Y85.385 E0.16060
G1 X105.927 Y85.775 E0.01315
G1 X101.616 Y81.463 E0.19237
G1 X100.757 Y81.142 E0.02892
G1 X117.705 Y98.090 E0.75610
G1 X117.579 Y98.500 E0.01354
G1 X99.899 Y80.820 E0.78877
G1 X99.040 Y80.498 E0.02892
G1 X117.498 Y98.956 E0.82346
G1 X117.478 Y99.110 E0.00491
G1 X117.478 Y99.472 E0.01141
G1 X98.276 Y80.270 E0.85665
G1 X98.129 Y80.660 E0.01315
G1 X117.547 Y100.077 E0.86627
G1 X117.566 Y100.146 E0.00226
G1 X117.079 Y100.146 E0.01535
G1 X97.983 Y81.050 E0.85194
G1 X97.837 Y81.440 E0.01315
G1 X116.543 Y100.146 E0.83453
G1 X116.006 Y100.146 E0.01693
G1 X97.642 Y81.783 E0.81926
G1 X97.106 Y81.783 E0.01693
G1 X115.470 Y100.146 E0.81926
M73 P7 R20
M73 Q7 S20
G1 X114.933 Y100.146 E0.01693
G1 X96.569 Y81.783 E0.81926
G1 X96.033 Y81.783 E0.01693
G1 X114.397 Y100.146 E0.81926
G1 X113.860 Y100.146 E0.01693
G1 X95.727 Y82.013 E0.80898
M73 P7 R19
G1 X95.727 Y82.550 E0.01693
G1 X113.324 Y100.146 E0.78504
G1 X112.787 Y100.146 E0.01693
G1 X95.727 Y83.086 E0.76111
G1 X95.727 Y83.623 E0.01693
G1 X112.250 Y100.146 E0.73717
G1 X111.714 Y100.146 E0.01693
G1 X95.727 Y84.159 E0.71323
M73 Q7 S19
G1 X95.727 Y84.696 E0.01693
G1 X111.177 Y100.146 E0.68930
G1 X110.641 Y100.146 E0.01693
G1 X95.727 Y85.232 E0.66536
G1 X95.727 Y85.769 E0.01693
G1 X110.104 Y100.146 E0.64143
M73 P8 R19
M73 Q8 S19
G1 X109.568 Y100.146 E0.01693
G1 X95.727 Y86.305 E0.61749
G1 X95.727 Y86.842 E0.01693
G1 X109.031 Y100.146 E0.59355
G1 X108.495 Y100.146 E0.01693
G1 X95.727 Y87.378 E0.56962
G1 X95.727 Y87.915 E0.01693
G1 X107.958 Y100.146 E0.54568
G1 X107.422 Y100.146 E0.01693
G1 X95.727 Y88.451 E0.52174
G1 X95.727 Y88.988 E0.01693
G1 X106.885 Y100.146 E0.49781
G1 X106.349 Y100.146 E0.01693
G1 X95.727 Y89.524 E0.47387
G1 X95.727 Y90.061 E0.01693
G1 X105.812 Y100.146 E0.44994
G1 X105.276 Y100.146 E0.01693
G1 X95.727 Y90.598 E0.42600
