; generated by PrusaSlicer 2.3.1+win64 on 2023-08-02 at 20:31:37 UTC

; 

; external perimeters extrusion width = 0.60mm
; perimeters extrusion width = 0.50mm
; infill extrusion width = 0.50mm
; solid infill extrusion width = 0.50mm
; top infill extrusion width = 0.45mm
; support material extrusion width = 0.38mm
; first layer extrusion width = 0.42mm

M73 P0 R167
M73 Q0 S169
M201 X1000 Y1000 Z1000 E5000 ; sets maximum accelerations, mm/sec^2
M203 X200 Y200 Z12 E120 ; sets maximum feedrates, mm/sec
M204 P1250 R1250 T1250 ; sets acceleration (P, T) and retract acceleration (R), mm/sec^2
M205 X8.00 Y8.00 Z0.40 E1.50 ; sets the jerk limits, mm/sec
M205 S0 T0 ; sets the minimum extruding and travel feed rate, mm/sec
M107
;TYPE:Custom
M115 U3.8.0 ; tell printer latest fw version
G90 ; use absolute coordinates
M83 ; extruder relative mode
M104 S215 ; set extruder temp
M140 S67 ; set bed temp
M190 S67 ; wait for bed temp
M109 S215 ; wait for extruder temp
G28 W ; home all without mesh bed level
G80 ; mesh bed leveling
G1 Y-3.0 F1000.0 ; go outside print area
G92 E0.0
G1 X60.0 E9.0 F1000.0 ; intro line
M73 P0 R166
G1 X100.0 E12.5 F1000.0 ; intro line
G92 E0.0
M221 S95
G21 ; set units to millimeters
G90 ; use absolute coordinates
M83 ; use relative distances for extrusion
M900 K0.05 ; Filament gcode LA 1.5
M900 K30 ; Filament gcode LA 1.0
;LAYER_CHANGE
;Z:0.2
;HEIGHT:0.2
;BEFORE_LAYER_CHANGE
G92 E0.0
;0.2


G1 E-0.80000 F2100.000
G1 Z0.600 F10800.000
;AFTER_LAYER_CHANGE
;0.2
; printing object display_mount.stl id:0 copy 0
G1 X76.420 Y115.408
M73 Q0 S168
G1 Z0.200
G1 E0.80000 F2100.000
M204 S1000
;TYPE:Support material
;WIDTH:0.42
G1 F1200.000
G1 X76.420 Y126.148 E0.33673
G1 X77.174 Y126.148 E0.02365
G1 X77.174 Y115.578 E0.33140
G1 X77.928 Y115.578 E0.02365
G1 X77.928 Y126.148 E0.33140
G1 X78.682 Y126.148 E0.02365
G1 X78.682 Y115.578 E0.33140
G1 X79.214 Y115.578 E0.01667
G1 X79.214 Y118.201 E0.08224
G1 X78.728 Y118.201 E0.01523
G1 X78.728 Y123.525 E0.16693
G1 X79.436 Y123.525 E0.02221
G1 X79.436 Y126.148 E0.08224
G1 X80.190 Y126.148 E0.02365
G1 X80.190 Y123.525 E0.08224
G1 X80.945 Y123.525 E0.02365
G1 X80.945 Y126.148 E0.08224
G1 X81.699 Y126.148 E0.02365
G1 X81.699 Y123.525 E0.08224
G1 X82.453 Y123.525 E0.02365
G1 X82.453 Y126.148 E0.08224
G1 X83.207 Y126.148 E0.02365
G1 X83.207 Y123.525 E0.08224
G1 X83.961 Y123.525 E0.02365
G1 X83.961 Y126.148 E0.08224
G1 X84.715 Y126.148 E0.02365
G1 X84.715 Y123.525 E0.08224
G1 X85.470 Y123.525 E0.02365
G1 X85.470 Y126.148 E0.08224
G1 X86.224 Y126.148 E0.02365
G1 X86.224 Y123.525 E0.08224
G1 X86.978 Y123.525 E0.02365
G1 X86.978 Y126.148 E0.08224
G1 X87.732 Y126.148 E0.02365
G1 X87.732 Y123.525 E0.08224
G1 X88.486 Y123.525 E0.02365
G1 X88.486 Y126.148 E0.08224
G1 X89.240 Y126.148 E0.02365
G1 X89.240 Y123.525 E0.08224
G1 X89.994 Y123.525 E0.02365
G1 X89.994 Y126.148 E0.08224
G1 X90.749 Y126.148 E0.02365
G1 X90.749 Y123.525 E0.08224
G1 X91.503 Y123.525 E0.02365
G1 X91.503 Y126.148 E0.08224
G1 X92.257 Y126.148 E0.02365
G1 X92.257 Y123.525 E0.08224
G1 X93.011 Y123.525 E0.02365
G1 X93.011 Y126.148 E0.08224
G1 X93.765 Y126.148 E0.02365
G1 X93.765 Y123.525 E0.08224
G1 X94.519 Y123.525 E0.02365
G1 X94.519 Y126.148 E0.08224
G1 X95.274 Y126.148 E0.02365
G1 X95.274 Y123.525 E0.08224
G1 X96.028 Y123.525 E0.02365
G1 X96.028 Y126.148 E0.08224
G1 X96.782 Y126.148 E0.02365
G1 X96.782 Y123.525 E0.08224
G1 X97.536 Y123.525 E0.02365
G1 X97.536 Y126.148 E0.08224
G1 X98.290 Y126.148 E0.02365
G1 X98.290 Y123.525 E0.08224
G1 X99.044 Y123.525 E0.02365
G1 X99.044 Y126.148 E0.08224
G1 X99.799 Y126.148 E0.02365
G1 X99.799 Y123.525 E0.08224
G1 X100.553 Y123.525 E0.02365
G1 X100.553 Y126.148 E0.08224
G1 X101.307 Y126.148 E0.02365
G1 X101.307 Y123.525 E0.08224
G1 X102.061 Y123.525 E0.02365
G1 X102.061 Y126.148 E0.08224
G1 X102.815 Y126.148 E0.02365
G1 X102.815 Y123.525 E0.08224
G1 X103.569 Y123.525 E0.02365
G1 X103.569 Y126.148 E0.08224
G1 X104.324 Y126.148 E0.02365
G1 X104.324 Y123.525 E0.08224
G1 X105.078 Y123.525 E0.02365
G1 X105.078 Y126.148 E0.08224
G1 X105.832 Y126.148 E0.02365
G1 X105.832 Y123.525 E0.08224
G1 X106.586 Y123.525 E0.02365
G1 X106.586 Y126.148 E0.08224
G1 X107.340 Y126.148 E0.02365
G1 X107.340 Y123.525 E0.08224
G1 X108.094 Y123.525 E0.02365
G1 X108.094 Y126.148 E0.08224
G1 X108.848 Y126.148 E0.02365
G1 X108.848 Y123.525 E0.08224
G1 X109.603 Y123.525 E0.02365
G1 X109.603 Y126.148 E0.08224
G1 X110.357 Y126.148 E0.02365
G1 X110.357 Y123.525 E0.08224
G1 X111.111 Y123.525 E0.02365
G1 X111.111 Y126.148 E0.08224
G1 X111.865 Y126.148 E0.02365
G1 X111.865 Y123.525 E0.08224
G1 X112.619 Y123.525 E0.02365
G1 X112.619 Y126.148 E0.08224
G1 X113.373 Y126.148 E0.02365
G1 X113.373 Y123.525 E0.08224
G1 X114.128 Y123.525 E0.02365
G1 X114.128 Y126.148 E0.08224
G1 X114.882 Y126.148 E0.02365
G1 X114.882 Y123.525 E0.08224
G1 X115.636 Y123.525 E0.02365
G1 X115.636 Y126.148 E0.08224
G1 X116.390 Y126.148 E0.02365
G1 X116.390 Y123.525 E0.08224
G1 X117.144 Y123.525 E0.02365
G1 X117.144 Y126.148 E0.08224
G1 X117.898 Y126.148 E0.02365
G1 X117.898 Y123.525 E0.08224
G1 X118.653 Y123.525 E0.02365
G1 X118.653 Y126.148 E0.08224
G1 X119.407 Y126.148 E0.02365
G1 X119.407 Y123.525 E0.08224
G1 X120.161 Y123.525 E0.02365
G1 X120.161 Y126.148 E0.08224
G1 X120.915 Y126.148 E0.02365
G1 X120.915 Y123.525 E0.08224
G1 X121.669 Y123.525 E0.02365
G1 X121.669 Y126.148 E0.08224
G1 X122.423 Y126.148 E0.02365
G1 X122.423 Y123.525 E0.08224
G1 X123.177 Y123.525 E0.02365
G1 X123.177 Y126.148 E0.08224
G1 X123.932 Y126.148 E0.02365
G1 X123.932 Y123.525 E0.08224
G1 X124.686 Y123.525 E0.02365
G1 X124.686 Y126.148 E0.08224
G1 X125.440 Y126.148 E0.02365
G1 X125.440 Y123.525 E0.08224
G1 X126.194 Y123.525 E0.02365
G1 X126.194 Y126.148 E0.08224
G1 X126.948 Y126.148 E0.02365
G1 X126.948 Y123.525 E0.08224
G1 X127.702 Y123.525 E0.02365
G1 X127.702 Y126.148 E0.08224
G1 X128.457 Y126.148 E0.02365
G1 X128.457 Y123.525 E0.08224
G1 X129.211 Y123.525 E0.02365
G1 X129.211 Y126.148 E0.08224
G1 X129.965 Y126.148 E0.02365
G1 X129.965 Y123.525 E0.08224
G1 X130.719 Y123.525 E0.02365
G1 X130.719 Y126.148 E0.08224
G1 X131.473 Y126.148 E0.02365
G1 X131.473 Y123.525 E0.08224
G1 X132.227 Y123.525 E0.02365
G1 X132.227 Y126.148 E0.08224
G1 X132.982 Y126.148 E0.02365
G1 X132.982 Y123.525 E0.08224
G1 X133.736 Y123.525 E0.02365
G1 X133.736 Y126.148 E0.08224
G1 X134.490 Y126.148 E0.02365
G1 X134.490 Y123.525 E0.08224
G1 X135.244 Y123.525 E0.02365
G1 X135.244 Y126.148 E0.08224
G1 X135.998 Y126.148 E0.02365
G1 X135.998 Y123.525 E0.08224
G1 X136.752 Y123.525 E0.02365
G1 X136.752 Y126.148 E0.08224
G1 X137.507 Y126.148 E0.02365
G1 X137.507 Y123.525 E0.08224
G1 X138.261 Y123.525 E0.02365
G1 X138.261 Y126.148 E0.08224
G1 X139.015 Y126.148 E0.02365
G1 X139.015 Y123.525 E0.08224
G1 X139.769 Y123.525 E0.02365
G1 X139.769 Y126.148 E0.08224
G1 X140.523 Y126.148 E0.02365
G1 X140.523 Y123.525 E0.08224
G1 X141.277 Y123.525 E0.02365
G1 X141.277 Y126.148 E0.08224
G1 X142.031 Y126.148 E0.02365
G1 X142.031 Y123.525 E0.08224
G1 X142.786 Y123.525 E0.02365
G1 X142.786 Y126.148 E0.08224
G1 X143.540 Y126.148 E0.02365
G1 X143.540 Y123.525 E0.08224
G1 X144.294 Y123.525 E0.02365
G1 X144.294 Y126.148 E0.08224
G1 X145.048 Y126.148 E0.02365
G1 X145.048 Y123.525 E0.08224
G1 X145.802 Y123.525 E0.02365
G1 X145.802 Y126.148 E0.08224
G1 X146.556 Y126.148 E0.02365
G1 X146.556 Y123.525 E0.08224
G1 X147.311 Y123.525 E0.02365
G1 X147.311 Y126.148 E0.08224
G1 X148.065 Y126.148 E0.02365
G1 X148.065 Y123.525 E0.08224
G1 X148.819 Y123.525 E0.02365
G1 X148.819 Y126.148 E0.08224
G1 X149.573 Y126.148 E0.02365
G1 X149.573 Y123.525 E0.08224
G1 X150.327 Y123.525 E0.02365
G1 X150.327 Y126.148 E0.08224
G1 X151.081 Y126.148 E0.02365
G1 X151.081 Y123.525 E0.08224
G1 X151.836 Y123.525 E0.02365
G1 X151.836 Y126.148 E0.08224
G1 X152.590 Y126.148 E0.02365
G1 X152.590 Y123.525 E0.08224
G1 X153.344 Y123.525 E0.02365
G1 X153.344 Y126.148 E0.08224
G1 X154.098 Y126.148 E0.02365
G1 X154.098 Y123.525 E0.08224
G1 X154.852 Y123.525 E0.02365
G1 X154.852 Y126.148 E0.08224
G1 X155.606 Y126.148 E0.02365
G1 X155.606 Y123.525 E0.08224
G1 X156.360 Y123.525 E0.02365
G1 X156.360 Y126.148 E0.08224
G1 X157.115 Y126.148 E0.02365
G1 X157.115 Y123.525 E0.08224
G1 X157.869 Y123.525 E0.02365
G1 X157.869 Y126.148 E0.08224
G1 X158.623 Y126.148 E0.02365
G1 X158.623 Y123.525 E0.08224
G1 X159.377 Y123.525 E0.02365
G1 X159.377 Y126.148 E0.08224
G1 X160.131 Y126.148 E0.02365
G1 X160.131 Y123.525 E0.08224
G1 X160.885 Y123.525 E0.02365
G1 X160.885 Y126.148 E0.08224
G1 X161.640 Y126.148 E0.02365
G1 X161.640 Y123.525 E0.08224
G1 X162.394 Y123.525 E0.02365
G1 X162.394 Y126.148 E0.08224
G1 X163.148 Y126.148 E0.02365
G1 X163.148 Y123.525 E0.08224
G1 X163.902 Y123.525 E0.02365
G1 X163.902 Y126.148 E0.08224
G1 X164.656 Y126.148 E0.02365
G1 X164.656 Y123.525 E0.08224
G1 X165.410 Y123.525 E0.02365
G1 X165.410 Y126.148 E0.08224
G1 X166.165 Y126.148 E0.02365
G1 X166.165 Y123.525 E0.08224
G1 X166.919 Y123.525 E0.02365
G1 X166.919 Y126.148 E0.08224
G1 X167.673 Y126.148 E0.02365
G1 X167.673 Y123.525 E0.08224
G1 X168.427 Y123.525 E0.02365
G1 X168.427 Y126.148 E0.08224
G1 X169.181 Y126.148 E0.02365
G1 X169.181 Y123.525 E0.08224
G1 X169.935 Y123.525 E0.02365
G1 X169.935 Y126.148 E0.08224
G1 X170.690 Y126.148 E0.02365
G1 X170.690 Y123.525 E0.08224
G1 X171.444 Y123.525 E0.02365
G1 X171.444 Y126.148 E0.08224
G1 X172.198 Y126.148 E0.02365
G1 X172.198 Y123.525 E0.08224
G1 X172.952 Y123.525 E0.02365
G1 X172.952 Y126.148 E0.08224
G1 X173.706 Y126.148 E0.02365
G1 X173.706 Y123.525 E0.08224
G1 X174.460 Y123.525 E0.02365
G1 X174.460 Y126.148 E0.08224
G1 X175.214 Y126.148 E0.02365
G1 X175.214 Y123.525 E0.08224
G1 X175.969 Y123.525 E0.02365
G1 X175.969 Y126.148 E0.08224
G1 X176.723 Y126.148 E0.02365
G1 X176.723 Y115.578 E0.33140
G1 X177.477 Y115.578 E0.02365
G1 X177.477 Y126.148 E0.33140
G1 X178.231 Y126.148 E0.02365
G1 X178.231 Y115.578 E0.33140
G1 X178.985 Y115.578 E0.02365
G1 X178.985 Y126.317 E0.33673
G1 X173.706 Y120.051 F10800.000
G1 F1200.000
G1 X173.706 Y120.510 E0.01440
G1 X174.460 Y120.510 E0.02365
G1 X174.460 Y120.220 E0.00908
G1 X175.214 Y120.220 E0.02365
G1 X175.214 Y120.680 E0.01440
;WIPE_START
G1 F8640.000
G1 X175.214 Y120.220 E-0.10605
G1 X174.460 Y120.220 E-0.17414
G1 X174.460 Y120.510 E-0.06687
G1 X173.706 Y120.510 E-0.17414
G1 X173.706 Y120.051 E-0.10605
;WIPE_END
G1 E-0.17276 F2100.000
G1 Z0.800 F10800.000
G1 X176.171 Y123.321
G1 Z0.200
G1 E0.80000 F2100.000
;TYPE:Support material interface
;WIDTH:0.38
G1 F1200.000
G1 X176.171 Y118.547 E0.13379
G1 X176.160 Y120.588 E0.05720
G1 X175.892 Y120.856 E0.01063
G1 X175.655 Y120.856 E0.00664
G1 X175.655 Y123.179 E0.06509
G1 X175.139 Y123.179 E0.01445
G1 X175.139 Y120.856 E0.06509
G1 X174.624 Y120.856 E0.01445
G1 X174.624 Y123.179 E0.06509
G1 X174.108 Y123.179 E0.01445
G1 X174.108 Y120.856 E0.06509
G1 X173.593 Y120.856 E0.01445
G1 X173.593 Y123.179 E0.06509
G1 X173.077 Y123.179 E0.01445
G1 X173.077 Y120.856 E0.06509
G1 X172.561 Y120.856 E0.01445
G1 X172.561 Y123.179 E0.06509
G1 X172.046 Y123.179 E0.01445
G1 X172.046 Y120.856 E0.06509
G1 X171.530 Y120.856 E0.01445
G1 X171.530 Y123.179 E0.06509
G1 X171.014 Y123.179 E0.01445
G1 X171.014 Y120.856 E0.06509
G1 X170.499 Y120.856 E0.01445
G1 X170.499 Y123.179 E0.06509
G1 X169.983 Y123.179 E0.01445
G1 X169.983 Y120.856 E0.06509
G1 X169.468 Y120.856 E0.01445
G1 X169.468 Y123.179 E0.06509
G1 X168.952 Y123.179 E0.01445
G1 X168.952 Y120.856 E0.06509
G1 X168.436 Y120.856 E0.01445
G1 X168.436 Y123.179 E0.06509
G1 X167.921 Y123.179 E0.01445
G1 X167.921 Y120.856 E0.06509
G1 X167.405 Y120.856 E0.01445
G1 X167.405 Y123.179 E0.06509
G1 X166.889 Y123.179 E0.01445
G1 X166.889 Y120.856 E0.06509
G1 X166.374 Y120.856 E0.01445
G1 X166.374 Y123.179 E0.06509
G1 X165.858 Y123.179 E0.01445
G1 X165.858 Y120.856 E0.06509
G1 X165.343 Y120.856 E0.01445
G1 X165.343 Y123.179 E0.06509
G1 X164.827 Y123.179 E0.01445
G1 X164.827 Y120.856 E0.06509
G1 X164.311 Y120.856 E0.01445
G1 X164.311 Y123.179 E0.06509
G1 X163.796 Y123.179 E0.01445
G1 X163.796 Y120.856 E0.06509
G1 X163.280 Y120.856 E0.01445
G1 X163.280 Y123.179 E0.06509
G1 X162.765 Y123.179 E0.01445
G1 X162.765 Y120.856 E0.06509
G1 X162.249 Y120.856 E0.01445
G1 X162.249 Y123.179 E0.06509
G1 X161.733 Y123.179 E0.01445
G1 X161.733 Y120.856 E0.06509
G1 X161.218 Y120.856 E0.01445
G1 X161.218 Y123.179 E0.06509
G1 X160.702 Y123.179 E0.01445
G1 X160.702 Y120.856 E0.06509
G1 X160.186 Y120.856 E0.01445
G1 X160.186 Y123.179 E0.06509
G1 X159.671 Y123.179 E0.01445
G1 X159.671 Y120.856 E0.06509
G1 X159.155 Y120.856 E0.01445
G1 X159.155 Y123.179 E0.06509
G1 X158.640 Y123.179 E0.01445
G1 X158.640 Y120.856 E0.06509
G1 X158.124 Y120.856 E0.01445
G1 X158.124 Y123.179 E0.06509
G1 X157.608 Y123.179 E0.01445
G1 X157.608 Y120.856 E0.06509
G1 X157.093 Y120.856 E0.01445
G1 X157.093 Y123.179 E0.06509
G1 X156.577 Y123.179 E0.01445
G1 X156.577 Y120.856 E0.06509
G1 X156.061 Y120.856 E0.01445
G1 X156.061 Y123.179 E0.06509
G1 X155.546 Y123.179 E0.01445
G1 X155.546 Y120.856 E0.06509
G1 X155.030 Y120.856 E0.01445
G1 X155.030 Y123.179 E0.06509
G1 X154.515 Y123.179 E0.01445
G1 X154.515 Y120.856 E0.06509
G1 X153.999 Y120.856 E0.01445
G1 X153.999 Y123.179 E0.06509
G1 X153.483 Y123.179 E0.01445
G1 X153.483 Y120.856 E0.06509
G1 X152.968 Y120.856 E0.01445
G1 X152.968 Y123.179 E0.06509
G1 X152.452 Y123.179 E0.01445
G1 X152.452 Y120.856 E0.06509
G1 X151.937 Y120.856 E0.01445
G1 X151.937 Y123.179 E0.06509
G1 X151.421 Y123.179 E0.01445
G1 X151.421 Y120.856 E0.06509
G1 X150.905 Y120.856 E0.01445
G1 X150.905 Y123.179 E0.06509
G1 X150.390 Y123.179 E0.01445
G1 X150.390 Y120.856 E0.06509
G1 X149.874 Y120.856 E0.01445
G1 X149.874 Y123.179 E0.06509
G1 X149.358 Y123.179 E0.01445
G1 X149.358 Y120.856 E0.06509
G1 X148.843 Y120.856 E0.01445
G1 X148.843 Y123.179 E0.06509
G1 X148.327 Y123.179 E0.01445
G1 X148.327 Y120.856 E0.06509
G1 X147.812 Y120.856 E0.01445
G1 X147.812 Y123.179 E0.06509
G1 X147.296 Y123.179 E0.01445
G1 X147.296 Y120.856 E0.06509
G1 X146.780 Y120.856 E0.01445
G1 X146.780 Y123.179 E0.06509
G1 X146.265 Y123.179 E0.01445
G1 X146.265 Y120.856 E0.06509
G1 X145.749 Y120.856 E0.01445
G1 X145.749 Y123.179 E0.06509
G1 X145.233 Y123.179 E0.01445
G1 X145.233 Y120.856 E0.06509
G1 X144.718 Y120.856 E0.01445
G1 X144.718 Y123.179 E0.06509
G1 X144.202 Y123.179 E0.01445
G1 X144.202 Y120.856 E0.06509
G1 X143.687 Y120.856 E0.01445
G1 X143.687 Y123.179 E0.06509
G1 X143.171 Y123.179 E0.01445
G1 X143.171 Y120.856 E0.06509
G1 X142.655 Y120.856 E0.01445
G1 X142.655 Y123.179 E0.06509
G1 X142.140 Y123.179 E0.01445
G1 X142.140 Y120.856 E0.06509
G1 X141.624 Y120.856 E0.01445
G1 X141.624 Y123.179 E0.06509
G1 X141.109 Y123.179 E0.01445
G1 X141.109 Y120.856 E0.06509
G1 X140.593 Y120.856 E0.01445
G1 X140.593 Y123.179 E0.06509
G1 X140.077 Y123.179 E0.01445
G1 X140.077 Y120.856 E0.06509
G1 X139.562 Y120.856 E0.01445
G1 X139.562 Y123.179 E0.06509
G1 X139.046 Y123.179 E0.01445
G1 X139.046 Y120.856 E0.06509
G1 X138.530 Y120.856 E0.01445
G1 X138.530 Y123.179 E0.06509
G1 X138.015 Y123.179 E0.01445
G1 X138.015 Y120.856 E0.06509
G1 X137.499 Y120.856 E0.01445
G1 X137.499 Y123.179 E0.06509
G1 X136.984 Y123.179 E0.01445
G1 X136.984 Y120.856 E0.06509
G1 X136.468 Y120.856 E0.01445
G1 X136.468 Y123.179 E0.06509
G1 X135.952 Y123.179 E0.01445
G1 X135.952 Y120.856 E0.06509
G1 X135.437 Y120.856 E0.01445
G1 X135.437 Y123.179 E0.06509
G1 X134.921 Y123.179 E0.01445
G1 X134.921 Y120.856 E0.06509
G1 X134.405 Y120.856 E0.01445
G1 X134.405 Y123.179 E0.06509
G1 X133.890 Y123.179 E0.01445
G1 X133.890 Y120.856 E0.06509
G1 X133.374 Y120.856 E0.01445
G1 X133.374 Y123.179 E0.06509
G1 X132.859 Y123.179 E0.01445
G1 X132.859 Y120.856 E0.06509
G1 X132.343 Y120.856 E0.01445
G1 X132.343 Y123.179 E0.06509
G1 X131.827 Y123.179 E0.01445
G1 X131.827 Y120.856 E0.06509
G1 X131.312 Y120.856 E0.01445
G1 X131.312 Y123.179 E0.06509
G1 X130.796 Y123.179 E0.01445
G1 X130.796 Y120.856 E0.06509
G1 X130.281 Y120.856 E0.01445
G1 X130.281 Y123.179 E0.06509
G1 X129.765 Y123.179 E0.01445
G1 X129.765 Y120.856 E0.06509
G1 X129.249 Y120.856 E0.01445
G1 X129.249 Y123.179 E0.06509
