; generated by PrusaSlicer 2.3.1+win64 on 2023-08-21 at 17:00:46 UTC

; 

; external perimeters extrusion width = 0.60mm
; perimeters extrusion width = 0.50mm
; infill extrusion width = 0.50mm
; solid infill extrusion width = 0.50mm
; top infill extrusion width = 0.45mm
; support material extrusion width = 0.38mm
; first layer extrusion width = 0.42mm

M73 P0 R124
M73 Q0 S126
M201 X1000 Y1000 Z1000 E5000 ; sets maximum accelerations, mm/sec^2
M203 X200 Y200 Z12 E120 ; sets maximum feedrates, mm/sec
M204 P1250 R1250 T1250 ; sets acceleration (P, T) and retract acceleration (R), mm/sec^2
M205 X8.00 Y8.00 Z0.40 E1.50 ; sets the jerk limits, mm/sec
M205 S0 T0 ; sets the minimum extruding and travel feed rate, mm/sec
M107
;TYPE:Custom
M115 U3.8.0 ; tell printer latest fw version
G90 ; use absolute coordinates
M83 ; extruder relative mode
M104 S205 ; set extruder temp
M140 S67 ; set bed temp
M190 S67 ; wait for bed temp
M109 S205 ; wait for extruder temp
G28 W ; home all without mesh bed level
G80 ; mesh bed leveling
G1 Y-3.0 F1000.0 ; go outside print area
G92 E0.0
G1 X60.0 E9.0 F1000.0 ; intro line
G1 X100.0 E12.5 F1000.0 ; intro line
G92 E0.0
M221 S95
G21 ; set units to millimeters
G90 ; use absolute coordinates
M83 ; use relative distances for extrusion
M900 K0.05 ; Filament gcode LA 1.5
M900 K30 ; Filament gcode LA 1.0
;LAYER_CHANGE
;Z:0.2
;HEIGHT:0.2
;BEFORE_LAYER_CHANGE
G92 E0.0
;0.2


G1 E-0.80000 F2100.000
G1 Z0.600 F10800.000
;AFTER_LAYER_CHANGE
;0.2
; printing object new_display_frame.stl id:0 copy 0
G1 X150.080 Y28.102
G1 Z0.200
G1 E0.80000 F2100.000
M204 S1000
;TYPE:Support material
;WIDTH:0.42
G1 F1200.000
G1 X150.080 Y33.248 E0.16137
G1 X150.835 Y33.248 E0.02365
G1 X150.835 Y28.271 E0.15605
G1 X151.589 Y28.271 E0.02365
G1 X151.589 Y33.248 E0.15605
G1 X152.343 Y33.248 E0.02365
G1 X152.343 Y28.271 E0.15605
G1 X153.097 Y28.271 E0.02365
G1 X153.097 Y33.248 E0.15605
G1 X153.851 Y33.248 E0.02365
G1 X153.851 Y28.271 E0.15605
G1 X154.605 Y28.271 E0.02365
G1 X154.605 Y33.248 E0.15605
G1 X155.360 Y33.248 E0.02365
G1 X155.360 Y28.271 E0.15605
G1 X156.114 Y28.271 E0.02365
G1 X156.114 Y33.248 E0.15605
G1 X156.868 Y33.248 E0.02365
G1 X156.868 Y28.271 E0.15605
G1 X157.622 Y28.271 E0.02365
G1 X157.622 Y33.248 E0.15605
G1 X158.376 Y33.248 E0.02365
G1 X158.376 Y28.271 E0.15605
G1 X159.130 Y28.271 E0.02365
G1 X159.130 Y33.248 E0.15605
G1 X159.884 Y33.248 E0.02365
G1 X159.884 Y28.271 E0.15605
G1 X160.639 Y28.271 E0.02365
G1 X160.639 Y33.248 E0.15605
G1 X161.393 Y33.248 E0.02365
G1 X161.393 Y28.271 E0.15605
G1 X162.147 Y28.271 E0.02365
G1 X162.147 Y33.418 E0.16137
;WIPE_START
G1 F8640.000
G1 X162.147 Y30.127 E-0.76000
;WIPE_END
G1 E-0.04000 F2100.000
G1 Z0.800 F10800.000
G1 X193.822 Y28.102
G1 Z0.200
G1 E0.80000 F2100.000
G1 F1200.000
G1 X193.822 Y33.248 E0.16137
G1 X194.576 Y33.248 E0.02365
G1 X194.576 Y28.271 E0.15605
G1 X195.330 Y28.271 E0.02365
G1 X195.330 Y33.248 E0.15605
G1 X196.084 Y33.248 E0.02365
G1 X196.084 Y28.271 E0.15605
G1 X196.838 Y28.271 E0.02365
G1 X196.838 Y33.248 E0.15605
G1 X197.592 Y33.248 E0.02365
G1 X197.592 Y28.271 E0.15605
G1 X198.347 Y28.271 E0.02365
G1 X198.347 Y33.248 E0.15605
G1 X199.101 Y33.248 E0.02365
G1 X199.101 Y28.271 E0.15605
G1 X199.855 Y28.271 E0.02365
G1 X199.855 Y33.248 E0.15605
G1 X200.609 Y33.248 E0.02365
G1 X200.609 Y28.271 E0.15605
G1 X201.363 Y28.271 E0.02365
G1 X201.363 Y33.248 E0.15605
G1 X202.117 Y33.248 E0.02365
G1 X202.117 Y28.271 E0.15605
G1 X202.872 Y28.271 E0.02365
G1 X202.872 Y33.248 E0.15605
G1 X203.626 Y33.248 E0.02365
G1 X203.626 Y28.271 E0.15605
G1 X204.380 Y28.271 E0.02365
G1 X204.380 Y33.248 E0.15605
G1 X205.134 Y33.248 E0.02365
G1 X205.134 Y28.271 E0.15605
G1 X205.888 Y28.271 E0.02365
G1 X205.888 Y33.418 E0.16137
;WIPE_START
G1 F8640.000
G1 X205.888 Y30.127 E-0.76000
;WIPE_END
G1 E-0.04000 F2100.000
G1 Z0.800 F10800.000
G1 X138.066 Y42.300
G1 Z0.200
G1 E0.80000 F2100.000
;TYPE:Perimeter
G1 F1200.000
G1 X221.403 Y42.300 E2.61296
G1 X221.403 Y99.136 E1.78207
M73 P0 R123
M73 Q0 S125
G1 X138.066 Y99.136 E2.61296
G1 X138.066 Y42.360 E1.78019
G1 X138.443 Y42.677 F10800.000
G1 F1200.000
G1 X221.026 Y42.677 E2.58932
G1 X221.026 Y98.759 E1.75843
G1 X138.443 Y98.759 E2.58932
G1 X138.443 Y42.737 E1.75655
G1 X138.820 Y43.054 F10800.000
G1 F1200.000
G1 X220.648 Y43.054 E2.56567
G1 X220.648 Y98.382 E1.73478
G1 X138.820 Y98.382 E2.56567
G1 X138.820 Y43.114 E1.73290
G1 X139.197 Y43.431 F10800.000
G1 F1200.000
G1 X220.271 Y43.431 E2.54202
G1 X220.271 Y98.005 E1.71113
G1 X139.197 Y98.005 E2.54202
G1 X139.197 Y43.491 E1.70925
G1 X139.574 Y43.808 F10800.000
;TYPE:External perimeter
G1 F1200.000
G1 X219.894 Y43.808 E2.51838
M73 P1 R123
M73 Q1 S125
G1 X219.894 Y97.628 E1.68749
G1 X139.574 Y97.628 E2.51838
G1 X139.574 Y43.868 E1.68561
M73 P1 R122
M73 Q1 S124
G1 X139.446 Y43.429 F10800.000
;WIPE_START
G1 F8640.000
G1 X142.866 Y43.865 E-0.76000
;WIPE_END
G1 E-0.04000 F2100.000
G1 Z0.800 F10800.000
G1 X131.903 Y35.655
G1 Z0.200
G1 E0.80000 F2100.000
;TYPE:Perimeter
G1 F1200.000
G1 X224.066 Y35.655 E2.88972
G1 X224.066 Y103.039 E2.11277
G1 X131.903 Y103.039 E2.88972
G1 X131.903 Y35.715 E2.11089
G1 X131.526 Y35.278 F10800.000
G1 F1200.000
G1 X224.443 Y35.278 E2.91336
G1 X224.443 Y103.416 E2.13641
G1 X131.526 Y103.416 E2.91336
G1 X131.526 Y35.338 E2.13453
G1 X131.148 Y34.901 F10800.000
G1 F1200.000
G1 X224.820 Y34.901 E2.93701
G1 X224.820 Y103.793 E2.16006
G1 X131.148 Y103.793 E2.93701
G1 X131.148 Y34.961 E2.15818
G1 X130.771 Y34.524 F10800.000
G1 F1200.000
G1 X225.197 Y34.524 E2.96066
G1 X225.197 Y104.170 E2.18371
G1 X130.771 Y104.170 E2.96066
M73 P2 R121
M73 Q1 S123
G1 X130.771 Y34.584 E2.18182
M73 Q2 S123
G1 X130.394 Y34.147 F10800.000
;TYPE:External perimeter
G1 F1200.000
G1 X225.574 Y34.147 E2.98430
G1 X225.574 Y104.547 E2.20735
G1 X130.394 Y104.547 E2.98430
G1 X130.394 Y34.207 E2.20547
G1 X130.785 Y34.231 F10800.000
;WIPE_START
G1 F8640.000
G1 X133.686 Y34.205 E-0.76000
;WIPE_END
G1 E-0.04000 F2100.000
G1 Z0.800 F10800.000
G1 X138.183 Y99.249
G1 Z0.200
G1 E0.80000 F2100.000
;TYPE:Solid infill
;WIDTH:0.420605
G1 F1200.000
G1 X141.690 Y102.756 E0.15575
G1 X142.224 Y102.756 E0.01677
G1 X138.887 Y99.419 E0.14821
G1 X139.421 Y99.419 E0.01677
G1 X142.758 Y102.756 E0.14821
G1 X143.292 Y102.756 E0.01677
G1 X139.955 Y99.419 E0.14821
G1 X140.489 Y99.419 E0.01677
G1 X143.826 Y102.756 E0.14821
G1 X144.360 Y102.756 E0.01677
G1 X141.023 Y99.419 E0.14821
G1 X141.557 Y99.419 E0.01677
G1 X144.894 Y102.756 E0.14821
G1 X145.429 Y102.756 E0.01677
G1 X142.091 Y99.419 E0.14821
G1 X142.626 Y99.419 E0.01677
G1 X145.963 Y102.756 E0.14821
G1 X146.497 Y102.756 E0.01677
G1 X143.160 Y99.419 E0.14821
G1 X143.694 Y99.419 E0.01677
G1 X147.031 Y102.756 E0.14821
G1 X147.565 Y102.756 E0.01677
G1 X144.228 Y99.419 E0.14821
G1 X144.762 Y99.419 E0.01677
G1 X148.099 Y102.756 E0.14821
G1 X148.633 Y102.756 E0.01677
G1 X145.296 Y99.419 E0.14821
G1 X145.830 Y99.419 E0.01677
G1 X149.167 Y102.756 E0.14821
G1 X149.702 Y102.756 E0.01677
G1 X146.364 Y99.419 E0.14821
G1 X146.899 Y99.419 E0.01677
G1 X150.236 Y102.756 E0.14821
G1 X150.770 Y102.756 E0.01677
G1 X147.433 Y99.419 E0.14821
G1 X147.967 Y99.419 E0.01677
G1 X151.304 Y102.756 E0.14821
G1 X151.838 Y102.756 E0.01677
G1 X148.501 Y99.419 E0.14821
G1 X149.035 Y99.419 E0.01677
G1 X152.372 Y102.756 E0.14821
G1 X152.906 Y102.756 E0.01677
G1 X149.569 Y99.419 E0.14821
G1 X150.103 Y99.419 E0.01677
G1 X153.440 Y102.756 E0.14821
G1 X153.975 Y102.756 E0.01677
G1 X150.637 Y99.419 E0.14821
G1 X151.172 Y99.419 E0.01677
G1 X154.509 Y102.756 E0.14821
G1 X155.043 Y102.756 E0.01677
G1 X151.706 Y99.419 E0.14821
G1 X152.240 Y99.419 E0.01677
G1 X155.577 Y102.756 E0.14821
G1 X156.111 Y102.756 E0.01677
G1 X152.774 Y99.419 E0.14821
G1 X153.308 Y99.419 E0.01677
G1 X156.645 Y102.756 E0.14821
G1 X157.179 Y102.756 E0.01677
G1 X153.842 Y99.419 E0.14821
G1 X154.376 Y99.419 E0.01677
G1 X157.713 Y102.756 E0.14821
G1 X158.248 Y102.756 E0.01677
G1 X154.911 Y99.419 E0.14821
G1 X155.445 Y99.419 E0.01677
G1 X158.782 Y102.756 E0.14821
G1 X159.316 Y102.756 E0.01677
G1 X155.979 Y99.419 E0.14821
G1 X156.513 Y99.419 E0.01677
G1 X159.850 Y102.756 E0.14821
G1 X160.384 Y102.756 E0.01677
G1 X157.047 Y99.419 E0.14821
G1 X157.581 Y99.419 E0.01677
G1 X160.918 Y102.756 E0.14821
G1 X161.452 Y102.756 E0.01677
G1 X158.115 Y99.419 E0.14821
G1 X158.649 Y99.419 E0.01677
G1 X161.986 Y102.756 E0.14821
G1 X162.521 Y102.756 E0.01677
G1 X159.184 Y99.419 E0.14821
G1 X159.718 Y99.419 E0.01677
G1 X163.055 Y102.756 E0.14821
G1 X163.589 Y102.756 E0.01677
G1 X160.252 Y99.419 E0.14821
G1 X160.786 Y99.419 E0.01677
G1 X164.123 Y102.756 E0.14821
G1 X164.657 Y102.756 E0.01677
G1 X161.320 Y99.419 E0.14821
G1 X161.854 Y99.419 E0.01677
G1 X165.191 Y102.756 E0.14821
G1 X165.725 Y102.756 E0.01677
G1 X162.388 Y99.419 E0.14821
G1 X162.922 Y99.419 E0.01677
G1 X166.260 Y102.756 E0.14821
G1 X166.794 Y102.756 E0.01677
G1 X163.457 Y99.419 E0.14821
G1 X163.991 Y99.419 E0.01677
G1 X167.328 Y102.756 E0.14821
G1 X167.862 Y102.756 E0.01677
G1 X164.525 Y99.419 E0.14821
G1 X165.059 Y99.419 E0.01677
G1 X168.396 Y102.756 E0.14821
G1 X168.930 Y102.756 E0.01677
G1 X165.593 Y99.419 E0.14821
G1 X166.127 Y99.419 E0.01677
G1 X169.464 Y102.756 E0.14821
G1 X169.998 Y102.756 E0.01677
G1 X166.661 Y99.419 E0.14821
G1 X167.195 Y99.419 E0.01677
G1 X170.533 Y102.756 E0.14821
G1 X171.067 Y102.756 E0.01677
G1 X167.730 Y99.419 E0.14821
G1 X168.264 Y99.419 E0.01677
G1 X171.601 Y102.756 E0.14821
G1 X172.135 Y102.756 E0.01677
G1 X168.798 Y99.419 E0.14821
G1 X169.332 Y99.419 E0.01677
G1 X172.669 Y102.756 E0.14821
G1 X173.203 Y102.756 E0.01677
G1 X169.866 Y99.419 E0.14821
G1 X170.400 Y99.419 E0.01677
G1 X173.737 Y102.756 E0.14821
G1 X174.271 Y102.756 E0.01677
G1 X170.934 Y99.419 E0.14821
G1 X171.468 Y99.419 E0.01677
G1 X174.806 Y102.756 E0.14821
G1 X175.340 Y102.756 E0.01677
G1 X172.003 Y99.419 E0.14821
G1 X172.537 Y99.419 E0.01677
G1 X175.874 Y102.756 E0.14821
G1 X176.408 Y102.756 E0.01677
G1 X173.071 Y99.419 E0.14821
G1 X173.605 Y99.419 E0.01677
G1 X176.942 Y102.756 E0.14821
G1 X177.476 Y102.756 E0.01677
G1 X174.139 Y99.419 E0.14821
G1 X174.673 Y99.419 E0.01677
G1 X178.010 Y102.756 E0.14821
G1 X178.544 Y102.756 E0.01677
G1 X175.207 Y99.419 E0.14821
G1 X175.741 Y99.419 E0.01677
G1 X179.079 Y102.756 E0.14821
G1 X179.613 Y102.756 E0.01677
G1 X176.276 Y99.419 E0.14821
G1 X176.810 Y99.419 E0.01677
G1 X180.147 Y102.756 E0.14821
G1 X180.681 Y102.756 E0.01677
G1 X177.344 Y99.419 E0.14821
G1 X177.878 Y99.419 E0.01677
G1 X181.215 Y102.756 E0.14821
G1 X181.749 Y102.756 E0.01677
G1 X178.412 Y99.419 E0.14821
G1 X178.946 Y99.419 E0.01677
G1 X182.283 Y102.756 E0.14821
G1 X182.817 Y102.756 E0.01677
G1 X179.480 Y99.419 E0.14821
G1 X180.014 Y99.419 E0.01677
G1 X183.352 Y102.756 E0.14821
G1 X183.886 Y102.756 E0.01677
G1 X180.549 Y99.419 E0.14821
G1 X181.083 Y99.419 E0.01677
G1 X184.420 Y102.756 E0.14821
G1 X184.954 Y102.756 E0.01677
G1 X181.617 Y99.419 E0.14821
G1 X182.151 Y99.419 E0.01677
G1 X185.488 Y102.756 E0.14821
G1 X186.022 Y102.756 E0.01677
G1 X182.685 Y99.419 E0.14821
G1 X183.219 Y99.419 E0.01677
G1 X186.556 Y102.756 E0.14821
G1 X187.090 Y102.756 E0.01677
G1 X183.753 Y99.419 E0.14821
G1 X184.287 Y99.419 E0.01677
G1 X187.625 Y102.756 E0.14821
G1 X188.159 Y102.756 E0.01677
G1 X184.822 Y99.419 E0.14821
G1 X185.356 Y99.419 E0.01677
G1 X188.693 Y102.756 E0.14821
G1 X189.227 Y102.756 E0.01677
G1 X185.890 Y99.419 E0.14821
G1 X186.424 Y99.419 E0.01677
G1 X189.761 Y102.756 E0.14821
G1 X190.295 Y102.756 E0.01677
G1 X186.958 Y99.419 E0.14821
G1 X187.492 Y99.419 E0.01677
G1 X190.829 Y102.756 E0.14821
G1 X191.363 Y102.756 E0.01677
G1 X188.026 Y99.419 E0.14821
G1 X188.561 Y99.419 E0.01677
G1 X191.898 Y102.756 E0.14821
G1 X192.432 Y102.756 E0.01677
G1 X189.095 Y99.419 E0.14821
G1 X189.629 Y99.419 E0.01677
G1 X192.966 Y102.756 E0.14821
G1 X193.500 Y102.756 E0.01677
G1 X190.163 Y99.419 E0.14821
G1 X190.697 Y99.419 E0.01677
G1 X194.034 Y102.756 E0.14821
G1 X194.568 Y102.756 E0.01677
G1 X191.231 Y99.419 E0.14821
G1 X191.765 Y99.419 E0.01677
G1 X195.102 Y102.756 E0.14821
G1 X195.637 Y102.756 E0.01677
G1 X192.299 Y99.419 E0.14821
G1 X192.834 Y99.419 E0.01677
G1 X196.171 Y102.756 E0.14821
G1 X196.705 Y102.756 E0.01677
G1 X193.368 Y99.419 E0.14821
G1 X193.902 Y99.419 E0.01677
G1 X197.239 Y102.756 E0.14821
G1 X197.773 Y102.756 E0.01677
G1 X194.436 Y99.419 E0.14821
G1 X194.970 Y99.419 E0.01677
G1 X198.307 Y102.756 E0.14821
G1 X198.841 Y102.756 E0.01677
G1 X195.504 Y99.419 E0.14821
G1 X196.038 Y99.419 E0.01677
G1 X199.375 Y102.756 E0.14821
G1 X199.910 Y102.756 E0.01677
G1 X196.572 Y99.419 E0.14821
G1 X197.107 Y99.419 E0.01677
G1 X200.444 Y102.756 E0.14821
G1 X200.978 Y102.756 E0.01677
G1 X197.641 Y99.419 E0.14821
G1 X198.175 Y99.419 E0.01677
G1 X201.512 Y102.756 E0.14821
G1 X202.046 Y102.756 E0.01677
G1 X198.709 Y99.419 E0.14821
G1 X199.243 Y99.419 E0.01677
G1 X202.580 Y102.756 E0.14821
G1 X203.114 Y102.756 E0.01677
G1 X199.777 Y99.419 E0.14821
G1 X200.311 Y99.419 E0.01677
G1 X203.648 Y102.756 E0.14821
G1 X204.183 Y102.756 E0.01677
G1 X200.845 Y99.419 E0.14821
G1 X201.380 Y99.419 E0.01677
G1 X204.717 Y102.756 E0.14821
G1 X205.251 Y102.756 E0.01677
G1 X201.914 Y99.419 E0.14821
G1 X202.448 Y99.419 E0.01677
G1 X205.785 Y102.756 E0.14821
G1 X206.319 Y102.756 E0.01677
G1 X202.982 Y99.419 E0.14821
G1 X203.516 Y99.419 E0.01677
G1 X206.853 Y102.756 E0.14821
G1 X207.387 Y102.756 E0.01677
G1 X204.050 Y99.419 E0.14821
G1 X204.584 Y99.419 E0.01677
G1 X207.921 Y102.756 E0.14821
G1 X208.456 Y102.756 E0.01677
G1 X205.118 Y99.419 E0.14821
M73 Q2 S122
G1 X205.653 Y99.419 E0.01677
G1 X208.990 Y102.756 E0.14821
G1 X209.524 Y102.756 E0.01677
G1 X206.187 Y99.419 E0.14821
G1 X206.721 Y99.419 E0.01677
G1 X210.058 Y102.756 E0.14821
M73 P2 R120
G1 X210.592 Y102.756 E0.01677
G1 X207.255 Y99.419 E0.14821
G1 X207.789 Y99.419 E0.01677
G1 X211.126 Y102.756 E0.14821
G1 X211.660 Y102.756 E0.01677
G1 X208.323 Y99.419 E0.14821
G1 X208.857 Y99.419 E0.01677
G1 X212.194 Y102.756 E0.14821
G1 X212.729 Y102.756 E0.01677
G1 X209.391 Y99.419 E0.14821
G1 X209.926 Y99.419 E0.01677
G1 X213.263 Y102.756 E0.14821
G1 X213.797 Y102.756 E0.01677
G1 X210.460 Y99.419 E0.14821
G1 X210.994 Y99.419 E0.01677
G1 X214.331 Y102.756 E0.14821
G1 X214.865 Y102.756 E0.01677
G1 X211.528 Y99.419 E0.14821
G1 X212.062 Y99.419 E0.01677
G1 X215.399 Y102.756 E0.14821
G1 X215.933 Y102.756 E0.01677
G1 X212.596 Y99.419 E0.14821
G1 X213.130 Y99.419 E0.01677
G1 X216.467 Y102.756 E0.14821
G1 X217.002 Y102.756 E0.01677
G1 X213.664 Y99.419 E0.14821
G1 X214.199 Y99.419 E0.01677
G1 X217.536 Y102.756 E0.14821
G1 X218.070 Y102.756 E0.01677
G1 X214.733 Y99.419 E0.14821
G1 X215.267 Y99.419 E0.01677
G1 X218.604 Y102.756 E0.14821
G1 X219.138 Y102.756 E0.01677
G1 X215.801 Y99.419 E0.14821
G1 X216.335 Y99.419 E0.01677
G1 X219.672 Y102.756 E0.14821
G1 X220.206 Y102.756 E0.01677
G1 X216.869 Y99.419 E0.14821
G1 X217.403 Y99.419 E0.01677
G1 X220.740 Y102.756 E0.14821
G1 X221.275 Y102.756 E0.01677
G1 X217.938 Y99.419 E0.14821
G1 X218.472 Y99.419 E0.01677
G1 X221.809 Y102.756 E0.14821
G1 X222.343 Y102.756 E0.01677
G1 X219.006 Y99.419 E0.14821
G1 X219.540 Y99.419 E0.01677
G1 X222.877 Y102.756 E0.14821
G1 X223.411 Y102.756 E0.01677
G1 X220.074 Y99.419 E0.14821
G1 X220.608 Y99.419 E0.01677
G1 X223.783 Y102.594 E0.14101
G1 X223.783 Y102.060 E0.01677
G1 X221.142 Y99.419 E0.11729
G1 X221.676 Y99.419 E0.01677
G1 X223.783 Y101.526 E0.09357
G1 X223.783 Y100.992 E0.01677
G1 X221.685 Y98.894 E0.09317
G1 X221.685 Y98.360 E0.01677
G1 X223.783 Y100.458 E0.09317
G1 X223.783 Y99.923 E0.01677
G1 X221.685 Y97.826 E0.09317
G1 X221.685 Y97.291 E0.01677
G1 X223.783 Y99.389 E0.09317
G1 X223.783 Y98.855 E0.01677
G1 X221.685 Y96.757 E0.09317
G1 X221.685 Y96.223 E0.01677
G1 X223.783 Y98.321 E0.09317
G1 X223.783 Y97.787 E0.01677
G1 X221.685 Y95.689 E0.09317
G1 X221.685 Y95.155 E0.01677
G1 X223.783 Y97.253 E0.09317
G1 X223.783 Y96.719 E0.01677
G1 X221.685 Y94.621 E0.09317
G1 X221.685 Y94.087 E0.01677
G1 X223.783 Y96.185 E0.09317
G1 X223.783 Y95.650 E0.01677
G1 X221.685 Y93.553 E0.09317
G1 X221.685 Y93.018 E0.01677
