; generated by PrusaSlicer 2.3.1+win64 on 2023-08-21 at 17:01:23 UTC

; 

; external perimeters extrusion width = 0.60mm
; perimeters extrusion width = 0.50mm
; infill extrusion width = 0.50mm
; solid infill extrusion width = 0.50mm
; top infill extrusion width = 0.45mm
; support material extrusion width = 0.38mm
; first layer extrusion width = 0.42mm

M73 P0 R42
M73 Q0 S43
M201 X1000 Y1000 Z1000 E5000 ; sets maximum accelerations, mm/sec^2
M203 X200 Y200 Z12 E120 ; sets maximum feedrates, mm/sec
M204 P1250 R1250 T1250 ; sets acceleration (P, T) and retract acceleration (R), mm/sec^2
M205 X8.00 Y8.00 Z0.40 E1.50 ; sets the jerk limits, mm/sec
M205 S0 T0 ; sets the minimum extruding and travel feed rate, mm/sec
M107
;TYPE:Custom
M115 U3.8.0 ; tell printer latest fw version
G90 ; use absolute coordinates
M83 ; extruder relative mode
M104 S205 ; set extruder temp
M140 S67 ; set bed temp
M190 S67 ; wait for bed temp
M109 S205 ; wait for extruder temp
G28 W ; home all without mesh bed level
G80 ; mesh bed leveling
G1 Y-3.0 F1000.0 ; go outside print area
G92 E0.0
G1 X60.0 E9.0 F1000.0 ; intro line
G1 X100.0 E12.5 F1000.0 ; intro line
G92 E0.0
M221 S95
G21 ; set units to millimeters
G90 ; use absolute coordinates
M83 ; use relative distances for extrusion
M900 K0.05 ; Filament gcode LA 1.5
M900 K30 ; Filament gcode LA 1.0
;LAYER_CHANGE
;Z:0.2
;HEIGHT:0.2
;BEFORE_LAYER_CHANGE
G92 E0.0
;0.2


M73 Q0 S42
G1 E-0.80000 F2100.000
G1 Z0.600 F10800.000
;AFTER_LAYER_CHANGE
;0.2
; printing object new_display_frame_cover.stl id:0 copy 0
G1 X207.839 Y23.539
G1 Z0.200
G1 E0.80000 F2100.000
M204 S1000
;TYPE:Support material
;WIDTH:0.42
G1 F1200.000
G1 X207.839 Y11.133 E0.38900
G1 X207.085 Y11.133 E0.02365
G1 X207.085 Y23.370 E0.38368
G1 X206.331 Y23.370 E0.02365
G1 X206.331 Y11.133 E0.38368
G1 X205.577 Y11.133 E0.02365
G1 X205.577 Y23.370 E0.38368
G1 X204.823 Y23.370 E0.02365
G1 X204.823 Y11.133 E0.38368
G1 X204.069 Y11.133 E0.02365
G1 X204.069 Y23.370 E0.38368
G1 X203.314 Y23.370 E0.02365
G1 X203.314 Y11.133 E0.38368
G1 X202.560 Y11.133 E0.02365
G1 X202.560 Y23.370 E0.38368
G1 X201.806 Y23.370 E0.02365
G1 X201.806 Y11.133 E0.38368
G1 X201.052 Y11.133 E0.02365
G1 X201.052 Y23.370 E0.38368
G1 X200.298 Y23.370 E0.02365
G1 X200.298 Y11.133 E0.38368
G1 X199.544 Y11.133 E0.02365
G1 X199.544 Y23.370 E0.38368
G1 X198.789 Y23.370 E0.02365
G1 X198.789 Y11.133 E0.38368
G1 X198.035 Y11.133 E0.02365
G1 X198.035 Y23.370 E0.38368
G1 X197.701 Y23.370 E0.01050
G1 X197.701 Y21.702 E0.05227
G1 X197.281 Y21.702 E0.01315
G1 X197.281 Y11.133 E0.33140
G1 X196.527 Y11.133 E0.02365
G1 X196.527 Y21.702 E0.33140
G1 X195.773 Y21.702 E0.02365
G1 X195.773 Y11.133 E0.33140
G1 X195.019 Y11.133 E0.02365
G1 X195.019 Y21.702 E0.33140
G1 X194.376 Y21.702 E0.02014
G1 X194.376 Y23.370 E0.05227
G1 X194.264 Y23.370 E0.00351
G1 X194.264 Y11.133 E0.38368
G1 X193.510 Y11.133 E0.02365
G1 X193.510 Y23.370 E0.38368
G1 X192.756 Y23.370 E0.02365
G1 X192.756 Y11.133 E0.38368
G1 X192.002 Y11.133 E0.02365
G1 X192.002 Y23.370 E0.38368
G1 X191.248 Y23.370 E0.02365
G1 X191.248 Y11.133 E0.38368
G1 X190.494 Y11.133 E0.02365
G1 X190.494 Y23.370 E0.38368
G1 X189.740 Y23.370 E0.02365
G1 X189.740 Y11.133 E0.38368
G1 X188.985 Y11.133 E0.02365
G1 X188.985 Y23.370 E0.38368
G1 X188.231 Y23.370 E0.02365
G1 X188.231 Y11.133 E0.38368
G1 X187.477 Y11.133 E0.02365
G1 X187.477 Y23.370 E0.38368
M73 P1 R42
M73 Q1 S42
G1 X186.723 Y23.370 E0.02365
G1 X186.723 Y11.133 E0.38368
G1 X185.969 Y11.133 E0.02365
G1 X185.969 Y23.370 E0.38368
G1 X185.215 Y23.370 E0.02365
G1 X185.215 Y11.133 E0.38368
G1 X184.460 Y11.133 E0.02365
G1 X184.460 Y23.370 E0.38368
G1 X183.706 Y23.370 E0.02365
G1 X183.706 Y11.133 E0.38368
G1 X182.952 Y11.133 E0.02365
G1 X182.952 Y23.370 E0.38368
G1 X182.198 Y23.370 E0.02365
G1 X182.198 Y11.133 E0.38368
G1 X181.444 Y11.133 E0.02365
G1 X181.444 Y23.370 E0.38368
G1 X180.690 Y23.370 E0.02365
G1 X180.690 Y11.133 E0.38368
G1 X179.935 Y11.133 E0.02365
G1 X179.935 Y23.370 E0.38368
G1 X179.181 Y23.370 E0.02365
G1 X179.181 Y11.133 E0.38368
G1 X178.427 Y11.133 E0.02365
G1 X178.427 Y23.370 E0.38368
G1 X177.673 Y23.370 E0.02365
G1 X177.673 Y11.133 E0.38368
G1 X176.919 Y11.133 E0.02365
G1 X176.919 Y23.370 E0.38368
G1 X176.165 Y23.370 E0.02365
G1 X176.165 Y11.133 E0.38368
G1 X175.410 Y11.133 E0.02365
G1 X175.410 Y23.370 E0.38368
G1 X174.656 Y23.370 E0.02365
G1 X174.656 Y11.133 E0.38368
G1 X173.902 Y11.133 E0.02365
G1 X173.902 Y21.702 E0.33140
G1 X173.148 Y21.702 E0.02365
G1 X173.148 Y11.133 E0.33140
G1 X172.394 Y11.133 E0.02365
G1 X172.394 Y21.702 E0.33140
G1 X171.640 Y21.702 E0.02365
G1 X171.640 Y11.133 E0.33140
G1 X170.886 Y11.133 E0.02365
G1 X170.886 Y23.370 E0.38368
G1 X170.131 Y23.370 E0.02365
G1 X170.131 Y11.133 E0.38368
G1 X169.377 Y11.133 E0.02365
G1 X169.377 Y23.370 E0.38368
G1 X168.623 Y23.370 E0.02365
G1 X168.623 Y11.133 E0.38368
G1 X167.869 Y11.133 E0.02365
G1 X167.869 Y23.370 E0.38368
G1 X167.115 Y23.370 E0.02365
G1 X167.115 Y11.133 E0.38368
G1 X166.361 Y11.133 E0.02365
G1 X166.361 Y23.370 E0.38368
G1 X165.606 Y23.370 E0.02365
G1 X165.606 Y11.133 E0.38368
M73 P1 R41
G1 X164.852 Y11.133 E0.02365
G1 X164.852 Y23.370 E0.38368
G1 X164.098 Y23.370 E0.02365
G1 X164.098 Y11.133 E0.38368
G1 X163.344 Y11.133 E0.02365
G1 X163.344 Y23.370 E0.38368
G1 X162.590 Y23.370 E0.02365
G1 X162.590 Y11.133 E0.38368
G1 X161.836 Y11.133 E0.02365
G1 X161.836 Y23.370 E0.38368
G1 X161.081 Y23.370 E0.02365
G1 X161.081 Y10.963 E0.38900
;WIPE_START
G1 F8640.000
G1 X161.081 Y14.255 E-0.76000
;WIPE_END
G1 E-0.04000 F2100.000
G1 Z0.800 F10800.000
G1 X183.062 Y51.157
G1 Z0.200
G1 E0.80000 F2100.000
;TYPE:Perimeter
G1 F1200.000
G1 X183.504 Y50.951 E0.01529
G1 X183.975 Y50.825 E0.01529
G1 X184.428 Y50.786 E0.01426
G1 X184.937 Y50.823 E0.01600
G1 X185.417 Y50.951 E0.01560
G1 X185.859 Y51.157 E0.01529
G1 X186.258 Y51.437 E0.01529
G1 X186.603 Y51.782 E0.01529
G1 X186.883 Y52.181 E0.01529
G1 X187.089 Y52.623 E0.01529
G1 X187.215 Y53.094 E0.01529
G1 X187.258 Y53.580 E0.01529
G1 X187.215 Y54.066 E0.01529
G1 X187.089 Y54.537 E0.01529
G1 X186.883 Y54.978 E0.01529
G1 X186.603 Y55.378 E0.01529
G1 X186.258 Y55.723 E0.01529
G1 X185.859 Y56.002 E0.01529
G1 X185.417 Y56.208 E0.01529
G1 X184.946 Y56.334 E0.01529
G1 X184.460 Y56.377 E0.01529
G1 X183.975 Y56.334 E0.01529
G1 X183.504 Y56.208 E0.01529
G1 X183.062 Y56.002 E0.01529
G1 X182.662 Y55.723 E0.01529
G1 X182.318 Y55.378 E0.01529
G1 X182.038 Y54.978 E0.01529
G1 X181.832 Y54.537 E0.01529
G1 X181.706 Y54.066 E0.01529
G1 X181.663 Y53.580 E0.01529
G1 X181.706 Y53.094 E0.01529
G1 X181.832 Y52.623 E0.01529
G1 X182.038 Y52.181 E0.01529
G1 X182.318 Y51.782 E0.01529
G1 X182.662 Y51.437 E0.01529
G1 X183.013 Y51.192 E0.01341
G1 X183.229 Y51.501 F10800.000
G1 F1200.000
G1 X183.633 Y51.307 E0.01405
G1 X184.040 Y51.198 E0.01322
G1 X184.430 Y51.164 E0.01228
G1 X184.874 Y51.196 E0.01393
G1 X185.288 Y51.307 E0.01344
G1 X185.670 Y51.485 E0.01322
G1 X186.015 Y51.727 E0.01322
G1 X186.313 Y52.025 E0.01322
G1 X186.555 Y52.371 E0.01322
G1 X186.733 Y52.753 E0.01322
G1 X186.842 Y53.160 E0.01322
G1 X186.879 Y53.580 E0.01322
G1 X186.842 Y54.000 E0.01322
G1 X186.733 Y54.407 E0.01322
G1 X186.555 Y54.789 E0.01322
G1 X186.313 Y55.135 E0.01322
G1 X186.015 Y55.433 E0.01322
G1 X185.670 Y55.674 E0.01322
G1 X185.288 Y55.853 E0.01322
G1 X184.880 Y55.962 E0.01322
G1 X184.460 Y55.998 E0.01322
G1 X184.040 Y55.962 E0.01322
M73 Q2 S42
G1 X183.633 Y55.853 E0.01322
G1 X183.251 Y55.674 E0.01322
G1 X182.906 Y55.433 E0.01322
G1 X182.608 Y55.135 E0.01322
G1 X182.366 Y54.789 E0.01322
M73 P2 R41
G1 X182.188 Y54.407 E0.01322
G1 X182.079 Y54.000 E0.01322
G1 X182.042 Y53.580 E0.01322
G1 X182.079 Y53.160 E0.01322
G1 X182.188 Y52.753 E0.01322
G1 X182.366 Y52.371 E0.01322
G1 X182.608 Y52.025 E0.01322
G1 X182.906 Y51.727 E0.01322
G1 X183.180 Y51.535 E0.01049
G1 X183.440 Y51.813 F10800.000
G1 F1200.000
G1 X183.763 Y51.663 E0.01115
G1 X184.106 Y51.571 E0.01115
G1 X184.433 Y51.542 E0.01029
G1 X184.811 Y51.570 E0.01186
G1 X185.158 Y51.663 E0.01128
G1 X185.480 Y51.813 E0.01115
G1 X185.772 Y52.017 E0.01115
G1 X186.023 Y52.269 E0.01115
G1 X186.227 Y52.560 E0.01115
G1 X186.377 Y52.882 E0.01115
G1 X186.469 Y53.226 E0.01115
G1 X186.500 Y53.580 E0.01115
G1 X186.469 Y53.934 E0.01115
G1 X186.377 Y54.278 E0.01115
G1 X186.227 Y54.600 E0.01115
G1 X186.023 Y54.891 E0.01115
G1 X185.772 Y55.143 E0.01115
G1 X185.480 Y55.347 E0.01115
G1 X185.158 Y55.497 E0.01115
G1 X184.815 Y55.589 E0.01115
G1 X184.460 Y55.620 E0.01115
G1 X184.106 Y55.589 E0.01115
G1 X183.763 Y55.497 E0.01115
G1 X183.440 Y55.347 E0.01115
G1 X183.149 Y55.143 E0.01115
G1 X182.898 Y54.891 E0.01115
G1 X182.694 Y54.600 E0.01115
G1 X182.543 Y54.278 E0.01115
G1 X182.451 Y53.934 E0.01115
G1 X182.420 Y53.580 E0.01115
G1 X182.451 Y53.226 E0.01115
G1 X182.543 Y52.882 E0.01115
G1 X182.694 Y52.560 E0.01115
G1 X182.898 Y52.269 E0.01115
G1 X183.149 Y52.017 E0.01115
G1 X183.391 Y51.848 E0.00927
G1 X183.607 Y52.156 F10800.000
;TYPE:External perimeter
G1 F1200.000
G1 X183.892 Y52.019 E0.00992
G1 X184.172 Y51.944 E0.00908
G1 X184.436 Y51.920 E0.00831
G1 X184.747 Y51.943 E0.00979
G1 X185.029 Y52.019 E0.00913
G1 X185.291 Y52.141 E0.00908
G1 X185.528 Y52.307 E0.00908
G1 X185.733 Y52.512 E0.00908
G1 X185.899 Y52.749 E0.00908
G1 X186.022 Y53.012 E0.00908
G1 X186.097 Y53.291 E0.00908
G1 X186.122 Y53.580 E0.00908
G1 X186.097 Y53.868 E0.00908
G1 X186.022 Y54.148 E0.00908
G1 X185.899 Y54.411 E0.00908
G1 X185.733 Y54.648 E0.00908
G1 X185.528 Y54.853 E0.00908
G1 X185.291 Y55.019 E0.00908
G1 X185.029 Y55.141 E0.00908
G1 X184.749 Y55.216 E0.00908
G1 X184.460 Y55.241 E0.00908
G1 X184.172 Y55.216 E0.00908
G1 X183.892 Y55.141 E0.00908
G1 X183.630 Y55.019 E0.00908
G1 X183.392 Y54.853 E0.00908
G1 X183.188 Y54.648 E0.00908
G1 X183.021 Y54.411 E0.00908
G1 X182.899 Y54.148 E0.00908
G1 X182.824 Y53.868 E0.00908
G1 X182.799 Y53.580 E0.00908
G1 X182.824 Y53.291 E0.00908
G1 X182.899 Y53.012 E0.00908
G1 X183.021 Y52.749 E0.00908
G1 X183.188 Y52.512 E0.00908
G1 X183.392 Y52.307 E0.00908
G1 X183.558 Y52.191 E0.00635
G1 X183.604 Y51.840 F10800.000
;WIPE_START
G1 F8640.000
G1 X183.892 Y52.019 E-0.08673
G1 X184.172 Y51.944 E-0.06688
G1 X184.436 Y51.920 E-0.06121
G1 X184.747 Y51.943 E-0.07212
G1 X185.029 Y52.019 E-0.06723
G1 X185.291 Y52.141 E-0.06687
G1 X185.528 Y52.307 E-0.06687
G1 X185.733 Y52.512 E-0.06688
G1 X185.899 Y52.749 E-0.06688
G1 X186.022 Y53.012 E-0.06688
G1 X186.097 Y53.291 E-0.06688
G1 X186.098 Y53.311 E-0.00458
;WIPE_END
G1 E-0.04000 F2100.000
G1 Z0.800 F10800.000
G1 X228.542 Y36.776
G1 Z0.200
G1 E0.80000 F2100.000
;TYPE:Perimeter
G1 F1200.000
G1 X230.542 Y36.776 E0.06271
G1 X230.542 Y50.719 E0.43715
G1 X229.925 Y50.666 E0.01942
G1 X229.409 Y50.711 E0.01624
G1 X228.874 Y50.854 E0.01736
G1 X228.373 Y51.088 E0.01736
G1 X227.919 Y51.405 E0.01736
G1 X227.528 Y51.797 E0.01735
G1 X227.210 Y52.250 E0.01736
G1 X226.976 Y52.752 E0.01736
G1 X226.833 Y53.287 E0.01736
G1 X226.785 Y53.838 E0.01736
G1 X226.833 Y54.390 E0.01736
G1 X226.976 Y54.924 E0.01736
G1 X227.210 Y55.426 E0.01736
G1 X227.528 Y55.879 E0.01736
G1 X227.919 Y56.271 E0.01735
G1 X228.373 Y56.588 E0.01736
G1 X228.698 Y56.740 E0.01125
G1 X184.639 Y56.740 E1.38142
G1 X185.012 Y56.707 E0.01173
G1 X185.547 Y56.564 E0.01736
G1 X186.048 Y56.330 E0.01736
G1 X186.502 Y56.013 E0.01736
G1 X186.893 Y55.621 E0.01736
G1 X187.211 Y55.168 E0.01736
G1 X187.445 Y54.666 E0.01736
G1 X187.588 Y54.131 E0.01736
G1 X187.636 Y53.580 E0.01736
G1 X187.588 Y53.028 E0.01736
G1 X187.445 Y52.494 E0.01736
G1 X187.211 Y51.992 E0.01736
G1 X186.893 Y51.539 E0.01736
G1 X186.502 Y51.147 E0.01736
G1 X186.048 Y50.830 E0.01736
G1 X185.547 Y50.596 E0.01736
G1 X185.000 Y50.449 E0.01775
G1 X184.425 Y50.407 E0.01807
G1 X183.909 Y50.452 E0.01624
G1 X183.374 Y50.596 E0.01736
G1 X182.873 Y50.830 E0.01736
G1 X182.419 Y51.147 E0.01736
G1 X182.028 Y51.539 E0.01736
G1 X181.710 Y51.992 E0.01736
G1 X181.476 Y52.494 E0.01736
G1 X181.333 Y53.028 E0.01736
G1 X181.285 Y53.580 E0.01736
G1 X181.333 Y54.131 E0.01736
G1 X181.476 Y54.666 E0.01736
G1 X181.710 Y55.168 E0.01736
G1 X182.028 Y55.621 E0.01736
G1 X182.419 Y56.013 E0.01736
G1 X182.873 Y56.330 E0.01736
G1 X183.374 Y56.564 E0.01736
G1 X183.909 Y56.707 E0.01736
G1 X184.282 Y56.740 E0.01173
G1 X140.223 Y56.740 E1.38142
G1 X140.548 Y56.588 E0.01125
G1 X141.002 Y56.271 E0.01736
G1 X141.393 Y55.879 E0.01736
G1 X141.711 Y55.426 E0.01736
G1 X141.945 Y54.924 E0.01736
G1 X142.088 Y54.390 E0.01736
G1 X142.137 Y53.826 E0.01775
G1 X142.079 Y53.252 E0.01807
G1 X141.945 Y52.752 E0.01624
G1 X141.711 Y52.250 E0.01736
G1 X141.393 Y51.797 E0.01736
G1 X141.002 Y51.405 E0.01736
G1 X140.548 Y51.088 E0.01736
G1 X140.047 Y50.854 E0.01736
G1 X139.500 Y50.707 E0.01775
G1 X138.925 Y50.666 E0.01807
G1 X138.379 Y50.719 E0.01721
G1 X138.379 Y36.776 E0.43715
G1 X140.379 Y36.776 E0.06271
G1 X140.379 Y25.776 E0.34490
G1 X228.542 Y25.776 E2.76430
M73 Q2 S41
G1 X228.542 Y36.716 E0.34302
G1 X228.919 Y36.399 F10800.000
G1 F1200.000
G1 X230.919 Y36.399 E0.06271
G1 X230.919 Y51.211 E0.46440
G1 X230.437 Y51.081 E0.01567
G1 X229.928 Y51.044 E0.01600
G1 X229.475 Y51.083 E0.01426
G1 X229.004 Y51.210 E0.01529
G1 X228.562 Y51.416 E0.01529
G1 X228.162 Y51.695 E0.01529
G1 X227.818 Y52.040 E0.01529
G1 X227.538 Y52.439 E0.01529
G1 X227.332 Y52.881 E0.01529
G1 X227.206 Y53.352 E0.01529
G1 X227.163 Y53.838 E0.01529
G1 X227.206 Y54.324 E0.01529
G1 X227.332 Y54.795 E0.01529
G1 X227.538 Y55.237 E0.01529
G1 X227.818 Y55.636 E0.01529
G1 X228.162 Y55.981 E0.01529
G1 X228.562 Y56.260 E0.01529
G1 X229.004 Y56.467 E0.01529
G1 X229.475 Y56.593 E0.01529
G1 X229.960 Y56.635 E0.01529
G1 X230.446 Y56.593 E0.01529
G1 X230.919 Y56.466 E0.01536
G1 X230.919 Y57.117 E0.02042
G1 X138.002 Y57.117 E2.91336
G1 X138.002 Y56.466 E0.02042
G1 X138.475 Y56.593 E0.01536
G1 X138.960 Y56.635 E0.01529
G1 X139.446 Y56.593 E0.01529
G1 X139.917 Y56.467 E0.01529
G1 X140.359 Y56.260 E0.01529
G1 X140.758 Y55.981 E0.01529
G1 X141.103 Y55.636 E0.01529
G1 X141.383 Y55.237 E0.01529
G1 X141.589 Y54.795 E0.01529
G1 X141.715 Y54.324 E0.01529
G1 X141.758 Y53.828 E0.01559
G1 X141.707 Y53.321 E0.01600
G1 X141.589 Y52.881 E0.01426
G1 X141.383 Y52.440 E0.01529
G1 X141.103 Y52.040 E0.01529
G1 X140.758 Y51.695 E0.01529
G1 X140.359 Y51.416 E0.01529
G1 X139.917 Y51.210 E0.01529
G1 X139.437 Y51.081 E0.01559
G1 X138.928 Y51.044 E0.01600
G1 X138.475 Y51.083 E0.01426
G1 X138.002 Y51.211 E0.01536
G1 X138.002 Y36.399 E0.46440
G1 X140.002 Y36.399 E0.06271
G1 X140.002 Y25.399 E0.34490
G1 X228.919 Y25.399 E2.78795
M73 P3 R41
M73 Q3 S41
G1 X228.919 Y36.339 E0.34302
G1 X229.296 Y36.022 F10800.000
G1 F1200.000
G1 X231.296 Y36.022 E0.06271
G1 X231.296 Y51.832 E0.49570
G1 X231.170 Y51.743 E0.00484
G1 X230.788 Y51.565 E0.01322
G1 X230.374 Y51.454 E0.01344
G1 X229.930 Y51.422 E0.01393
G1 X229.540 Y51.456 E0.01228
G1 X229.133 Y51.565 E0.01322
G1 X228.751 Y51.743 E0.01322
G1 X228.406 Y51.985 E0.01322
G1 X228.108 Y52.283 E0.01322
G1 X227.866 Y52.629 E0.01322
G1 X227.688 Y53.011 E0.01322
G1 X227.579 Y53.418 E0.01322
G1 X227.542 Y53.838 E0.01322
G1 X227.579 Y54.258 E0.01322
G1 X227.688 Y54.665 E0.01322
G1 X227.866 Y55.047 E0.01322
G1 X228.108 Y55.393 E0.01322
G1 X228.406 Y55.691 E0.01322
G1 X228.751 Y55.933 E0.01322
G1 X229.133 Y56.111 E0.01322
G1 X229.540 Y56.220 E0.01322
G1 X229.960 Y56.257 E0.01322
G1 X230.380 Y56.220 E0.01322
G1 X230.788 Y56.111 E0.01322
G1 X231.170 Y55.933 E0.01322
G1 X231.296 Y55.844 E0.00484
G1 X231.296 Y57.494 E0.05173
G1 X137.625 Y57.494 E2.93701
G1 X137.625 Y55.844 E0.05173
G1 X137.751 Y55.933 E0.00484
G1 X138.133 Y56.111 E0.01322
G1 X138.540 Y56.220 E0.01322
G1 X138.960 Y56.257 E0.01322
G1 X139.380 Y56.220 E0.01322
G1 X139.788 Y56.111 E0.01322
G1 X140.170 Y55.933 E0.01322
G1 X140.515 Y55.691 E0.01322
G1 X140.813 Y55.393 E0.01322
G1 X141.055 Y55.047 E0.01322
G1 X141.233 Y54.665 E0.01322
G1 X141.342 Y54.258 E0.01322
G1 X141.380 Y53.831 E0.01344
G1 X141.334 Y53.389 E0.01393
G1 X141.233 Y53.011 E0.01228
G1 X141.055 Y52.629 E0.01322
G1 X140.813 Y52.283 E0.01322
G1 X140.515 Y51.985 E0.01322
G1 X140.170 Y51.744 E0.01322
G1 X139.788 Y51.565 E0.01322
