; generated by PrusaSlicer 2.3.1+win64 on 2023-08-02 at 20:33:44 UTC

; 

; external perimeters extrusion width = 0.60mm
; perimeters extrusion width = 0.50mm
; infill extrusion width = 0.50mm
; solid infill extrusion width = 0.50mm
; top infill extrusion width = 0.45mm
; first layer extrusion width = 0.42mm

M73 P0 R167
M73 Q0 S169
M201 X1000 Y1000 Z1000 E5000 ; sets maximum accelerations, mm/sec^2
M203 X200 Y200 Z12 E120 ; sets maximum feedrates, mm/sec
M204 P1250 R1250 T1250 ; sets acceleration (P, T) and retract acceleration (R), mm/sec^2
M205 X8.00 Y8.00 Z0.40 E1.50 ; sets the jerk limits, mm/sec
M205 S0 T0 ; sets the minimum extruding and travel feed rate, mm/sec
M107
;TYPE:Custom
M115 U3.8.0 ; tell printer latest fw version
G90 ; use absolute coordinates
M83 ; extruder relative mode
M104 S215 ; set extruder temp
M140 S67 ; set bed temp
M190 S67 ; wait for bed temp
M109 S215 ; wait for extruder temp
G28 W ; home all without mesh bed level
G80 ; mesh bed leveling
G1 Y-3.0 F1000.0 ; go outside print area
G92 E0.0
G1 X60.0 E9.0 F1000.0 ; intro line
G1 X100.0 E12.5 F1000.0 ; intro line
G92 E0.0
M221 S95
G21 ; set units to millimeters
G90 ; use absolute coordinates
M83 ; use relative distances for extrusion
M900 K0.05 ; Filament gcode LA 1.5
M900 K30 ; Filament gcode LA 1.0
;LAYER_CHANGE
;Z:0.2
;HEIGHT:0.2
;BEFORE_LAYER_CHANGE
G92 E0.0
;0.2


G1 E-0.80000 F2100.000
G1 Z0.600 F10800.000
;AFTER_LAYER_CHANGE
;0.2
; printing object top1.stl id:0 copy 0
G1 X106.197 Y19.839
G1 Z0.200
G1 E0.80000 F2100.000
M204 S1000
;TYPE:Perimeter
;WIDTH:0.42
G1 F1200.000
G1 X139.279 Y19.839 E1.03728
G1 X139.279 Y55.921 E1.13134
G1 X106.197 Y55.921 E1.03728
G1 X106.197 Y19.899 E1.12946
G1 X106.574 Y20.216 F10800.000
G1 F1200.000
G1 X138.902 Y20.216 E1.01363
G1 X138.902 Y55.544 E1.10769
G1 X106.574 Y55.544 E1.01363
G1 X106.574 Y20.276 E1.10581
G1 X106.951 Y20.593 F10800.000
G1 F1200.000
G1 X138.525 Y20.593 E0.98999
G1 X138.525 Y55.167 E1.08405
G1 X106.951 Y55.167 E0.98999
G1 X106.951 Y20.653 E1.08217
G1 X107.328 Y20.970 F10800.000
;TYPE:External perimeter
G1 F1200.000
G1 X138.148 Y20.970 E0.96634
G1 X138.148 Y54.790 E1.06040
G1 X107.328 Y54.790 E0.96634
G1 X107.328 Y21.030 E1.05852
G1 X107.230 Y20.582 F10800.000
;WIPE_START
G1 F8640.000
G1 X110.619 Y21.024 E-0.76000
;WIPE_END
G1 E-0.04000 F2100.000
G1 Z0.800 F10800.000
G1 X94.416 Y19.462
G1 Z0.200
G1 E0.80000 F2100.000
;TYPE:Perimeter
G1 F1200.000
G1 X61.062 Y19.462 E1.04580
G1 X61.463 Y18.840 E0.02320
G1 X61.867 Y17.983 E0.02971
G1 X62.160 Y17.057 E0.03047
G1 X62.321 Y16.122 E0.02973
G1 X62.357 Y15.177 E0.02967
G1 X62.268 Y14.240 E0.02950
G1 X62.048 Y13.298 E0.03032
G1 X93.428 Y13.298 E0.98387
G1 X93.208 Y14.240 E0.03032
G1 X93.119 Y15.177 E0.02950
G1 X93.155 Y16.122 E0.02967
G1 X93.316 Y17.057 E0.02973
G1 X93.609 Y17.983 E0.03047
G1 X94.014 Y18.841 E0.02975
G1 X94.383 Y19.411 E0.02130
G1 X94.279 Y19.839 F10800.000
G1 F1200.000
G1 X94.279 Y55.921 E1.13134
G1 X61.197 Y55.921 E1.03728
M73 Q0 S168
G1 X61.197 Y19.839 E1.13134
G1 X94.219 Y19.839 E1.03540
M73 P0 R166
G1 X93.902 Y20.216 F10800.000
G1 F1200.000
G1 X93.902 Y55.544 E1.10769
G1 X61.574 Y55.544 E1.01363
G1 X61.574 Y20.216 E1.10769
G1 X93.842 Y20.216 E1.01175
G1 X93.525 Y20.593 F10800.000
G1 F1200.000
G1 X93.525 Y55.167 E1.08405
G1 X61.951 Y55.167 E0.98999
G1 X61.951 Y20.593 E1.08405
G1 X93.465 Y20.593 E0.98810
G1 X93.148 Y20.970 F10800.000
;TYPE:External perimeter
G1 F1200.000
G1 X93.148 Y54.790 E1.06040
G1 X62.328 Y54.790 E0.96634
G1 X62.328 Y20.970 E1.06040
G1 X93.088 Y20.970 E0.96446
G1 X93.533 Y20.861 F10800.000
;WIPE_START
G1 F8640.000
G1 X93.094 Y24.261 E-0.76000
;WIPE_END
G1 E-0.04000 F2100.000
G1 Z0.800 F10800.000
G1 X49.415 Y19.462
G1 Z0.200
G1 E0.80000 F2100.000
;TYPE:Perimeter
G1 F1200.000
G1 X16.061 Y19.462 E1.04577
G1 X16.463 Y18.840 E0.02320
G1 X16.867 Y17.983 E0.02972
G1 X17.160 Y17.057 E0.03047
G1 X17.321 Y16.122 E0.02973
G1 X17.357 Y15.177 E0.02967
G1 X17.268 Y14.240 E0.02950
G1 X17.048 Y13.298 E0.03032
G1 X48.428 Y13.298 E0.98387
G1 X48.208 Y14.240 E0.03032
G1 X48.119 Y15.177 E0.02950
G1 X48.155 Y16.122 E0.02966
G1 X48.316 Y17.055 E0.02967
G1 X48.599 Y17.958 E0.02967
G1 X49.000 Y18.816 E0.02971
G1 X49.382 Y19.411 E0.02218
G1 X49.279 Y19.839 F10800.000
G1 F1200.000
G1 X49.279 Y55.921 E1.13134
G1 X16.197 Y55.921 E1.03728
G1 X16.197 Y19.839 E1.13134
G1 X49.219 Y19.839 E1.03540
G1 X48.902 Y20.216 F10800.000
G1 F1200.000
G1 X48.902 Y55.544 E1.10769
G1 X16.574 Y55.544 E1.01363
G1 X16.574 Y20.216 E1.10769
G1 X48.842 Y20.216 E1.01175
G1 X48.525 Y20.593 F10800.000
G1 F1200.000
G1 X48.525 Y55.167 E1.08405
G1 X16.951 Y55.167 E0.98999
G1 X16.951 Y20.593 E1.08405
G1 X48.465 Y20.593 E0.98810
G1 X48.148 Y20.970 F10800.000
;TYPE:External perimeter
G1 F1200.000
G1 X48.148 Y54.790 E1.06040
G1 X17.328 Y54.790 E0.96634
G1 X17.328 Y20.970 E1.06040
G1 X48.088 Y20.970 E0.96446
G1 X48.533 Y20.861 F10800.000
;WIPE_START
G1 F8640.000
G1 X48.094 Y24.261 E-0.76000
;WIPE_END
G1 E-0.04000 F2100.000
G1 Z0.800 F10800.000
G1 X60.820 Y56.298
G1 Z0.200
G1 E0.80000 F2100.000
;TYPE:Perimeter
G1 F1200.000
G1 X94.656 Y56.298 E1.06092
G1 X94.656 Y19.787 E1.14479
M73 P1 R166
M73 Q0 S167
G1 X95.148 Y20.361 E0.02370
G1 X95.853 Y20.992 E0.02965
G1 X96.603 Y21.504 E0.02849
G1 X97.485 Y21.949 E0.03097
G1 X98.386 Y22.257 E0.02984
G1 X99.316 Y22.442 E0.02974
G1 X100.259 Y22.502 E0.02964
G1 X101.163 Y22.441 E0.02840
G1 X102.090 Y22.257 E0.02964
M73 Q1 S167
G1 X102.988 Y21.950 E0.02974
G1 X103.836 Y21.526 E0.02974
G1 X104.621 Y20.994 E0.02974
G1 X105.329 Y20.361 E0.02976
G1 X105.820 Y19.786 E0.02370
G1 X105.820 Y56.298 E1.14481
G1 X139.656 Y56.298 E1.06092
M73 P1 R165
G1 X139.656 Y19.787 E1.14479
G1 X140.148 Y20.361 E0.02370
G1 X140.853 Y20.992 E0.02966
G1 X141.603 Y21.504 E0.02849
G1 X142.485 Y21.949 E0.03097
G1 X143.386 Y22.257 E0.02984
G1 X144.316 Y22.442 E0.02974
G1 X145.259 Y22.502 E0.02964
G1 X146.163 Y22.441 E0.02840
G1 X147.090 Y22.257 E0.02964
G1 X147.988 Y21.950 E0.02974
G1 X148.836 Y21.526 E0.02974
G1 X149.621 Y20.994 E0.02974
G1 X150.329 Y20.361 E0.02976
G1 X150.820 Y19.786 E0.02370
G1 X150.820 Y56.298 E1.14481
G1 X184.656 Y56.298 E1.06092
G1 X184.656 Y19.787 E1.14479
G1 X185.148 Y20.361 E0.02370
G1 X185.853 Y20.992 E0.02966
G1 X186.603 Y21.504 E0.02849
G1 X187.485 Y21.949 E0.03097
G1 X188.386 Y22.257 E0.02984
G1 X189.316 Y22.442 E0.02974
G1 X190.259 Y22.502 E0.02964
G1 X191.163 Y22.441 E0.02840
G1 X192.090 Y22.257 E0.02964
G1 X192.988 Y21.950 E0.02974
G1 X193.836 Y21.526 E0.02974
G1 X194.621 Y20.994 E0.02974
G1 X195.329 Y20.361 E0.02976
G1 X195.820 Y19.786 E0.02370
G1 X195.820 Y56.298 E1.14481
G1 X229.656 Y56.298 E1.06092
G1 X229.656 Y19.787 E1.14479
G1 X230.139 Y20.353 E0.02331
G1 X230.844 Y20.985 E0.02971
G1 X231.626 Y21.518 E0.02968
G1 X232.471 Y21.943 E0.02966
G1 X233.320 Y22.236 E0.02814
G1 X233.320 Y57.170 E1.09531
G1 X235.663 Y57.332 E0.07365
G1 X236.080 Y57.420 E0.01336
G1 X236.481 Y57.565 E0.01336
G1 X236.858 Y57.764 E0.01336
G1 X237.204 Y58.013 E0.01336
G1 X237.512 Y58.307 E0.01336
G1 X237.777 Y58.641 E0.01336
G1 X237.992 Y59.008 E0.01336
G1 X238.156 Y59.402 E0.01336
G1 X238.263 Y59.815 E0.01336
G1 X238.312 Y60.238 E0.01336
G1 X238.302 Y60.664 E0.01336
G1 X238.233 Y61.085 E0.01336
G1 X238.107 Y61.492 E0.01336
G1 X237.926 Y61.877 E0.01336
G1 X237.694 Y62.234 E0.01336
G1 X237.414 Y62.556 E0.01336
G1 X237.092 Y62.836 E0.01336
G1 X236.735 Y63.068 E0.01336
G1 X236.350 Y63.249 E0.01336
G1 X235.943 Y63.375 E0.01336
G1 X235.522 Y63.444 E0.01336
G1 X235.096 Y63.454 E0.01336
G1 X234.673 Y63.405 E0.01336
G1 X234.260 Y63.298 E0.01336
G1 X233.866 Y63.135 E0.01336
G1 X233.499 Y62.919 E0.01336
G1 X233.165 Y62.654 E0.01336
G1 X232.871 Y62.346 E0.01336
G1 X232.622 Y62.000 E0.01336
G1 X232.423 Y61.623 E0.01336
G1 X232.278 Y61.222 E0.01336
G1 X232.190 Y60.805 E0.01336
G1 X232.028 Y58.462 E0.07365
G1 X193.446 Y58.462 E1.20969
G1 X193.287 Y60.799 E0.07346
G1 X193.201 Y61.210 E0.01317
G1 X193.060 Y61.606 E0.01317
G1 X192.867 Y61.979 E0.01317
G1 X192.625 Y62.322 E0.01317
G1 X192.338 Y62.629 E0.01317
G1 X192.013 Y62.894 E0.01317
G1 X191.654 Y63.112 E0.01317
G1 X191.268 Y63.280 E0.01317
G1 X190.864 Y63.393 E0.01317
G1 X190.448 Y63.450 E0.01317
G1 X190.028 Y63.450 E0.01317
G1 X189.612 Y63.393 E0.01317
G1 X189.208 Y63.280 E0.01317
G1 X188.822 Y63.112 E0.01317
G1 X188.463 Y62.894 E0.01317
G1 X188.138 Y62.629 E0.01317
G1 X187.851 Y62.322 E0.01317
G1 X187.609 Y61.979 E0.01317
G1 X187.416 Y61.606 E0.01317
G1 X187.275 Y61.210 E0.01317
G1 X187.189 Y60.799 E0.01317
G1 X187.030 Y58.462 E0.07346
G1 X148.446 Y58.462 E1.20975
G1 X148.287 Y60.799 E0.07346
G1 X148.201 Y61.210 E0.01317
G1 X148.060 Y61.606 E0.01317
G1 X147.867 Y61.979 E0.01317
G1 X147.625 Y62.322 E0.01317
G1 X147.338 Y62.629 E0.01317
G1 X147.013 Y62.894 E0.01317
G1 X146.654 Y63.112 E0.01317
G1 X146.268 Y63.280 E0.01317
G1 X145.864 Y63.393 E0.01317
G1 X145.448 Y63.450 E0.01317
G1 X145.028 Y63.450 E0.01317
G1 X144.612 Y63.393 E0.01317
G1 X144.208 Y63.280 E0.01317
G1 X143.822 Y63.112 E0.01317
G1 X143.463 Y62.894 E0.01317
G1 X143.138 Y62.629 E0.01317
G1 X142.851 Y62.322 E0.01317
G1 X142.609 Y61.979 E0.01317
G1 X142.416 Y61.606 E0.01317
G1 X142.275 Y61.210 E0.01317
G1 X142.189 Y60.799 E0.01317
G1 X142.030 Y58.462 E0.07346
G1 X103.446 Y58.462 E1.20975
G1 X103.287 Y60.799 E0.07346
G1 X103.201 Y61.210 E0.01317
G1 X103.060 Y61.606 E0.01317
G1 X102.867 Y61.979 E0.01317
G1 X102.625 Y62.322 E0.01317
G1 X102.338 Y62.629 E0.01317
G1 X102.013 Y62.894 E0.01317
G1 X101.654 Y63.112 E0.01317
G1 X101.268 Y63.280 E0.01317
G1 X100.864 Y63.393 E0.01317
G1 X100.448 Y63.450 E0.01317
G1 X100.028 Y63.450 E0.01317
G1 X99.612 Y63.393 E0.01317
G1 X99.208 Y63.280 E0.01317
G1 X98.822 Y63.112 E0.01317
G1 X98.463 Y62.894 E0.01317
G1 X98.138 Y62.629 E0.01317
G1 X97.851 Y62.322 E0.01317
G1 X97.609 Y61.979 E0.01317
G1 X97.416 Y61.606 E0.01317
G1 X97.275 Y61.210 E0.01317
G1 X97.189 Y60.799 E0.01317
G1 X97.030 Y58.462 E0.07346
G1 X58.446 Y58.462 E1.20975
G1 X58.287 Y60.799 E0.07346
G1 X58.201 Y61.210 E0.01317
G1 X58.060 Y61.606 E0.01317
G1 X57.867 Y61.979 E0.01317
G1 X57.625 Y62.322 E0.01317
G1 X57.338 Y62.629 E0.01317
G1 X57.013 Y62.894 E0.01317
G1 X56.654 Y63.112 E0.01317
G1 X56.268 Y63.280 E0.01317
G1 X55.864 Y63.393 E0.01317
G1 X55.448 Y63.450 E0.01317
G1 X55.028 Y63.450 E0.01317
G1 X54.612 Y63.393 E0.01317
G1 X54.208 Y63.280 E0.01317
G1 X53.822 Y63.112 E0.01317
G1 X53.463 Y62.894 E0.01317
G1 X53.138 Y62.629 E0.01317
G1 X52.851 Y62.322 E0.01317
G1 X52.609 Y61.979 E0.01317
G1 X52.416 Y61.606 E0.01317
G1 X52.275 Y61.210 E0.01317
G1 X52.189 Y60.799 E0.01317
G1 X52.030 Y58.462 E0.07346
G1 X13.448 Y58.462 E1.20969
G1 X13.286 Y60.805 E0.07365
G1 X13.198 Y61.222 E0.01336
G1 X13.053 Y61.623 E0.01336
G1 X12.854 Y62.000 E0.01336
G1 X12.605 Y62.346 E0.01336
G1 X12.311 Y62.654 E0.01336
G1 X11.977 Y62.919 E0.01336
G1 X11.610 Y63.135 E0.01336
G1 X11.216 Y63.298 E0.01336
G1 X10.803 Y63.405 E0.01336
G1 X10.380 Y63.454 E0.01336
G1 X9.954 Y63.444 E0.01336
G1 X9.534 Y63.375 E0.01336
G1 X9.126 Y63.249 E0.01336
G1 X8.741 Y63.068 E0.01336
G1 X8.384 Y62.836 E0.01336
G1 X8.062 Y62.556 E0.01336
G1 X7.782 Y62.234 E0.01336
G1 X7.550 Y61.877 E0.01336
G1 X7.369 Y61.492 E0.01336
G1 X7.243 Y61.085 E0.01336
G1 X7.174 Y60.664 E0.01336
G1 X7.164 Y60.238 E0.01336
G1 X7.213 Y59.815 E0.01336
G1 X7.320 Y59.402 E0.01336
G1 X7.484 Y59.008 E0.01336
G1 X7.699 Y58.641 E0.01336
G1 X7.964 Y58.307 E0.01336
G1 X8.272 Y58.013 E0.01336
G1 X8.618 Y57.764 E0.01336
G1 X8.995 Y57.565 E0.01336
G1 X9.396 Y57.420 E0.01336
G1 X9.813 Y57.332 E0.01336
G1 X12.156 Y57.170 E0.07365
G1 X12.156 Y22.236 E1.09531
G1 X13.005 Y21.943 E0.02814
G1 X13.850 Y21.518 E0.02967
G1 X14.632 Y20.985 E0.02968
G1 X15.337 Y20.353 E0.02971
G1 X15.820 Y19.787 E0.02331
G1 X15.820 Y56.298 E1.14479
G1 X49.656 Y56.298 E1.06092
G1 X49.656 Y19.786 E1.14481
G1 X50.147 Y20.361 E0.02370
G1 X50.855 Y20.994 E0.02976
G1 X51.640 Y21.526 E0.02974
G1 X52.488 Y21.950 E0.02974
G1 X53.386 Y22.257 E0.02974
G1 X54.316 Y22.442 E0.02974
G1 X55.259 Y22.502 E0.02964
G1 X56.163 Y22.441 E0.02840
G1 X57.090 Y22.257 E0.02964
G1 X57.988 Y21.950 E0.02974
G1 X58.836 Y21.526 E0.02974
G1 X59.621 Y20.994 E0.02974
G1 X60.329 Y20.361 E0.02976
G1 X60.820 Y19.786 E0.02370
G1 X60.820 Y56.238 E1.14293
;WIPE_START
G1 F8640.000
G1 X64.111 Y56.244 E-0.76000
;WIPE_END
G1 E-0.04000 F2100.000
G1 Z0.800 F10800.000
G1 X106.062 Y19.462
G1 Z0.200
G1 E0.80000 F2100.000
G1 F1200.000
G1 X106.463 Y18.840 E0.02320
G1 X106.867 Y17.983 E0.02971
G1 X107.160 Y17.057 E0.03047
G1 X107.321 Y16.122 E0.02973
G1 X107.357 Y15.177 E0.02967
G1 X107.268 Y14.240 E0.02950
G1 X107.048 Y13.298 E0.03032
G1 X138.428 Y13.298 E0.98387
G1 X138.208 Y14.240 E0.03032
G1 X138.119 Y15.177 E0.02950
G1 X138.155 Y16.122 E0.02967
G1 X138.316 Y17.057 E0.02973
G1 X138.609 Y17.983 E0.03047
G1 X139.014 Y18.841 E0.02975
G1 X139.416 Y19.462 E0.02318
G1 X106.122 Y19.462 E1.04392
;WIPE_START
G1 F8640.000
G1 X106.463 Y18.840 E-0.16375
G1 X106.867 Y17.983 E-0.21879
G1 X107.160 Y17.057 E-0.22438
G1 X107.273 Y16.403 E-0.15308
;WIPE_END
G1 E-0.04000 F2100.000
G1 Z0.800 F10800.000
G1 X151.197 Y19.839
G1 Z0.200
G1 E0.80000 F2100.000
G1 F1200.000
G1 X184.279 Y19.839 E1.03728
G1 X184.279 Y55.921 E1.13134
G1 X151.197 Y55.921 E1.03728
G1 X151.197 Y19.899 E1.12946
G1 X151.574 Y20.216 F10800.000
G1 F1200.000
G1 X183.902 Y20.216 E1.01363
G1 X183.902 Y55.544 E1.10769
M73 Q1 S166
G1 X151.574 Y55.544 E1.01363
G1 X151.574 Y20.276 E1.10581
M73 P1 R164
G1 X151.951 Y20.593 F10800.000
G1 F1200.000
G1 X183.525 Y20.593 E0.98999
G1 X183.525 Y55.167 E1.08405
G1 X151.951 Y55.167 E0.98999
G1 X151.951 Y20.653 E1.08217
G1 X152.328 Y20.970 F10800.000
;TYPE:External perimeter
G1 F1200.000
G1 X183.148 Y20.970 E0.96634
G1 X183.148 Y54.790 E1.06040
G1 X152.328 Y54.790 E0.96634
G1 X152.328 Y21.030 E1.05852
G1 X152.230 Y20.582 F10800.000
;WIPE_START
G1 F8640.000
G1 X155.619 Y21.024 E-0.76000
;WIPE_END
G1 E-0.04000 F2100.000
G1 Z0.800 F10800.000
G1 X151.062 Y19.462
G1 Z0.200
G1 E0.80000 F2100.000
;TYPE:Perimeter
G1 F1200.000
G1 X151.463 Y18.840 E0.02320
G1 X151.867 Y17.983 E0.02971
G1 X152.160 Y17.057 E0.03047
G1 X152.321 Y16.122 E0.02973
G1 X152.357 Y15.177 E0.02967
G1 X152.268 Y14.240 E0.02950
G1 X152.048 Y13.298 E0.03032
G1 X183.428 Y13.298 E0.98387
G1 X183.208 Y14.240 E0.03032
G1 X183.119 Y15.177 E0.02950
G1 X183.155 Y16.122 E0.02967
G1 X183.316 Y17.057 E0.02973
G1 X183.609 Y17.983 E0.03047
G1 X184.014 Y18.841 E0.02975
G1 X184.416 Y19.462 E0.02318
G1 X151.122 Y19.462 E1.04392
;WIPE_START
G1 F8640.000
G1 X151.463 Y18.840 E-0.16375
G1 X151.867 Y17.983 E-0.21878
G1 X152.160 Y17.057 E-0.22438
G1 X152.273 Y16.403 E-0.15309
;WIPE_END
G1 E-0.04000 F2100.000
G1 Z0.800 F10800.000
G1 X196.197 Y19.839
G1 Z0.200
G1 E0.80000 F2100.000
G1 F1200.000
G1 X229.279 Y19.839 E1.03728
G1 X229.279 Y55.921 E1.13134
G1 X196.197 Y55.921 E1.03728
G1 X196.197 Y19.899 E1.12946
G1 X196.574 Y20.216 F10800.000
G1 F1200.000
G1 X228.902 Y20.216 E1.01363
G1 X228.902 Y55.544 E1.10769
G1 X196.574 Y55.544 E1.01363
G1 X196.574 Y20.276 E1.10581
G1 X196.951 Y20.593 F10800.000
G1 F1200.000
G1 X228.525 Y20.593 E0.98999
G1 X228.525 Y55.167 E1.08405
G1 X196.951 Y55.167 E0.98999
M73 P2 R164
G1 X196.951 Y20.653 E1.08217
M73 Q2 S166
G1 X197.328 Y20.970 F10800.000
;TYPE:External perimeter
G1 F1200.000
G1 X228.148 Y20.970 E0.96634
G1 X228.148 Y54.790 E1.06040
G1 X197.328 Y54.790 E0.96634
G1 X197.328 Y21.030 E1.05852
G1 X197.230 Y20.582 F10800.000
;WIPE_START
G1 F8640.000
G1 X200.619 Y21.024 E-0.76000
;WIPE_END
G1 E-0.04000 F2100.000
G1 Z0.800 F10800.000
G1 X196.062 Y19.462
G1 Z0.200
G1 E0.80000 F2100.000
;TYPE:Perimeter
G1 F1200.000
G1 X196.463 Y18.840 E0.02320
G1 X196.867 Y17.983 E0.02971
G1 X197.160 Y17.057 E0.03047
G1 X197.321 Y16.122 E0.02973
G1 X197.357 Y15.177 E0.02966
G1 X197.268 Y14.240 E0.02950
G1 X197.048 Y13.298 E0.03032
G1 X228.428 Y13.298 E0.98387
G1 X228.208 Y14.240 E0.03032
G1 X228.119 Y15.177 E0.02950
G1 X228.155 Y16.122 E0.02967
G1 X228.316 Y17.057 E0.02973
G1 X228.609 Y17.983 E0.03047
G1 X229.013 Y18.840 E0.02972
G1 X229.415 Y19.462 E0.02320
