; generated by PrusaSlicer 2.3.1+win64 on 2023-08-23 at 17:33:17 UTC

; 

; external perimeters extrusion width = 0.60mm
; perimeters extrusion width = 0.50mm
; infill extrusion width = 0.50mm
; solid infill extrusion width = 0.50mm
; top infill extrusion width = 0.45mm
; first layer extrusion width = 0.42mm

M73 P0 R114
M73 Q0 S116
M201 X1000 Y1000 Z1000 E5000 ; sets maximum accelerations, mm/sec^2
M203 X200 Y200 Z12 E120 ; sets maximum feedrates, mm/sec
M204 P1250 R1250 T1250 ; sets acceleration (P, T) and retract acceleration (R), mm/sec^2
M205 X8.00 Y8.00 Z0.40 E1.50 ; sets the jerk limits, mm/sec
M205 S0 T0 ; sets the minimum extruding and travel feed rate, mm/sec
M107
;TYPE:Custom
M115 U3.8.0 ; tell printer latest fw version
G90 ; use absolute coordinates
M83 ; extruder relative mode
M104 S205 ; set extruder temp
M140 S67 ; set bed temp
M190 S67 ; wait for bed temp
M109 S205 ; wait for extruder temp
G28 W ; home all without mesh bed level
G80 ; mesh bed leveling
G1 Y-3.0 F1000.0 ; go outside print area
G92 E0.0
G1 X60.0 E9.0 F1000.0 ; intro line
M73 Q0 S115
G1 X100.0 E12.5 F1000.0 ; intro line
G92 E0.0
M221 S95
G21 ; set units to millimeters
G90 ; use absolute coordinates
M83 ; use relative distances for extrusion
M900 K0.05 ; Filament gcode LA 1.5
M900 K30 ; Filament gcode LA 1.0
;LAYER_CHANGE
;Z:0.2
;HEIGHT:0.2
;BEFORE_LAYER_CHANGE
G92 E0.0
;0.2


G1 E-0.80000 F2100.000
G1 Z0.600 F10800.000
;AFTER_LAYER_CHANGE
;0.2
G1 X153.239 Y96.390
G1 Z0.200
G1 E0.80000 F2100.000
M204 S1000
;TYPE:Perimeter
;WIDTH:0.42
G1 F1200.000
G1 X153.519 Y95.976 E0.01567
G1 X153.865 Y95.616 E0.01567
G1 X154.267 Y95.319 E0.01567
G1 X154.713 Y95.094 E0.01567
G1 X155.191 Y94.947 E0.01567
G1 X155.674 Y94.885 E0.01527
G1 X156.182 Y94.904 E0.01595
G1 X156.674 Y95.010 E0.01578
G1 X157.138 Y95.197 E0.01567
G1 X157.563 Y95.459 E0.01567
G1 X157.938 Y95.789 E0.01567
G1 X158.252 Y96.177 E0.01567
G1 X158.496 Y96.614 E0.01567
G1 X158.662 Y97.085 E0.01567
G1 X158.747 Y97.577 E0.01567
G1 X158.747 Y98.077 E0.01567
G1 X158.662 Y98.570 E0.01567
G1 X158.496 Y99.041 E0.01567
G1 X158.252 Y99.477 E0.01567
G1 X157.938 Y99.866 E0.01567
G1 X157.563 Y100.196 E0.01567
G1 X157.138 Y100.458 E0.01567
G1 X156.674 Y100.644 E0.01567
G1 X156.186 Y100.749 E0.01567
G1 X155.686 Y100.771 E0.01567
G1 X155.191 Y100.707 E0.01567
G1 X154.713 Y100.561 E0.01567
G1 X154.267 Y100.336 E0.01567
G1 X153.865 Y100.039 E0.01567
G1 X153.519 Y99.678 E0.01567
G1 X153.239 Y99.264 E0.01567
G1 X153.034 Y98.809 E0.01567
G1 X152.908 Y98.325 E0.01567
G1 X152.865 Y97.827 E0.01567
G1 X152.908 Y97.329 E0.01567
G1 X153.034 Y96.846 E0.01567
G1 X153.215 Y96.445 E0.01379
G1 X153.558 Y96.600 F10800.000
G1 F1200.000
G1 X153.814 Y96.214 E0.01452
G1 X154.115 Y95.900 E0.01366
G1 X154.465 Y95.641 E0.01365
G1 X154.854 Y95.445 E0.01365
G1 X155.270 Y95.317 E0.01366
G1 X155.691 Y95.263 E0.01329
G1 X156.135 Y95.280 E0.01393
G1 X156.563 Y95.372 E0.01374
G1 X156.967 Y95.534 E0.01365
G1 X157.338 Y95.763 E0.01365
G1 X157.665 Y96.051 E0.01365
G1 X157.939 Y96.389 E0.01366
G1 X158.151 Y96.770 E0.01366
G1 X158.296 Y97.180 E0.01365
G1 X158.370 Y97.609 E0.01365
G1 X158.370 Y98.045 E0.01366
G1 X158.296 Y98.474 E0.01365
G1 X158.151 Y98.885 E0.01365
G1 X157.939 Y99.265 E0.01366
G1 X157.665 Y99.604 E0.01366
G1 X157.338 Y99.892 E0.01365
G1 X156.967 Y100.120 E0.01365
G1 X156.563 Y100.282 E0.01365
G1 X156.138 Y100.374 E0.01365
G1 X155.702 Y100.393 E0.01366
G1 X155.270 Y100.337 E0.01365
G1 X154.854 Y100.210 E0.01365
G1 X154.465 Y100.014 E0.01365
G1 X154.115 Y99.755 E0.01365
G1 X153.814 Y99.440 E0.01366
G1 X153.570 Y99.079 E0.01365
G1 X153.390 Y98.683 E0.01366
G1 X153.281 Y98.261 E0.01365
G1 X153.244 Y97.827 E0.01366
G1 X153.281 Y97.393 E0.01366
G1 X153.390 Y96.972 E0.01365
G1 X153.534 Y96.655 E0.01090
G1 X153.900 Y96.760 F10800.000
G1 F1200.000
G1 X154.108 Y96.452 E0.01164
G1 X154.365 Y96.184 E0.01164
G1 X154.664 Y95.963 E0.01164
G1 X154.995 Y95.796 E0.01164
G1 X155.350 Y95.687 E0.01164
G1 X155.708 Y95.641 E0.01131
G1 X156.088 Y95.655 E0.01192
G1 X156.452 Y95.734 E0.01169
G1 X156.797 Y95.872 E0.01164
G1 X157.113 Y96.067 E0.01164
G1 X157.392 Y96.312 E0.01164
G1 X157.625 Y96.601 E0.01164
G1 X157.806 Y96.925 E0.01164
G1 X157.930 Y97.276 E0.01164
G1 X157.993 Y97.642 E0.01164
G1 X157.993 Y98.013 E0.01164
G1 X157.930 Y98.379 E0.01164
G1 X157.806 Y98.729 E0.01164
G1 X157.625 Y99.053 E0.01164
G1 X157.392 Y99.342 E0.01164
G1 X157.113 Y99.587 E0.01164
G1 X156.797 Y99.782 E0.01164
G1 X156.452 Y99.920 E0.01164
G1 X156.089 Y99.999 E0.01164
G1 X155.719 Y100.014 E0.01164
G1 X155.350 Y99.967 E0.01164
G1 X154.995 Y99.859 E0.01164
G1 X154.664 Y99.691 E0.01164
G1 X154.365 Y99.471 E0.01164
G1 X154.108 Y99.203 E0.01164
G1 X153.900 Y98.895 E0.01164
G1 X153.747 Y98.557 E0.01164
G1 X153.654 Y98.197 E0.01164
G1 X153.622 Y97.827 E0.01164
G1 X153.654 Y97.457 E0.01164
G1 X153.747 Y97.098 E0.01164
G1 X153.876 Y96.814 E0.00976
G1 X154.219 Y96.970 F10800.000
;TYPE:External perimeter
G1 F1200.000
G1 X154.403 Y96.690 E0.01049
G1 X154.615 Y96.468 E0.00963
G1 X154.862 Y96.285 E0.00963
G1 X155.136 Y96.147 E0.00963
G1 X155.430 Y96.057 E0.00963
G1 X155.725 Y96.019 E0.00933
G1 X156.041 Y96.031 E0.00991
G1 X156.342 Y96.096 E0.00965
G1 X156.627 Y96.210 E0.00963
G1 X156.888 Y96.371 E0.00963
G1 X157.119 Y96.574 E0.00963
G1 X157.312 Y96.813 E0.00963
G1 X157.461 Y97.081 E0.00963
G1 X157.564 Y97.371 E0.00963
G1 X157.616 Y97.674 E0.00963
G1 X157.616 Y97.981 E0.00963
G1 X157.564 Y98.283 E0.00963
G1 X157.461 Y98.573 E0.00963
G1 X157.312 Y98.841 E0.00963
G1 X157.119 Y99.080 E0.00963
G1 X156.888 Y99.283 E0.00963
G1 X156.627 Y99.444 E0.00963
G1 X156.342 Y99.559 E0.00963
G1 X156.041 Y99.623 E0.00963
G1 X155.735 Y99.636 E0.00963
G1 X155.430 Y99.597 E0.00963
G1 X155.136 Y99.507 E0.00963
G1 X154.862 Y99.369 E0.00963
G1 X154.615 Y99.186 E0.00963
G1 X154.403 Y98.965 E0.00963
G1 X154.231 Y98.710 E0.00963
G1 X154.104 Y98.430 E0.00963
G1 X154.027 Y98.133 E0.00963
G1 X154.001 Y97.827 E0.00963
G1 X154.027 Y97.521 E0.00963
G1 X154.104 Y97.224 E0.00963
G1 X154.194 Y97.024 E0.00687
G1 X154.045 Y96.684 F10800.000
;WIPE_START
G1 F8640.000
G1 X154.403 Y96.690 E-0.09099
G1 X154.615 Y96.468 E-0.07092
G1 X154.862 Y96.285 E-0.07091
G1 X155.136 Y96.147 E-0.07092
G1 X155.430 Y96.057 E-0.07092
G1 X155.725 Y96.019 E-0.06869
G1 X156.041 Y96.031 E-0.07298
G1 X156.342 Y96.096 E-0.07105
G1 X156.627 Y96.210 E-0.07091
G1 X156.888 Y96.371 E-0.07092
G1 X156.988 Y96.459 E-0.03080
;WIPE_END
G1 E-0.04000 F2100.000
G1 Z0.800 F10800.000
G1 X198.865 Y37.039
G1 Z0.200
G1 E0.80000 F2100.000
;TYPE:Perimeter
G1 F1200.000
G1 X198.519 Y36.678 E0.01567
G1 X198.239 Y36.264 E0.01567
G1 X198.039 Y35.820 E0.01527
G1 X197.908 Y35.329 E0.01595
G1 X197.865 Y34.827 E0.01578
G1 X197.908 Y34.329 E0.01567
G1 X198.034 Y33.846 E0.01567
G1 X198.239 Y33.390 E0.01567
G1 X198.519 Y32.976 E0.01567
G1 X198.865 Y32.616 E0.01567
G1 X199.267 Y32.319 E0.01567
G1 X199.713 Y32.094 E0.01567
G1 X200.191 Y31.947 E0.01567
G1 X200.674 Y31.885 E0.01527
G1 X201.182 Y31.904 E0.01595
G1 X201.674 Y32.010 E0.01578
G1 X202.138 Y32.197 E0.01567
G1 X202.563 Y32.459 E0.01567
G1 X202.938 Y32.789 E0.01567
G1 X203.252 Y33.178 E0.01567
G1 X203.496 Y33.614 E0.01567
G1 X203.662 Y34.085 E0.01567
G1 X203.747 Y34.577 E0.01567
G1 X203.747 Y35.077 E0.01567
G1 X203.662 Y35.570 E0.01567
G1 X203.496 Y36.041 E0.01567
G1 X203.252 Y36.477 E0.01567
G1 X202.946 Y36.856 E0.01527
G1 X202.566 Y37.194 E0.01595
G1 X202.138 Y37.458 E0.01578
G1 X201.674 Y37.644 E0.01567
G1 X201.186 Y37.749 E0.01567
G1 X200.686 Y37.771 E0.01567
G1 X200.191 Y37.707 E0.01567
G1 X199.713 Y37.561 E0.01567
G1 X199.267 Y37.336 E0.01567
G1 X198.913 Y37.074 E0.01379
G1 X199.137 Y36.771 F10800.000
G1 F1200.000
G1 X198.814 Y36.440 E0.01452
G1 X198.570 Y36.079 E0.01365
G1 X198.395 Y35.693 E0.01329
G1 X198.281 Y35.264 E0.01393
G1 X198.244 Y34.827 E0.01374
G1 X198.281 Y34.393 E0.01366
G1 X198.390 Y33.972 E0.01365
G1 X198.570 Y33.575 E0.01365
G1 X198.814 Y33.214 E0.01365
G1 X199.115 Y32.900 E0.01366
G1 X199.465 Y32.641 E0.01366
G1 X199.854 Y32.445 E0.01366
G1 X200.270 Y32.317 E0.01365
G1 X200.691 Y32.263 E0.01329
G1 X201.135 Y32.280 E0.01393
G1 X201.563 Y32.372 E0.01374
G1 X201.967 Y32.534 E0.01365
G1 X202.338 Y32.763 E0.01365
G1 X202.665 Y33.051 E0.01366
G1 X202.939 Y33.389 E0.01366
G1 X203.151 Y33.770 E0.01365
G1 X203.296 Y34.180 E0.01365
G1 X203.370 Y34.609 E0.01366
G1 X203.370 Y35.045 E0.01365
G1 X203.296 Y35.474 E0.01366
G1 X203.151 Y35.885 E0.01365
G1 X202.939 Y36.265 E0.01365
G1 X202.672 Y36.595 E0.01329
G1 X202.340 Y36.890 E0.01394
G1 X201.967 Y37.120 E0.01374
G1 X201.563 Y37.282 E0.01365
G1 X201.138 Y37.374 E0.01365
G1 X200.702 Y37.393 E0.01365
G1 X200.270 Y37.337 E0.01366
G1 X199.854 Y37.210 E0.01365
G1 X199.465 Y37.014 E0.01366
G1 X199.186 Y36.807 E0.01090
G1 X199.365 Y36.471 F10800.000
G1 F1200.000
G1 X199.108 Y36.202 E0.01164
G1 X198.900 Y35.895 E0.01164
G1 X198.752 Y35.566 E0.01131
G1 X198.654 Y35.199 E0.01192
G1 X198.622 Y34.827 E0.01169
G1 X198.654 Y34.457 E0.01164
G1 X198.747 Y34.098 E0.01164
G1 X198.900 Y33.760 E0.01164
G1 X199.108 Y33.452 E0.01164
G1 X199.365 Y33.184 E0.01164
G1 X199.664 Y32.963 E0.01164
G1 X199.995 Y32.796 E0.01164
G1 X200.350 Y32.687 E0.01164
G1 X200.708 Y32.641 E0.01131
G1 X201.088 Y32.655 E0.01192
G1 X201.452 Y32.734 E0.01169
G1 X201.797 Y32.872 E0.01164
G1 X202.113 Y33.067 E0.01164
G1 X202.392 Y33.312 E0.01164
G1 X202.625 Y33.601 E0.01164
G1 X202.806 Y33.925 E0.01164
G1 X202.930 Y34.276 E0.01164
G1 X202.993 Y34.642 E0.01164
G1 X202.993 Y35.013 E0.01164
G1 X202.930 Y35.379 E0.01164
G1 X202.806 Y35.729 E0.01164
G1 X202.625 Y36.053 E0.01164
G1 X202.399 Y36.334 E0.01131
G1 X202.115 Y36.586 E0.01192
G1 X201.797 Y36.782 E0.01169
G1 X201.452 Y36.920 E0.01164
G1 X201.089 Y36.999 E0.01164
G1 X200.719 Y37.014 E0.01164
G1 X200.350 Y36.967 E0.01164
G1 X199.995 Y36.859 E0.01164
G1 X199.664 Y36.691 E0.01164
G1 X199.413 Y36.506 E0.00976
G1 X199.638 Y36.203 F10800.000
;TYPE:External perimeter
G1 F1200.000
G1 X199.403 Y35.965 E0.01049
G1 X199.231 Y35.710 E0.00963
G1 X199.108 Y35.439 E0.00933
G1 X199.027 Y35.134 E0.00991
G1 X199.001 Y34.827 E0.00965
G1 X199.027 Y34.521 E0.00963
G1 X199.104 Y34.224 E0.00963
G1 X199.231 Y33.944 E0.00963
G1 X199.403 Y33.690 E0.00963
G1 X199.615 Y33.468 E0.00963
G1 X199.862 Y33.285 E0.00963
G1 X200.136 Y33.147 E0.00963
G1 X200.430 Y33.057 E0.00963
G1 X200.725 Y33.019 E0.00933
G1 X201.041 Y33.031 E0.00991
G1 X201.342 Y33.096 E0.00965
G1 X201.627 Y33.210 E0.00963
G1 X201.888 Y33.371 E0.00963
G1 X202.119 Y33.574 E0.00963
G1 X202.312 Y33.813 E0.00963
G1 X202.461 Y34.081 E0.00963
G1 X202.564 Y34.371 E0.00963
G1 X202.616 Y34.674 E0.00963
G1 X202.616 Y34.981 E0.00963
G1 X202.564 Y35.283 E0.00963
G1 X202.461 Y35.573 E0.00963
G1 X202.312 Y35.841 E0.00963
G1 X202.125 Y36.073 E0.00933
G1 X201.889 Y36.283 E0.00991
G1 X201.627 Y36.444 E0.00965
G1 X201.342 Y36.559 E0.00963
G1 X201.041 Y36.623 E0.00963
G1 X200.735 Y36.636 E0.00963
G1 X200.430 Y36.597 E0.00963
G1 X200.136 Y36.507 E0.00963
G1 X199.862 Y36.369 E0.00963
G1 X199.686 Y36.239 E0.00687
G1 X199.322 Y36.314 F10800.000
;WIPE_START
G1 F8640.000
G1 X199.403 Y35.965 E-0.09099
G1 X199.231 Y35.710 E-0.07092
G1 X199.108 Y35.439 E-0.06869
G1 X199.027 Y35.134 E-0.07297
G1 X199.001 Y34.827 E-0.07105
G1 X199.027 Y34.521 E-0.07092
G1 X199.104 Y34.224 E-0.07091
G1 X199.231 Y33.944 E-0.07092
G1 X199.403 Y33.690 E-0.07092
G1 X199.615 Y33.468 E-0.07092
G1 X199.722 Y33.389 E-0.03080
;WIPE_END
G1 E-0.04000 F2100.000
G1 Z0.800 F10800.000
G1 X184.507 Y61.232
G1 Z0.200
G1 E0.80000 F2100.000
;TYPE:Perimeter
G1 F1200.000
G1 X184.507 Y86.423 E0.78984
G1 X156.116 Y86.423 E0.89017
G1 X156.116 Y61.232 E0.78984
G1 X184.447 Y61.232 E0.88829
G1 X184.130 Y61.609 F10800.000
G1 F1200.000
G1 X184.130 Y86.046 E0.76619
G1 X156.493 Y86.046 E0.86653
G1 X156.493 Y61.609 E0.76619
G1 X184.070 Y61.609 E0.86465
G1 X183.753 Y61.986 F10800.000
G1 F1200.000
G1 X183.753 Y85.668 E0.74255
G1 X156.870 Y85.668 E0.84288
G1 X156.870 Y61.986 E0.74255
G1 X183.693 Y61.986 E0.84100
G1 X183.376 Y62.363 F10800.000
G1 F1200.000
G1 X183.376 Y85.291 E0.71890
G1 X157.247 Y85.291 E0.81924
G1 X157.247 Y62.363 E0.71890
G1 X183.316 Y62.363 E0.81735
G1 X182.999 Y62.740 F10800.000
G1 F1200.000
G1 X182.999 Y84.914 E0.69526
G1 X157.624 Y84.914 E0.79559
G1 X157.624 Y62.740 E0.69526
G1 X182.939 Y62.740 E0.79371
G1 X182.621 Y63.117 F10800.000
;TYPE:External perimeter
G1 F1200.000
G1 X182.621 Y84.537 E0.67161
G1 X158.001 Y84.537 E0.77194
G1 X158.001 Y63.117 E0.67161
G1 X182.561 Y63.117 E0.77006
G1 X183.010 Y63.023 F10800.000
;WIPE_START
G1 F8640.000
G1 X182.571 Y66.409 E-0.76000
;WIPE_END
G1 E-0.04000 F2100.000
G1 Z0.800 F10800.000
G1 X179.907 Y51.923
G1 Z0.200
G1 E0.80000 F2100.000
;TYPE:Perimeter
G1 F1200.000
G1 X160.716 Y51.923 E0.60171
G1 X160.716 Y40.232 E0.36656
G1 X179.907 Y40.232 E0.60171
G1 X179.907 Y51.863 E0.36468
G1 X179.530 Y51.546 F10800.000
G1 F1200.000
G1 X161.093 Y51.546 E0.57807
G1 X161.093 Y40.609 E0.34291
G1 X179.530 Y40.609 E0.57807
G1 X179.530 Y51.486 E0.34103
G1 X179.153 Y51.168 F10800.000
G1 F1200.000
G1 X161.470 Y51.168 E0.55442
G1 X161.470 Y40.986 E0.31926
M73 P0 R113
G1 X179.153 Y40.986 E0.55442
G1 X179.153 Y51.108 E0.31738
G1 X178.776 Y50.791 F10800.000
G1 F1200.000
G1 X161.847 Y50.791 E0.53078
G1 X161.847 Y41.363 E0.29562
G1 X178.776 Y41.363 E0.53078
G1 X178.776 Y50.731 E0.29374
G1 X178.398 Y50.414 F10800.000
G1 F1200.000
G1 X162.224 Y50.414 E0.50713
G1 X162.224 Y41.740 E0.27197
G1 X178.398 Y41.740 E0.50713
G1 X178.398 Y50.354 E0.27009
G1 X178.021 Y50.037 F10800.000
;TYPE:External perimeter
G1 F1200.000
G1 X162.601 Y50.037 E0.48348
M73 Q0 S114
G1 X162.601 Y42.117 E0.24833
G1 X178.021 Y42.117 E0.48348
G1 X178.021 Y49.977 E0.24644
G1 X178.164 Y50.411 F10800.000
;WIPE_START
G1 F8640.000
G1 X174.730 Y49.990 E-0.76000
;WIPE_END
G1 E-0.04000 F2100.000
G1 Z0.800 F10800.000
G1 X197.806 Y95.732
G1 Z0.200
G1 E0.80000 F2100.000
;TYPE:Perimeter
G1 F1200.000
G1 X158.862 Y95.732 E1.22108
G1 X158.485 Y95.265 E0.01881
G1 X158.013 Y94.850 E0.01969
G1 X157.478 Y94.521 E0.01969
G1 X156.896 Y94.287 E0.01969
G1 X156.276 Y94.153 E0.01987
G1 X155.640 Y94.129 E0.01997
G1 X155.031 Y94.207 E0.01923
G1 X154.431 Y94.391 E0.01969
G1 X153.870 Y94.674 E0.01969
G1 X153.365 Y95.047 E0.01969
G1 X152.930 Y95.501 E0.01969
G1 X152.774 Y95.732 E0.00874
G1 X136.407 Y95.732 E0.51319
G1 X136.407 Y31.923 E2.00069
M73 P1 R113
M73 Q1 S114
G1 X198.533 Y31.923 E1.94792
G1 X198.365 Y32.047 E0.00655
G1 X197.930 Y32.501 E0.01969
G1 X197.579 Y33.021 E0.01969
G1 X197.320 Y33.594 E0.01969
G1 X197.162 Y34.201 E0.01969
G1 X197.108 Y34.827 E0.01969
G1 X197.162 Y35.459 E0.01987
G1 X197.326 Y36.074 E0.01997
G1 X197.579 Y36.633 E0.01923
G1 X197.930 Y37.153 E0.01969
G1 X198.365 Y37.607 E0.01969
G1 X198.870 Y37.980 E0.01969
G1 X199.431 Y38.263 E0.01969
G1 X200.031 Y38.447 E0.01969
G1 X200.654 Y38.527 E0.01969
G1 X201.282 Y38.500 E0.01969
G1 X201.896 Y38.368 E0.01969
G1 X202.478 Y38.134 E0.01969
G1 X202.716 Y37.987 E0.00875
G1 X202.716 Y95.470 E1.80231
G1 X203.291 Y96.319 E0.03216
G1 X203.425 Y96.566 E0.00880
G1 X203.536 Y96.829 E0.00898
G1 X203.619 Y97.094 E0.00870
G1 X203.677 Y97.370 E0.00883
G1 X203.708 Y97.650 E0.00883
G1 X203.712 Y97.931 E0.00883
G1 X203.688 Y98.212 E0.00883
G1 X203.637 Y98.488 E0.00883
G1 X203.560 Y98.759 E0.00883
G1 X203.457 Y99.021 E0.00883
G1 X203.329 Y99.272 E0.00883
G1 X203.177 Y99.509 E0.00883
G1 X203.003 Y99.730 E0.00883
G1 X202.809 Y99.933 E0.00880
G1 X202.591 Y100.119 E0.00897
G1 X202.365 Y100.279 E0.00870
G1 X202.120 Y100.417 E0.00881
G1 X201.859 Y100.534 E0.00897
G1 X201.596 Y100.621 E0.00870
G1 X201.322 Y100.684 E0.00881
G1 X201.038 Y100.720 E0.00897
G1 X200.761 Y100.729 E0.00869
G1 X200.480 Y100.710 E0.00882
G1 X200.198 Y100.664 E0.00897
G1 X199.930 Y100.592 E0.00869
G1 X199.666 Y100.494 E0.00882
G1 X199.410 Y100.368 E0.00897
G1 X199.173 Y100.223 E0.00869
G1 X198.949 Y100.053 E0.00882
G1 X198.739 Y99.859 E0.00897
G1 X198.555 Y99.652 E0.00869
G1 X198.389 Y99.425 E0.00882
G1 X198.243 Y99.179 E0.00895
G1 X198.125 Y98.924 E0.00881
G1 X198.031 Y98.659 E0.00883
