; generated by PrusaSlicer 2.3.1+win64 on 2023-08-02 at 20:32:43 UTC

; 

; external perimeters extrusion width = 0.60mm
; perimeters extrusion width = 0.50mm
; infill extrusion width = 0.50mm
; solid infill extrusion width = 0.50mm
; top infill extrusion width = 0.45mm
; first layer extrusion width = 0.42mm

M73 P0 R95
M73 Q0 S96
M201 X1000 Y1000 Z1000 E5000 ; sets maximum accelerations, mm/sec^2
M203 X200 Y200 Z12 E120 ; sets maximum feedrates, mm/sec
M204 P1250 R1250 T1250 ; sets acceleration (P, T) and retract acceleration (R), mm/sec^2
M205 X8.00 Y8.00 Z0.40 E1.50 ; sets the jerk limits, mm/sec
M205 S0 T0 ; sets the minimum extruding and travel feed rate, mm/sec
M107
;TYPE:Custom
M115 U3.8.0 ; tell printer latest fw version
G90 ; use absolute coordinates
M83 ; extruder relative mode
M104 S215 ; set extruder temp
M140 S67 ; set bed temp
M190 S67 ; wait for bed temp
M109 S215 ; wait for extruder temp
G28 W ; home all without mesh bed level
G80 ; mesh bed leveling
G1 Y-3.0 F1000.0 ; go outside print area
G92 E0.0
G1 X60.0 E9.0 F1000.0 ; intro line
M73 Q0 S95
G1 X100.0 E12.5 F1000.0 ; intro line
G92 E0.0
M221 S95
G21 ; set units to millimeters
G90 ; use absolute coordinates
M83 ; use relative distances for extrusion
M900 K0.05 ; Filament gcode LA 1.5
M900 K30 ; Filament gcode LA 1.0
;LAYER_CHANGE
;Z:0.2
;HEIGHT:0.2
;BEFORE_LAYER_CHANGE
G92 E0.0
;0.2


G1 E-0.80000 F2100.000
G1 Z0.600 F10800.000
;AFTER_LAYER_CHANGE
;0.2
G1 X152.321 Y37.122
G1 Z0.200
G1 E0.80000 F2100.000
M204 S1000
;TYPE:Perimeter
;WIDTH:0.42
G1 F1200.000
G1 X152.488 Y36.651 E0.01567
G1 X152.725 Y36.226 E0.01527
G1 X153.043 Y35.828 E0.01595
G1 X153.421 Y35.496 E0.01578
G1 X153.846 Y35.234 E0.01567
G1 X154.310 Y35.047 E0.01567
G1 X154.798 Y34.942 E0.01567
G1 X155.285 Y34.921 E0.01527
G1 X155.790 Y34.983 E0.01595
G1 X156.271 Y35.131 E0.01578
G1 X156.717 Y35.355 E0.01567
G1 X157.119 Y35.653 E0.01567
G1 X157.465 Y36.013 E0.01567
G1 X157.745 Y36.427 E0.01567
G1 X157.950 Y36.883 E0.01567
G1 X158.073 Y37.354 E0.01527
G1 X158.119 Y37.860 E0.01595
G1 X158.076 Y38.362 E0.01578
G1 X157.950 Y38.846 E0.01567
G1 X157.745 Y39.301 E0.01567
G1 X157.465 Y39.715 E0.01567
G1 X157.119 Y40.076 E0.01567
G1 X156.717 Y40.373 E0.01567
G1 X156.271 Y40.598 E0.01567
G1 X155.793 Y40.744 E0.01567
G1 X155.298 Y40.808 E0.01567
G1 X154.798 Y40.786 E0.01567
G1 X154.310 Y40.681 E0.01567
G1 X153.846 Y40.495 E0.01567
G1 X153.421 Y40.233 E0.01567
G1 X153.046 Y39.903 E0.01567
G1 X152.732 Y39.514 E0.01567
G1 X152.488 Y39.078 E0.01567
G1 X152.321 Y38.607 E0.01567
G1 X152.237 Y38.114 E0.01567
G1 X152.237 Y37.614 E0.01567
G1 X152.311 Y37.181 E0.01379
G1 X152.683 Y37.245 F10800.000
G1 F1200.000
G1 X152.833 Y36.807 E0.01452
G1 X153.039 Y36.437 E0.01329
G1 X153.317 Y36.089 E0.01393
G1 X153.646 Y35.800 E0.01374
G1 X154.017 Y35.571 E0.01366
G1 X154.421 Y35.409 E0.01365
G1 X154.846 Y35.317 E0.01365
G1 X155.270 Y35.299 E0.01329
G1 X155.711 Y35.353 E0.01393
G1 X156.130 Y35.482 E0.01374
G1 X156.519 Y35.678 E0.01365
G1 X156.869 Y35.937 E0.01365
G1 X157.170 Y36.251 E0.01366
G1 X157.414 Y36.612 E0.01366
G1 X157.593 Y37.009 E0.01366
G1 X157.700 Y37.419 E0.01329
G1 X157.740 Y37.862 E0.01393
G1 X157.703 Y38.298 E0.01374
G1 X157.593 Y38.720 E0.01365
G1 X157.414 Y39.116 E0.01366
G1 X157.170 Y39.477 E0.01366
G1 X156.869 Y39.792 E0.01366
G1 X156.519 Y40.051 E0.01365
G1 X156.130 Y40.247 E0.01365
G1 X155.713 Y40.374 E0.01365
G1 X155.281 Y40.429 E0.01366
G1 X154.846 Y40.411 E0.01365
G1 X154.421 Y40.319 E0.01365
G1 X154.017 Y40.157 E0.01365
G1 X153.646 Y39.929 E0.01366
G1 X153.319 Y39.641 E0.01365
G1 X153.045 Y39.302 E0.01365
G1 X152.833 Y38.922 E0.01366
G1 X152.688 Y38.511 E0.01365
G1 X152.614 Y38.082 E0.01365
G1 X152.614 Y37.646 E0.01366
G1 X152.673 Y37.304 E0.01090
G1 X153.054 Y37.313 F10800.000
G1 F1200.000
G1 X153.178 Y36.962 E0.01164
G1 X153.354 Y36.648 E0.01131
G1 X153.591 Y36.350 E0.01192
G1 X153.871 Y36.104 E0.01169
G1 X154.187 Y35.909 E0.01164
G1 X154.531 Y35.771 E0.01164
G1 X154.894 Y35.693 E0.01164
G1 X155.255 Y35.677 E0.01131
G1 X155.632 Y35.724 E0.01192
G1 X155.989 Y35.833 E0.01169
G1 X156.320 Y36.000 E0.01164
G1 X156.619 Y36.221 E0.01164
G1 X156.876 Y36.489 E0.01164
G1 X157.084 Y36.796 E0.01164
G1 X157.237 Y37.135 E0.01164
G1 X157.328 Y37.484 E0.01131
G1 X157.362 Y37.863 E0.01192
G1 X157.330 Y38.234 E0.01169
G1 X157.237 Y38.593 E0.01164
G1 X157.084 Y38.932 E0.01164
G1 X156.876 Y39.239 E0.01164
G1 X156.619 Y39.508 E0.01164
G1 X156.320 Y39.728 E0.01164
G1 X155.989 Y39.895 E0.01164
G1 X155.634 Y40.004 E0.01164
G1 X155.265 Y40.051 E0.01164
G1 X154.894 Y40.036 E0.01164
G1 X154.531 Y39.957 E0.01164
G1 X154.187 Y39.819 E0.01164
G1 X153.871 Y39.624 E0.01164
G1 X153.592 Y39.379 E0.01164
G1 X153.359 Y39.090 E0.01164
G1 X153.178 Y38.766 E0.01164
G1 X153.054 Y38.416 E0.01164
G1 X152.991 Y38.050 E0.01164
G1 X152.991 Y37.679 E0.01164
G1 X153.044 Y37.372 E0.00976
G1 X153.415 Y37.435 F10800.000
;TYPE:External perimeter
G1 F1200.000
G1 X153.523 Y37.118 E0.01049
G1 X153.668 Y36.859 E0.00933
G1 X153.865 Y36.612 E0.00991
G1 X154.096 Y36.408 E0.00965
G1 X154.357 Y36.247 E0.00963
G1 X154.642 Y36.133 E0.00963
G1 X154.943 Y36.068 E0.00963
G1 X155.240 Y36.055 E0.00933
G1 X155.553 Y36.094 E0.00991
G1 X155.848 Y36.184 E0.00965
G1 X156.122 Y36.322 E0.00963
G1 X156.369 Y36.505 E0.00963
G1 X156.581 Y36.727 E0.00963
G1 X156.753 Y36.981 E0.00963
G1 X156.880 Y37.261 E0.00963
G1 X156.955 Y37.549 E0.00933
G1 X156.983 Y37.864 E0.00991
G1 X156.957 Y38.170 E0.00965
G1 X156.880 Y38.467 E0.00963
G1 X156.753 Y38.747 E0.00963
G1 X156.581 Y39.002 E0.00963
G1 X156.369 Y39.223 E0.00963
G1 X156.122 Y39.406 E0.00963
G1 X155.848 Y39.544 E0.00963
G1 X155.554 Y39.634 E0.00963
G1 X155.249 Y39.673 E0.00963
G1 X154.943 Y39.660 E0.00963
G1 X154.642 Y39.596 E0.00963
G1 X154.357 Y39.481 E0.00963
G1 X154.096 Y39.320 E0.00963
G1 X153.865 Y39.117 E0.00963
G1 X153.672 Y38.878 E0.00963
G1 X153.523 Y38.610 E0.00963
G1 X153.420 Y38.320 E0.00963
G1 X153.368 Y38.018 E0.00963
G1 X153.368 Y37.711 E0.00963
G1 X153.405 Y37.495 E0.00687
G1 X153.175 Y37.203 F10800.000
;WIPE_START
G1 F8640.000
G1 X153.523 Y37.118 E-0.09099
G1 X153.668 Y36.859 E-0.06870
G1 X153.865 Y36.612 E-0.07298
G1 X154.096 Y36.408 E-0.07105
G1 X154.357 Y36.247 E-0.07092
G1 X154.642 Y36.133 E-0.07092
G1 X154.943 Y36.068 E-0.07092
G1 X155.240 Y36.055 E-0.06869
G1 X155.553 Y36.094 E-0.07298
G1 X155.848 Y36.184 E-0.07105
G1 X155.967 Y36.244 E-0.03083
;WIPE_END
G1 E-0.04000 F2100.000
G1 Z0.800 F10800.000
G1 X184.403 Y84.216
G1 Z0.200
G1 E0.80000 F2100.000
;TYPE:Perimeter
G1 F1200.000
G1 X184.912 Y83.883 E0.01907
G1 X185.455 Y83.608 E0.01907
G1 X186.024 Y83.395 E0.01907
G1 X186.614 Y83.246 E0.01907
G1 X187.217 Y83.162 E0.01907
G1 X187.808 Y83.146 E0.01854
G1 X188.428 Y83.195 E0.01951
G1 X189.028 Y83.312 E0.01917
G1 X189.608 Y83.494 E0.01907
G1 X190.165 Y83.738 E0.01907
G1 X190.692 Y84.042 E0.01907
G1 X191.182 Y84.402 E0.01907
G1 X191.630 Y84.814 E0.01907
G1 X192.029 Y85.273 E0.01907
G1 X192.376 Y85.773 E0.01907
G1 X192.665 Y86.308 E0.01907
G1 X192.894 Y86.872 E0.01907
G1 X193.060 Y87.457 E0.01907
G1 X193.160 Y88.057 E0.01907
G1 X193.193 Y88.664 E0.01907
G1 X193.160 Y89.271 E0.01907
G1 X193.060 Y89.871 E0.01907
G1 X192.894 Y90.457 E0.01907
G1 X192.672 Y91.005 E0.01854
G1 X192.378 Y91.553 E0.01951
G1 X192.029 Y92.055 E0.01917
G1 X191.630 Y92.514 E0.01907
G1 X191.182 Y92.926 E0.01907
G1 X190.692 Y93.286 E0.01907
G1 X190.165 Y93.590 E0.01907
G1 X189.608 Y93.835 E0.01907
G1 X189.028 Y94.016 E0.01907
G1 X188.431 Y94.133 E0.01907
G1 X187.825 Y94.183 E0.01907
G1 X187.217 Y94.166 E0.01907
G1 X186.614 Y94.083 E0.01907
G1 X186.024 Y93.933 E0.01907
G1 X185.455 Y93.720 E0.01907
G1 X184.912 Y93.445 E0.01907
G1 X184.403 Y93.113 E0.01907
G1 X183.933 Y92.726 E0.01907
G1 X183.509 Y92.290 E0.01907
G1 X183.136 Y91.810 E0.01907
G1 X182.817 Y91.292 E0.01907
G1 X182.557 Y90.742 E0.01907
G1 X182.360 Y90.166 E0.01907
G1 X182.227 Y89.573 E0.01907
G1 X182.160 Y88.968 E0.01907
G1 X182.160 Y88.360 E0.01907
G1 X182.227 Y87.755 E0.01907
G1 X182.360 Y87.162 E0.01907
G1 X182.557 Y86.587 E0.01907
G1 X182.817 Y86.036 E0.01907
G1 X183.136 Y85.518 E0.01907
G1 X183.509 Y85.038 E0.01907
G1 X183.933 Y84.602 E0.01907
G1 X184.357 Y84.254 E0.01719
G1 X184.596 Y84.545 F10800.000
G1 F1200.000
G1 X185.101 Y84.210 E0.01899
G1 X185.606 Y83.954 E0.01777
G1 X186.137 Y83.755 E0.01777
G1 X186.687 Y83.616 E0.01777
G1 X187.248 Y83.538 E0.01777
G1 X187.798 Y83.523 E0.01726
G1 X188.377 Y83.569 E0.01820
G1 X188.935 Y83.678 E0.01784
G1 X189.476 Y83.847 E0.01777
G1 X189.995 Y84.075 E0.01777
G1 X190.486 Y84.358 E0.01777
G1 X190.942 Y84.694 E0.01777
G1 X191.359 Y85.078 E0.01777
G1 X191.731 Y85.505 E0.01777
G1 X192.054 Y85.971 E0.01777
G1 X192.324 Y86.469 E0.01777
G1 X192.537 Y86.994 E0.01777
G1 X192.691 Y87.539 E0.01777
G1 X192.785 Y88.098 E0.01777
G1 X192.816 Y88.664 E0.01777
G1 X192.785 Y89.230 E0.01777
G1 X192.691 Y89.789 E0.01777
G1 X192.537 Y90.334 E0.01777
G1 X192.330 Y90.844 E0.01726
G1 X192.056 Y91.356 E0.01820
G1 X191.731 Y91.823 E0.01784
G1 X191.359 Y92.251 E0.01777
G1 X190.942 Y92.634 E0.01777
G1 X190.486 Y92.970 E0.01777
G1 X189.995 Y93.253 E0.01777
G1 X189.476 Y93.481 E0.01777
G1 X188.935 Y93.650 E0.01777
G1 X188.379 Y93.759 E0.01777
G1 X187.814 Y93.806 E0.01777
G1 X187.248 Y93.790 E0.01777
G1 X186.686 Y93.712 E0.01777
G1 X186.137 Y93.573 E0.01777
G1 X185.606 Y93.374 E0.01777
G1 X185.101 Y93.118 E0.01777
G1 X184.627 Y92.808 E0.01777
G1 X184.189 Y92.448 E0.01777
G1 X183.794 Y92.042 E0.01777
G1 X183.446 Y91.595 E0.01777
G1 X183.149 Y91.112 E0.01777
G1 X182.907 Y90.600 E0.01777
G1 X182.723 Y90.064 E0.01777
G1 X182.599 Y89.511 E0.01777
G1 X182.537 Y88.948 E0.01777
G1 X182.537 Y88.381 E0.01777
G1 X182.599 Y87.818 E0.01777
G1 X182.723 Y87.265 E0.01777
G1 X182.907 Y86.729 E0.01777
G1 X183.149 Y86.216 E0.01777
G1 X183.446 Y85.733 E0.01777
G1 X183.794 Y85.286 E0.01777
G1 X184.189 Y84.880 E0.01777
G1 X184.550 Y84.583 E0.01466
G1 X184.790 Y84.874 F10800.000
G1 F1200.000
G1 X185.290 Y84.537 E0.01891
G1 X185.758 Y84.300 E0.01646
G1 X186.250 Y84.116 E0.01646
G1 X186.759 Y83.987 E0.01646
G1 X187.279 Y83.915 E0.01646
G1 X187.788 Y83.901 E0.01597
G1 X188.325 Y83.943 E0.01690
G1 X188.842 Y84.044 E0.01652
G1 X189.344 Y84.201 E0.01646
G1 X189.824 Y84.412 E0.01646
G1 X190.279 Y84.675 E0.01646
G1 X190.702 Y84.986 E0.01646
G1 X191.088 Y85.341 E0.01646
G1 X191.433 Y85.737 E0.01646
G1 X191.732 Y86.169 E0.01646
G1 X191.982 Y86.630 E0.01646
G1 X192.180 Y87.117 E0.01646
G1 X192.323 Y87.622 E0.01646
G1 X192.409 Y88.140 E0.01646
G1 X192.438 Y88.664 E0.01646
G1 X192.409 Y89.188 E0.01646
G1 X192.323 Y89.706 E0.01646
G1 X192.180 Y90.212 E0.01646
G1 X191.988 Y90.684 E0.01597
G1 X191.733 Y91.158 E0.01690
G1 X191.433 Y91.591 E0.01652
G1 X191.088 Y91.987 E0.01646
G1 X190.702 Y92.343 E0.01646
G1 X190.279 Y92.654 E0.01646
G1 X189.824 Y92.916 E0.01646
G1 X189.344 Y93.127 E0.01646
G1 X188.842 Y93.284 E0.01646
G1 X188.327 Y93.385 E0.01646
G1 X187.804 Y93.428 E0.01646
G1 X187.279 Y93.414 E0.01646
G1 X186.759 Y93.341 E0.01646
G1 X186.250 Y93.212 E0.01646
G1 X185.758 Y93.028 E0.01646
G1 X185.290 Y92.791 E0.01646
G1 X184.850 Y92.504 E0.01646
G1 X184.445 Y92.170 E0.01646
G1 X184.079 Y91.794 E0.01646
G1 X183.756 Y91.380 E0.01646
G1 X183.481 Y90.932 E0.01646
G1 X183.257 Y90.458 E0.01646
G1 X183.087 Y89.961 E0.01646
G1 X182.972 Y89.449 E0.01646
G1 X182.914 Y88.927 E0.01646
G1 X182.914 Y88.402 E0.01646
G1 X182.972 Y87.880 E0.01646
G1 X183.087 Y87.367 E0.01646
G1 X183.257 Y86.871 E0.01646
G1 X183.481 Y86.396 E0.01646
G1 X183.756 Y85.949 E0.01646
G1 X184.079 Y85.534 E0.01646
G1 X184.445 Y85.158 E0.01646
G1 X184.743 Y84.912 E0.01212
G1 X184.983 Y85.203 F10800.000
G1 F1200.000
G1 X185.479 Y84.864 E0.01883
G1 X185.910 Y84.646 E0.01516
G1 X186.363 Y84.476 E0.01516
G1 X186.831 Y84.358 E0.01516
G1 X187.310 Y84.291 E0.01516
G1 X187.778 Y84.278 E0.01469
G1 X188.274 Y84.318 E0.01559
G1 X188.750 Y84.410 E0.01519
G1 X189.211 Y84.555 E0.01516
G1 X189.654 Y84.749 E0.01516
G1 X190.073 Y84.991 E0.01516
G1 X190.462 Y85.277 E0.01516
G1 X190.818 Y85.604 E0.01516
G1 X191.135 Y85.969 E0.01516
G1 X191.411 Y86.366 E0.01516
G1 X191.641 Y86.791 E0.01516
G1 X191.823 Y87.239 E0.01516
G1 X191.954 Y87.705 E0.01516
G1 X192.034 Y88.181 E0.01516
G1 X192.060 Y88.664 E0.01516
G1 X192.034 Y89.147 E0.01516
G1 X191.954 Y89.624 E0.01516
G1 X191.823 Y90.089 E0.01516
G1 X191.646 Y90.523 E0.01469
G1 X191.411 Y90.961 E0.01559
G1 X191.135 Y91.359 E0.01519
G1 X190.818 Y91.724 E0.01516
G1 X190.462 Y92.051 E0.01516
G1 X190.073 Y92.338 E0.01516
G1 X189.654 Y92.579 E0.01516
G1 X189.211 Y92.774 E0.01516
G1 X188.750 Y92.918 E0.01516
G1 X188.275 Y93.011 E0.01516
G1 X187.793 Y93.050 E0.01516
G1 X187.310 Y93.037 E0.01516
G1 X186.831 Y92.971 E0.01516
G1 X186.363 Y92.852 E0.01516
G1 X185.910 Y92.683 E0.01516
G1 X185.479 Y92.464 E0.01516
G1 X185.074 Y92.200 E0.01516
G1 X184.701 Y91.893 E0.01516
G1 X184.364 Y91.546 E0.01516
G1 X184.067 Y91.164 E0.01516
G1 X183.813 Y90.753 E0.01516
G1 X183.607 Y90.315 E0.01516
G1 X183.450 Y89.858 E0.01516
G1 X183.344 Y89.386 E0.01516
G1 X183.291 Y88.906 E0.01516
G1 X183.291 Y88.422 E0.01516
G1 X183.344 Y87.942 E0.01516
G1 X183.450 Y87.470 E0.01516
G1 X183.607 Y87.013 E0.01516
G1 X183.813 Y86.576 E0.01516
G1 X184.067 Y86.164 E0.01516
G1 X184.364 Y85.782 E0.01516
G1 X184.701 Y85.436 E0.01516
G1 X184.937 Y85.241 E0.00959
G1 X185.176 Y85.532 F10800.000
;TYPE:External perimeter
G1 F1200.000
G1 X185.297 Y85.433 E0.00492
G1 X185.667 Y85.191 E0.01385
G1 X186.062 Y84.992 E0.01385
G1 X186.475 Y84.837 E0.01385
G1 X186.904 Y84.728 E0.01385
G1 X187.341 Y84.668 E0.01385
G1 X187.769 Y84.656 E0.01340
G1 X188.223 Y84.692 E0.01429
G1 X188.657 Y84.777 E0.01387
G1 X189.079 Y84.908 E0.01385
G1 X189.483 Y85.086 E0.01385
G1 X189.866 Y85.307 E0.01385
G1 X190.222 Y85.569 E0.01385
G1 X190.547 Y85.868 E0.01385
G1 X190.837 Y86.201 E0.01385
G1 X191.089 Y86.564 E0.01385
G1 X191.299 Y86.953 E0.01385
G1 X191.466 Y87.362 E0.01385
G1 X191.586 Y87.787 E0.01385
G1 X191.658 Y88.223 E0.01385
G1 X191.683 Y88.664 E0.01385
G1 X191.658 Y89.105 E0.01385
G1 X191.586 Y89.541 E0.01385
G1 X191.466 Y89.966 E0.01385
G1 X191.305 Y90.362 E0.01340
G1 X191.089 Y90.764 E0.01429
G1 X190.837 Y91.127 E0.01387
G1 X190.547 Y91.461 E0.01385
G1 X190.222 Y91.760 E0.01385
G1 X189.866 Y92.021 E0.01385
G1 X189.483 Y92.242 E0.01385
G1 X189.079 Y92.420 E0.01385
G1 X188.657 Y92.552 E0.01385
G1 X188.223 Y92.636 E0.01385
G1 X187.783 Y92.673 E0.01385
G1 X187.341 Y92.661 E0.01385
G1 X186.904 Y92.600 E0.01385
G1 X186.475 Y92.492 E0.01385
G1 X186.062 Y92.337 E0.01385
G1 X185.667 Y92.137 E0.01385
G1 X185.297 Y91.896 E0.01385
G1 X184.956 Y91.615 E0.01385
G1 X184.648 Y91.298 E0.01385
G1 X184.377 Y90.949 E0.01385
G1 X184.146 Y90.573 E0.01385
G1 X183.957 Y90.173 E0.01385
G1 X183.814 Y89.755 E0.01385
G1 X183.717 Y89.324 E0.01385
G1 X183.668 Y88.885 E0.01385
G1 X183.668 Y88.443 E0.01385
G1 X183.717 Y88.004 E0.01385
G1 X183.814 Y87.573 E0.01385
G1 X183.957 Y87.155 E0.01385
G1 X184.146 Y86.755 E0.01385
G1 X184.377 Y86.379 E0.01385
G1 X184.648 Y86.030 E0.01385
G1 X184.956 Y85.714 E0.01385
G1 X185.130 Y85.571 E0.00706
G1 X185.147 Y85.378 F10800.000
;WIPE_START
G1 F8640.000
G1 X185.297 Y85.433 E-0.05006
G1 X185.667 Y85.191 E-0.10202
G1 X186.062 Y84.992 E-0.10202
G1 X186.475 Y84.837 E-0.10202
G1 X186.904 Y84.728 E-0.10202
G1 X187.341 Y84.668 E-0.10202
G1 X187.769 Y84.656 E-0.09871
G1 X188.205 Y84.690 E-0.10111
;WIPE_END
G1 E-0.04000 F2100.000
G1 Z0.800 F10800.000
G1 X187.217 Y58.166
G1 Z0.200
G1 E0.80000 F2100.000
;TYPE:Perimeter
G1 F1200.000
G1 X186.614 Y58.083 E0.01907
G1 X186.024 Y57.933 E0.01907
G1 X185.455 Y57.720 E0.01907
G1 X184.912 Y57.445 E0.01907
G1 X184.403 Y57.113 E0.01907
G1 X183.933 Y56.726 E0.01907
G1 X183.509 Y56.290 E0.01907
G1 X183.136 Y55.810 E0.01907
G1 X182.817 Y55.292 E0.01907
G1 X182.565 Y54.757 E0.01854
G1 X182.361 Y54.169 E0.01951
G1 X182.227 Y53.573 E0.01917
G1 X182.160 Y52.968 E0.01907
G1 X182.160 Y52.360 E0.01907
G1 X182.227 Y51.755 E0.01907
G1 X182.360 Y51.162 E0.01907
G1 X182.557 Y50.587 E0.01907
G1 X182.817 Y50.036 E0.01907
G1 X183.136 Y49.518 E0.01907
