; generated by PrusaSlicer 2.8.0+win64 on 2025-01-10 at 13:20:03 UTC


;
;
; 

; external perimeters extrusion width = 0.60mm
; perimeters extrusion width = 0.50mm
; infill extrusion width = 0.50mm
; solid infill extrusion width = 0.50mm
; top infill extrusion width = 0.45mm
; first layer extrusion width = 0.42mm

M73 P0 R153
M73 Q0 S155
M201 X1000 Y1000 Z200 E5000 ; sets maximum accelerations, mm/sec^2
M203 X200 Y200 Z12 E120 ; sets maximum feedrates, mm / sec
M204 S1250 T1250 ; sets acceleration (S) and retract acceleration (R), mm/sec^2
M205 X8.00 Y8.00 Z0.40 E4.50 ; sets the jerk limits, mm/sec
M205 S0 T0 ; sets the minimum extruding and travel feed rate, mm/sec

; printing object back.stl id:0 copy 0
; stop printing object back.stl id:0 copy 0

;TYPE:Custom
M862.3 P "MK3S" ; printer model check
M862.1 P0.4 ; nozzle diameter check
M115 U3.13.3 ; tell printer latest fw version
G90 ; use absolute coordinates
M83 ; extruder relative mode
M104 S200 ; set extruder temp
M140 S67 ; set bed temp
M190 S67 ; wait for bed temp
M109 S200 ; wait for extruder temp
G28 W ; home all without mesh bed level
G80 X9.57289 Y11.7215 W226.875 H60.7 ; mesh bed levelling

G1 Z0.2 F720
G1 Y-3 F1000 ; go outside print area
G92 E0
G1 X60 E9 F1000 ; intro line
G1 X100 E12.5 F1000 ; intro line

G92 E0
M221 S95

; Don't change E values below. Excessive value can damage the printer.

G21 ; set units to millimeters
G90 ; use absolute coordinates
M83 ; use relative distances for extrusion
M900 K0.05 ; Filament gcode LA 1.5
M900 K30 ; Filament gcode LA 1.0
M107
;LAYER_CHANGE
;Z:0.2
;HEIGHT:0.2
G1 E-1.2 F2100
G1 Z.6 F720
; printing object back.stl id:0 copy 0
G1 X122.809 Y17.019 F10800
G1 Z.2 F720
G1 E1.2 F2100
M204 S800
;TYPE:Perimeter
;WIDTH:0.453645
G1 F1200
G1 X122.958 Y16.963 E.00544
;WIDTH:0.48729
G1 X123.246 Y16.855 E.01137
;WIDTH:0.530362
G1 X123.541 Y16.782 E.01232
G1 X124.112 Y16.761 E.02316
;WIDTH:0.561066
G1 X124.784 Y16.82 E.02906
G1 X124.973 Y16.904 E.00891
;WIDTH:0.514044
G1 X125.162 Y16.987 E.00809
;WIDTH:0.467022
G1 X125.351 Y17.071 E.00729
;WIDTH:0.419999
G1 X125.895 Y17.353 E.01921
G1 X126.382 Y17.726 E.01923
G1 X126.796 Y18.177 E.0192
G1 X127.126 Y18.693 E.0192
G1 X127.362 Y19.259 E.01923
G1 X127.495 Y19.857 E.01921
G1 X127.523 Y20.469 E.01921
G1 X127.444 Y21.077 E.01922
G1 X127.261 Y21.662 E.01922
G1 X127.028 Y22.132 E.01645
G1 X126.733 Y22.551 E.01607
G1 X126.382 Y22.917 E.0159
G1 X125.895 Y23.29 E.01923
G1 X125.351 Y23.572 E.01921
G1 X124.766 Y23.755 E.01922
G1 X124.158 Y23.834 E.01922
G1 X123.546 Y23.807 E.01921
G1 X122.948 Y23.673 E.01921
G1 X122.382 Y23.438 E.01922
G1 X121.866 Y23.107 E.01922
G1 X121.675 Y22.952 E.00771
G1 X121.306 Y22.573 E.01659
G1 X120.993 Y22.132 E.01696
G1 X120.76 Y21.662 E.01645
G1 X120.577 Y21.077 E.01922
G1 X120.498 Y20.469 E.01922
G1 X120.525 Y19.857 E.01921
G1 X120.659 Y19.259 E.01921
G1 X120.894 Y18.693 E.01922
G1 X121.224 Y18.177 E.0192
G1 X121.639 Y17.726 E.01922
G1 X122.126 Y17.353 E.01923
G1 X122.67 Y17.071 E.01921
;WIDTH:0.453645
G1 X122.752 Y17.04 E.00299
M204 S1000
G1 X122.752 Y17.04 F10800
G1 X122.939 Y17.379
M204 S800
;WIDTH:0.419999
G1 F1200
G1 X123.046 Y17.334 E.00364
G1 X123.579 Y17.212 E.01714
G1 X124.081 Y17.185 E.01576
G1 X124.668 Y17.252 E.01852
G1 X125.191 Y17.413 E.01716
G1 X125.679 Y17.662 E.01718
G1 X126.115 Y17.992 E.01714
G1 X126.487 Y18.393 E.01715
G1 X126.785 Y18.853 E.01718
G1 X126.998 Y19.357 E.01716
G1 X127.12 Y19.89 E.01714
G1 X127.147 Y20.437 E.01717
G1 X127.08 Y20.98 E.01715
G1 X126.919 Y21.503 E.01716
G1 X126.67 Y21.99 E.01715
G1 X126.371 Y22.393 E.01573
G1 X126.01 Y22.745 E.01581
G1 X125.597 Y23.033 E.01579
G1 X125.135 Y23.255 E.01607
G1 X124.631 Y23.4 E.01644
G1 X124.125 Y23.459 E.01597
G1 X123.579 Y23.431 E.01714
G1 X123.046 Y23.309 E.01714
G1 X122.541 Y23.096 E.01718
G1 X122.082 Y22.799 E.01714
G1 X121.933 Y22.677 E.00604
G1 X121.566 Y22.294 E.01663
G1 X121.274 Y21.866 E.01625
G1 X121.06 Y21.403 E.01599
G1 X120.917 Y20.873 E.01721
G1 X120.873 Y20.207 E.02093
G1 X120.941 Y19.664 E.01716
G1 X121.102 Y19.141 E.01716
G1 X121.351 Y18.653 E.01718
G1 X121.681 Y18.217 E.01714
G1 X122.082 Y17.845 E.01715
G1 X122.541 Y17.547 E.01716
G1 X122.884 Y17.403 E.01166
M204 S1000
G1 X122.884 Y17.403 F10800
G1 X123.067 Y17.731
M204 S800
G1 F1200
G1 X123.143 Y17.699 E.00259
G1 X123.612 Y17.588 E.01511
G1 X124.053 Y17.561 E.01385
G1 X124.571 Y17.616 E.01633
G1 X125.032 Y17.755 E.0151
G1 X125.462 Y17.971 E.01509
G1 X125.848 Y18.259 E.0151
G1 X126.179 Y18.609 E.0151
G1 X126.443 Y19.012 E.01511
G1 X126.633 Y19.454 E.01508
G1 X126.744 Y19.923 E.01511
G1 X126.772 Y20.404 E.01511
G1 X126.716 Y20.882 E.01509
G1 X126.577 Y21.343 E.0151
G1 X126.361 Y21.773 E.01509
G1 X126.073 Y22.16 E.01513
G1 X125.722 Y22.49 E.01511
G1 X125.32 Y22.754 E.01508
G1 X124.878 Y22.945 E.0151
G1 X124.409 Y23.055 E.0151
G1 X123.928 Y23.083 E.01511
G1 X123.45 Y23.027 E.01509
G1 X122.989 Y22.888 E.0151
G1 X122.559 Y22.672 E.01509
G1 X122.192 Y22.403 E.01427
G1 X121.842 Y22.034 E.01595
G1 X121.578 Y21.631 E.01511
G1 X121.387 Y21.189 E.0151
G1 X121.277 Y20.72 E.0151
G1 X121.249 Y20.239 E.01511
G1 X121.305 Y19.761 E.01509
G1 X121.444 Y19.3 E.0151
G1 X121.66 Y18.87 E.01509
G1 X121.948 Y18.484 E.0151
G1 X122.298 Y18.153 E.0151
G1 X122.701 Y17.889 E.01511
G1 X123.012 Y17.755 E.01062
M204 S1000
G1 X123.012 Y17.755 F10800
G1 X123.195 Y18.083
M204 S800
G1 F1200
G1 X123.241 Y18.063 E.00157
G1 X123.645 Y17.963 E.01305
G1 X124.025 Y17.938 E.01194
G1 X124.473 Y17.981 E.01411
G1 X124.873 Y18.097 E.01306
G1 X125.246 Y18.28 E.01303
G1 X125.582 Y18.526 E.01306
G1 X125.87 Y18.826 E.01304
G1 X126.101 Y19.171 E.01302
G1 X126.269 Y19.552 E.01306
G1 X126.369 Y19.956 E.01305
G1 X126.396 Y20.371 E.01304
G1 X126.351 Y20.784 E.01303
G1 X126.235 Y21.184 E.01306
G1 X126.052 Y21.557 E.01303
G1 X125.806 Y21.893 E.01306
G1 X125.506 Y22.181 E.01304
G1 X125.161 Y22.412 E.01302
G1 X124.78 Y22.58 E.01306
G1 X124.376 Y22.68 E.01305
G1 X123.961 Y22.707 E.01304
G1 X123.548 Y22.663 E.01302
G1 X123.148 Y22.547 E.01306
G1 X122.775 Y22.363 E.01304
G1 X122.451 Y22.129 E.01253
G1 X122.151 Y21.817 E.01357
G1 X121.92 Y21.472 E.01302
G1 X121.752 Y21.091 E.01306
G1 X121.652 Y20.687 E.01305
G1 X121.625 Y20.272 E.01304
G1 X121.669 Y19.859 E.01302
G1 X121.785 Y19.459 E.01306
G1 X121.969 Y19.086 E.01304
G1 X122.215 Y18.75 E.01306
G1 X122.515 Y18.462 E.01304
G1 X122.86 Y18.231 E.01302
G1 X123.141 Y18.107 E.00963
M204 S1000
G1 X123.141 Y18.107 F10800
G1 X123.323 Y18.434
M204 S800
;TYPE:External perimeter
G1 F1200
G1 X123.338 Y18.427 E.00052
G1 X123.678 Y18.339 E.01101
G1 X123.997 Y18.314 E.01003
G1 X124.376 Y18.345 E.01192
G1 X124.713 Y18.438 E.01096
G1 X125.03 Y18.589 E.01101
G1 X125.315 Y18.792 E.01097
G1 X125.561 Y19.042 E.011
G1 X125.759 Y19.331 E.01098
G1 X125.905 Y19.649 E.01097
G1 X125.993 Y19.989 E.01101
G1 X126.021 Y20.338 E.01098
G1 X125.987 Y20.687 E.01099
G1 X125.894 Y21.024 E.01096
G1 X125.743 Y21.341 E.01101
G1 X125.54 Y21.626 E.01097
G1 X125.29 Y21.872 E.011
G1 X125.001 Y22.071 E.011
G1 X124.682 Y22.216 E.01099
G1 X124.343 Y22.304 E.01098
G1 X123.994 Y22.332 E.01098
G1 X123.645 Y22.298 E.01099
G1 X123.307 Y22.205 E.01099
G1 X122.991 Y22.054 E.01098
G1 X122.71 Y21.855 E.0108
G1 X122.46 Y21.601 E.01117
G1 X122.261 Y21.312 E.011
G1 X122.116 Y20.994 E.01096
G1 X122.028 Y20.654 E.01101
G1 X122 Y20.305 E.01098
G1 X122.034 Y19.956 E.01099
G1 X122.127 Y19.619 E.01096
G1 X122.278 Y19.302 E.01101
G1 X122.481 Y19.017 E.01097
G1 X122.731 Y18.771 E.011
G1 X123.02 Y18.573 E.01098
G1 X123.269 Y18.459 E.00859
M204 S1000
;WIPE_START
G1 F8640
G1 X123.323 Y18.434 E-.01374
G1 X123.338 Y18.427 E-.00382
G1 X123.678 Y18.339 E-.08109
G1 X123.997 Y18.314 E-.07388
G1 X124.376 Y18.345 E-.0878
G1 X124.713 Y18.438 E-.08072
G1 X125.03 Y18.589 E-.08108
G1 X125.315 Y18.792 E-.08079
G1 X125.561 Y19.042 E-.08099
G1 X125.759 Y19.331 E-.08089
G1 X125.905 Y19.649 E-.0808
G1 X125.993 Y19.989 E-.08109
G1 X126.021 Y20.338 E-.08084
G1 X125.987 Y20.687 E-.08097
G1 X125.894 Y21.024 E-.08072
G1 X125.743 Y21.341 E-.08108
G1 X125.618 Y21.516 E-.0497
;WIPE_END
G1 Z.6 F720
G1 X161.714 Y35.771 F10800
G1 Z.2 F720
G1 E1.2 F2100
M204 S800
;TYPE:Perimeter
G1 F1200
G1 X161.589 Y35.851 E.00465
G1 X161.101 Y36.061 E.01666
G1 X160.543 Y36.198 E.01802
G1 X160.044 Y36.24 E.0157
G1 X159.489 Y36.2 E.01745
G1 X158.982 Y36.079 E.01634
G1 X158.432 Y35.851 E.01867
G1 X157.93 Y35.531 E.01867
G1 X157.491 Y35.128 E.01868
G1 X157.129 Y34.656 E.01865
G1 X156.854 Y34.128 E.01867
G1 X156.675 Y33.56 E.01867
G1 X156.598 Y32.969 E.01869
G1 X156.624 Y32.375 E.01864
G1 X156.753 Y31.793 E.01869
G1 X156.814 Y31.61 E.00605
G1 X157.073 Y31.072 E.01872
G1 X157.389 Y30.626 E.01714
G1 X157.811 Y30.204 E.01871
G1 X158.299 Y29.861 E.0187
G1 X158.837 Y29.61 E.01861
G1 X159.683 Y29.432 E.02711
G1 X160.108 Y29.409 E.01335
G1 X160.749 Y29.486 E.02024
G1 X161.317 Y29.665 E.01867
G1 X161.845 Y29.94 E.01867
G1 X162.317 Y30.302 E.01865
G1 X162.716 Y30.737 E.01851
G1 X163.01 Y31.183 E.01675
G1 X163.222 Y31.65 E.01608
G1 X163.359 Y32.136 E.01583
G1 X163.423 Y32.674 E.01699
G1 X163.397 Y33.269 E.01867
G1 X163.268 Y33.85 E.01866
G1 X163.04 Y34.4 E.01867
G1 X162.72 Y34.902 E.01867
G1 X162.421 Y35.228 E.01387
G1 X161.963 Y35.613 E.01876
G1 X161.764 Y35.739 E.00739
M204 S1000
G1 X161.764 Y35.739 F10800
G1 X161.527 Y35.447
M204 S800
G1 F1200
G1 X161.429 Y35.509 E.00364
G1 X160.965 Y35.708 E.01583
G1 X160.457 Y35.829 E.01637
G1 X159.946 Y35.862 E.01606
G1 X159.425 Y35.806 E.01643
G1 X158.916 Y35.659 E.01661
G1 X158.439 Y35.426 E.01664
G1 X158.002 Y35.105 E.017
G1 X157.636 Y34.722 E.01661
G1 X157.353 Y34.301 E.01591
G1 X157.14 Y33.829 E.01624
G1 X157.011 Y33.33 E.01616
G1 X156.969 Y32.772 E.01755
G1 X157.021 Y32.259 E.01617
G1 X157.164 Y31.748 E.01664
G1 X157.394 Y31.27 E.01663
G1 X157.758 Y30.781 E.01911
G1 X158.146 Y30.421 E.0166
G1 X158.591 Y30.134 E.0166
G1 X159.075 Y29.93 E.01647
G1 X159.75 Y29.803 E.02154
G1 X160.081 Y29.785 E.01039
G1 X160.651 Y29.851 E.01799
G1 X161.157 Y30.007 E.0166
G1 X161.629 Y30.249 E.01663
G1 X162.051 Y30.569 E.01661
G1 X162.408 Y30.954 E.01646
M73 Q0 S154
G1 X162.698 Y31.403 E.01676
G1 X162.904 Y31.891 E.01661
G1 X163.021 Y32.407 E.01659
G1 X163.049 Y32.915 E.01595
G1 X162.988 Y33.438 E.01651
G1 X162.836 Y33.944 E.01657
G1 X162.599 Y34.417 E.01659
G1 X162.284 Y34.841 E.01656
G1 X161.72 Y35.324 E.02328
G1 X161.577 Y35.415 E.00531
M204 S1000
G1 X161.577 Y35.415 F10800
G1 X161.333 Y35.113
M204 S800
G1 F1200
G1 X160.998 Y35.294 E.01194
G1 X160.517 Y35.437 E.01573
G1 X159.993 Y35.486 E.0165
G1 X159.467 Y35.428 E.01659
G1 X159.023 Y35.294 E.01454
G1 X158.609 Y35.085 E.01454
G1 X158.237 Y34.807 E.01456
G1 X157.919 Y34.469 E.01455
G1 X157.664 Y34.081 E.01456
G1 X157.481 Y33.655 E.01454
G1 X157.375 Y33.203 E.01456
G1 X157.349 Y32.739 E.01457
G1 X157.404 Y32.278 E.01456
G1 X157.515 Y31.887 E.01274
G1 X157.747 Y31.42 E.01635
G1 X158.024 Y31.048 E.01454
G1 X158.363 Y30.73 E.01457
G1 X158.751 Y30.476 E.01454
G1 X159.254 Y30.275 E.01698
G1 X159.821 Y30.173 E.01806
G1 X160.378 Y30.185 E.01747
G1 X160.923 Y30.317 E.01758
G1 X161.412 Y30.558 E.01709
G1 X161.784 Y30.836 E.01456
G1 X162.102 Y31.174 E.01455
G1 X162.356 Y31.562 E.01454
G1 X162.539 Y31.989 E.01457
G1 X162.646 Y32.44 E.01453
G1 X162.672 Y32.904 E.01457
G1 X162.617 Y33.365 E.01456
G1 X162.483 Y33.809 E.01454
G1 X162.274 Y34.223 E.01454
G1 X161.936 Y34.651 E.0171
G1 X161.478 Y35.035 E.01874
G1 X161.386 Y35.085 E.00328
M204 S1000
G1 X161.386 Y35.085 F10800
G1 X161.147 Y34.79
M204 S800
G1 F1200
G1 X160.767 Y34.98 E.01332
G1 X160.359 Y35.081 E.01318
G1 X159.961 Y35.107 E.01251
G1 X159.565 Y35.064 E.01249
G1 X159.182 Y34.953 E.0125
G1 X158.825 Y34.776 E.01249
G1 X158.503 Y34.541 E.0125
G1 X158.228 Y34.253 E.01249
G1 X158.006 Y33.922 E.0125
G1 X157.846 Y33.557 E.0125
G1 X157.751 Y33.17 E.01249
G1 X157.725 Y32.772 E.01251
G1 X157.768 Y32.376 E.01249
G1 X157.866 Y32.025 E.01143
G1 X158.056 Y31.636 E.01357
G1 X158.291 Y31.315 E.01247
G1 X158.579 Y31.039 E.01251
G1 X158.91 Y30.817 E.0125
G1 X159.321 Y30.646 E.01396
G1 X159.886 Y30.544 E.018
G1 X160.404 Y30.568 E.01626
G1 X160.839 Y30.69 E.01417
G1 X161.196 Y30.867 E.01249
G1 X161.517 Y31.102 E.01247
G1 X161.793 Y31.39 E.01251
G1 X162.015 Y31.721 E.0125
G1 X162.175 Y32.086 E.0125
G1 X162.27 Y32.473 E.01249
G1 X162.296 Y32.871 E.01251
G1 X162.253 Y33.267 E.01249
G1 X162.141 Y33.65 E.01251
G1 X161.965 Y34.007 E.01248
G1 X161.693 Y34.362 E.01402
G1 X161.235 Y34.746 E.01874
G1 X161.201 Y34.764 E.00121
M204 S1000
G1 X161.201 Y34.764 F10800
G1 X160.963 Y34.472
M204 S800
;TYPE:External perimeter
G1 F1200
G1 X160.648 Y34.622 E.01094
G1 X160.326 Y34.706 E.01043
G1 X159.994 Y34.732 E.01044
G1 X159.663 Y34.7 E.01043
G1 X159.342 Y34.611 E.01044
G1 X159.041 Y34.468 E.01045
G1 X158.77 Y34.274 E.01045
G1 X158.537 Y34.037 E.01042
G1 X158.348 Y33.762 E.01046
G1 X158.21 Y33.459 E.01044
G1 X158.126 Y33.137 E.01043
G1 X158.1 Y32.805 E.01044
G1 X158.132 Y32.474 E.01043
G1 X158.217 Y32.163 E.01011
G1 X158.364 Y31.852 E.01079
G1 X158.558 Y31.581 E.01045
G1 X158.795 Y31.348 E.01042
G1 X159.07 Y31.159 E.01046
G1 X159.388 Y31.018 E.01091
G1 X159.952 Y30.916 E.01797
G1 X160.358 Y30.943 E.01276
G1 X160.679 Y31.032 E.01044
G1 X160.98 Y31.176 E.01046
G1 X161.251 Y31.369 E.01043
G1 X161.484 Y31.606 E.01042
G1 X161.673 Y31.881 E.01046
G1 X161.811 Y32.184 E.01044
G1 X161.894 Y32.506 E.01043
G1 X161.921 Y32.838 E.01044
G1 X161.889 Y33.169 E.01043
G1 X161.8 Y33.49 E.01044
G1 X161.656 Y33.791 E.01046
G1 X161.451 Y34.073 E.01093
G1 X161.014 Y34.44 E.01789
M204 S1000
;WIPE_START
G1 F8640
G1 X160.963 Y34.472 E-.0139
G1 X160.648 Y34.622 E-.08056
G1 X160.326 Y34.706 E-.07684
G1 X159.994 Y34.732 E-.07689
G1 X159.663 Y34.7 E-.07679
G1 X159.342 Y34.611 E-.07692
G1 X159.041 Y34.468 E-.07695
G1 X158.77 Y34.274 E-.07696
G1 X158.537 Y34.037 E-.07674
G1 X158.348 Y33.762 E-.07705
G1 X158.21 Y33.459 E-.07688
G1 X158.126 Y33.137 E-.07684
G1 X158.1 Y32.805 E-.07689
G1 X158.132 Y32.474 E-.07679
G1 X158.217 Y32.163 E-.07444
G1 X158.364 Y31.852 E-.07943
G1 X158.437 Y31.749 E-.02913
;WIPE_END
G1 Z.6 F720
G1 X178.924 Y56.385 F10800
G1 Z.2 F720
G1 E1.2 F2100
M204 S800
;TYPE:Perimeter
G1 F1200
G1 X178.375 Y55.954 E.02188
G1 X177.72 Y55.275 E.02958
G1 X177.162 Y54.513 E.02961
G1 X176.714 Y53.683 E.02957
G1 X176.383 Y52.799 E.0296
G1 X176.171 Y51.83 E.0311
G1 X176.096 Y50.937 E.0281
G1 X176.164 Y49.829 E.03481
G1 X176.321 Y49.067 E.02439
G1 X176.622 Y48.173 E.02958
G1 X176.909 Y47.584 E.02054
G1 X177.162 Y47.13 E.0163
G1 X177.573 Y46.547 E.02237
G1 X178.206 Y45.847 E.02959
G1 X178.928 Y45.239 E.0296
G1 X179.726 Y44.735 E.02959
G1 X180.586 Y44.345 E.02961
G1 X181.49 Y44.075 E.02958
G1 X182.423 Y43.931 E.0296
G1 X183.367 Y43.915 E.0296
G1 X184.304 Y44.028 E.02959
G1 X185.217 Y44.267 E.02959
G1 X186.089 Y44.629 E.0296
G1 X186.903 Y45.106 E.02958
G1 X187.646 Y45.689 E.02961
G1 X188.283 Y46.349 E.02876
G1 X188.605 Y46.77 E.01662
G1 X188.909 Y47.206 E.01667
G1 X189.392 Y48.153 E.03333
G1 X189.712 Y49.126 E.03212
G1 X189.845 Y49.765 E.02046
G1 X189.925 Y50.706 E.02961
G1 X189.879 Y51.612 E.02844
G1 X189.714 Y52.509 E.0286
G1 X189.378 Y53.513 E.0332
G1 X188.979 Y54.315 E.02809
G1 X188.447 Y55.096 E.02963
G1 X187.815 Y55.796 E.02957
G1 X187.291 Y56.243 E.0216
G1 X186.903 Y56.538 E.01528
G1 X186.295 Y56.908 E.02232
G1 X185.435 Y57.298 E.02961
G1 X184.531 Y57.568 E.02958
G1 X183.598 Y57.712 E.0296
G1 X182.654 Y57.728 E.0296
G1 X181.717 Y57.615 E.02959
G1 X180.804 Y57.376 E.02959
G1 X179.932 Y57.014 E.0296
G1 X179.117 Y56.538 E.02959
G1 X178.971 Y56.422 E.00585
M204 S1000
G1 X178.971 Y56.422 F10800
G1 X179.16 Y56.094
M204 S800
G1 F1200
G1 X178.613 Y55.662 E.02185
G1 X177.995 Y55.018 E.02799
G1 X177.47 Y54.296 E.02799
G1 X177.049 Y53.509 E.02798
G1 X176.738 Y52.672 E.028
G1 X176.541 Y51.756 E.02938
G1 X176.472 Y50.912 E.02655
G1 X176.536 Y49.892 E.03204
G1 X176.69 Y49.144 E.02394
G1 X176.977 Y48.299 E.02798
G1 X177.47 Y47.347 E.03361
G1 X177.881 Y46.765 E.02234
G1 X178.482 Y46.104 E.02801
G1 X179.166 Y45.532 E.02796
G1 X179.922 Y45.057 E.02799
G1 X180.736 Y44.691 E.02798
