; generated by PrusaSlicer 2.8.0+win64 on 2025-01-18 at 16:58:24 UTC


;
;
; 

; external perimeters extrusion width = 0.60mm
; perimeters extrusion width = 0.50mm
; infill extrusion width = 0.50mm
; solid infill extrusion width = 0.50mm
; top infill extrusion width = 0.45mm
; first layer extrusion width = 0.42mm

M73 P0 R156
M73 Q0 S158
M201 X1000 Y1000 Z200 E5000 ; sets maximum accelerations, mm/sec^2
M203 X200 Y200 Z12 E120 ; sets maximum feedrates, mm / sec
M204 S1250 T1250 ; sets acceleration (S) and retract acceleration (R), mm/sec^2
M205 X8.00 Y8.00 Z0.40 E4.50 ; sets the jerk limits, mm/sec
M205 S0 T0 ; sets the minimum extruding and travel feed rate, mm/sec

; printing object back.stl id:0 copy 0
; stop printing object back.stl id:0 copy 0

;TYPE:Custom
M862.3 P "MK3S" ; printer model check
M862.1 P0.4 ; nozzle diameter check
M115 U3.13.3 ; tell printer latest fw version
G90 ; use absolute coordinates
M83 ; extruder relative mode
M104 S200 ; set extruder temp
M140 S67 ; set bed temp
M190 S67 ; wait for bed temp
M109 S200 ; wait for extruder temp
G28 W ; home all without mesh bed level
G80 X9.57289 Y10.2216 W226.875 H62.9 ; mesh bed levelling

G1 Z0.2 F720
G1 Y-3 F1000 ; go outside print area
G92 E0
G1 X60 E9 F1000 ; intro line
G1 X100 E12.5 F1000 ; intro line

G92 E0
M221 S95

; Don't change E values below. Excessive value can damage the printer.

G21 ; set units to millimeters
G90 ; use absolute coordinates
M83 ; use relative distances for extrusion
M900 K0.05 ; Filament gcode LA 1.5
M900 K30 ; Filament gcode LA 1.0
M107
;LAYER_CHANGE
;Z:0.2
;HEIGHT:0.2
G1 E-1.2 F2100
G1 Z.6 F720
; printing object back.stl id:0 copy 0
G1 X121.899 Y20.593 F10800
G1 Z.2 F720
G1 E1.2 F2100
M204 S800
;TYPE:Perimeter
;WIDTH:0.419999
G1 F1200
G1 X121.842 Y20.534 E.00257
G1 X121.578 Y20.131 E.01511
G1 X121.387 Y19.689 E.0151
G1 X121.277 Y19.22 E.0151
G1 X121.249 Y18.739 E.01511
G1 X121.305 Y18.261 E.01509
G1 X121.444 Y17.8 E.0151
G1 X121.66 Y17.37 E.01509
G1 X121.948 Y16.984 E.0151
G1 X122.298 Y16.653 E.0151
G1 X122.701 Y16.389 E.01511
;WIDTH:0.46333
G1 X123.07 Y16.232 E.01402
;WIDTH:0.50666
G1 X123.439 Y16.074 E.01548
;WIDTH:0.53309
G1 X123.607 Y16.031 E.00707
G1 X124.4 Y16.031 E.03232
;WIDTH:0.552226
G1 X124.588 Y16.052 E.00801
G1 X124.832 Y16.165 E.01139
;WIDTH:0.508151
G1 X125.076 Y16.277 E.01039
;WIDTH:0.464075
G1 X125.32 Y16.389 E.0094
;WIDTH:0.419999
G1 X125.848 Y16.759 E.02022
G1 X126.179 Y17.109 E.0151
G1 X126.443 Y17.512 E.01511
G1 X126.633 Y17.954 E.01508
G1 X126.744 Y18.423 E.01511
G1 X126.772 Y18.904 E.01511
G1 X126.716 Y19.382 E.01509
G1 X126.577 Y19.843 E.0151
G1 X126.361 Y20.273 E.01509
G1 X126.073 Y20.659 E.0151
G1 X125.722 Y20.99 E.01513
G1 X125.32 Y21.254 E.01508
G1 X124.878 Y21.445 E.0151
G1 X124.409 Y21.555 E.0151
G1 X123.928 Y21.583 E.01511
G1 X123.583 Y21.552 E.01086
G1 X123.093 Y21.43 E.01583
G1 X122.629 Y21.217 E.01601
G1 X122.213 Y20.922 E.01599
G1 X121.941 Y20.637 E.01235
M204 S1000
G1 X121.941 Y20.637 F10800
G1 X122.185 Y20.353
M204 S800
G1 F1200
G1 X122.151 Y20.317 E.00155
G1 X121.92 Y19.972 E.01302
G1 X121.752 Y19.591 E.01306
G1 X121.652 Y19.187 E.01305
G1 X121.625 Y18.772 E.01304
G1 X121.669 Y18.359 E.01302
G1 X121.785 Y17.959 E.01306
G1 X121.969 Y17.586 E.01304
G1 X122.215 Y17.25 E.01306
G1 X122.515 Y16.962 E.01304
G1 X122.86 Y16.731 E.01302
G1 X123.241 Y16.563 E.01306
G1 X123.645 Y16.463 E.01305
G1 X124.025 Y16.438 E.01194
G1 X124.473 Y16.481 E.01411
G1 X124.873 Y16.597 E.01306
G1 X125.246 Y16.78 E.01303
G1 X125.582 Y17.026 E.01306
G1 X125.87 Y17.326 E.01304
G1 X126.101 Y17.671 E.01302
G1 X126.269 Y18.052 E.01306
G1 X126.369 Y18.456 E.01305
G1 X126.396 Y18.871 E.01304
G1 X126.351 Y19.284 E.01303
G1 X126.235 Y19.684 E.01306
G1 X126.052 Y20.057 E.01303
G1 X125.806 Y20.393 E.01306
G1 X125.506 Y20.681 E.01304
G1 X125.161 Y20.912 E.01302
G1 X124.78 Y21.08 E.01306
G1 X124.376 Y21.18 E.01305
G1 X123.961 Y21.207 E.01304
G1 X123.628 Y21.178 E.01048
G1 X123.148 Y21.047 E.0156
G1 X122.775 Y20.863 E.01304
G1 X122.439 Y20.617 E.01306
G1 X122.227 Y20.396 E.0096
M204 S1000
G1 X122.227 Y20.396 F10800
G1 X122.472 Y20.113
M204 S800
;TYPE:External perimeter
G1 F1200
G1 X122.46 Y20.101 E.00053
G1 X122.261 Y19.812 E.011
G1 X122.116 Y19.494 E.01096
G1 X122.028 Y19.154 E.01101
G1 X122 Y18.805 E.01098
G1 X122.034 Y18.456 E.01099
G1 X122.127 Y18.119 E.01096
G1 X122.278 Y17.802 E.01101
G1 X122.481 Y17.517 E.01097
G1 X122.731 Y17.271 E.011
G1 X123.02 Y17.073 E.01098
G1 X123.338 Y16.927 E.01097
G1 X123.678 Y16.839 E.01101
G1 X123.997 Y16.814 E.01003
G1 X124.376 Y16.845 E.01192
G1 X124.713 Y16.938 E.01096
G1 X125.03 Y17.089 E.01101
G1 X125.315 Y17.292 E.01097
G1 X125.561 Y17.542 E.011
G1 X125.759 Y17.831 E.01098
G1 X125.905 Y18.149 E.01097
G1 X125.993 Y18.489 E.01101
G1 X126.021 Y18.838 E.01098
G1 X125.987 Y19.187 E.01099
G1 X125.894 Y19.524 E.01096
G1 X125.743 Y19.841 E.01101
G1 X125.54 Y20.126 E.01097
G1 X125.29 Y20.372 E.011
G1 X125.001 Y20.571 E.011
G1 X124.682 Y20.716 E.01099
G1 X124.343 Y20.804 E.01098
G1 X123.994 Y20.832 E.01098
G1 X123.672 Y20.803 E.01014
G1 X123.307 Y20.705 E.01185
G1 X122.991 Y20.554 E.01098
G1 X122.706 Y20.351 E.01097
G1 X122.514 Y20.156 E.00858
M204 S1000
;WIPE_START
G1 F8640
G1 X122.472 Y20.113 E-.01388
G1 X122.46 Y20.101 E-.00392
G1 X122.261 Y19.812 E-.08102
G1 X122.116 Y19.494 E-.0807
G1 X122.028 Y19.154 E-.08109
G1 X122 Y18.805 E-.08084
G1 X122.034 Y18.456 E-.08097
G1 X122.127 Y18.119 E-.08072
G1 X122.278 Y17.802 E-.08108
G1 X122.481 Y17.517 E-.08079
G1 X122.731 Y17.271 E-.08099
G1 X123.02 Y17.073 E-.08089
G1 X123.338 Y16.927 E-.0808
G1 X123.678 Y16.839 E-.08109
G1 X123.997 Y16.814 E-.07388
G1 X124.376 Y16.845 E-.0878
G1 X124.583 Y16.902 E-.04954
;WIPE_END
G1 Z.6 F720
G1 X159.418 Y34.683 F10800
G1 Z.2 F720
G1 E1.2 F2100
M204 S800
;TYPE:Perimeter
G1 F1200
G1 X158.982 Y34.579 E.01405
G1 X158.432 Y34.351 E.01867
G1 X157.93 Y34.031 E.01867
G1 X157.491 Y33.628 E.01868
G1 X157.129 Y33.156 E.01865
G1 X156.854 Y32.628 E.01867
G1 X156.675 Y32.06 E.01867
G1 X156.598 Y31.469 E.01869
G1 X156.624 Y30.875 E.01864
G1 X156.753 Y30.293 E.01869
G1 X156.814 Y30.11 E.00605
G1 X157.047 Y29.615 E.01715
G1 X157.389 Y29.126 E.01871
G1 X157.811 Y28.704 E.01871
G1 X158.299 Y28.361 E.0187
G1 X158.837 Y28.11 E.01861
G1 X159.683 Y27.932 E.02711
G1 X160.108 Y27.909 E.01335
G1 X160.749 Y27.986 E.02024
G1 X161.317 Y28.165 E.01867
G1 X161.845 Y28.44 E.01867
G1 X162.317 Y28.802 E.01865
G1 X162.72 Y29.241 E.01868
G1 X163.04 Y29.743 E.01867
G1 X163.255 Y30.249 E.01724
G1 X163.389 Y30.802 E.01784
G1 X163.43 Y31.337 E.01682
G1 X163.376 Y31.922 E.01842
G1 X163.22 Y32.5 E.01877
G1 X162.961 Y33.049 E.01903
G1 X162.608 Y33.545 E.01909
G1 X161.963 Y34.113 E.02695
G1 X161.508 Y34.389 E.01669
G1 X161.039 Y34.579 E.01587
G1 X160.521 Y34.701 E.01669
G1 X159.996 Y34.741 E.01651
G1 X159.489 Y34.7 E.01595
G1 X159.476 Y34.697 E.00042
M204 S1000
G1 X159.476 Y34.697 F10800
G1 X159.484 Y34.307
M204 S800
G1 F1200
G1 X159.37 Y34.292 E.00361
G1 X158.864 Y34.136 E.0166
G1 X158.392 Y33.894 E.01663
G1 X157.97 Y33.574 E.01661
G1 X157.61 Y33.186 E.0166
G1 X157.329 Y32.755 E.01613
G1 X157.125 Y32.279 E.01624
G1 X157.005 Y31.786 E.01591
G1 X156.969 Y31.268 E.01628
G1 X157.021 Y30.759 E.01604
G1 X157.164 Y30.248 E.01664
G1 X157.438 Y29.703 E.01913
G1 X157.758 Y29.281 E.01661
G1 X158.146 Y28.921 E.0166
G1 X158.592 Y28.634 E.01663
G1 X159.075 Y28.43 E.01644
G1 X159.75 Y28.303 E.02154
G1 X160.081 Y28.285 E.01039
G1 X160.651 Y28.351 E.01799
G1 X161.157 Y28.507 E.0166
G1 X161.629 Y28.749 E.01663
G1 X162.051 Y29.069 E.01661
G1 X162.411 Y29.457 E.0166
G1 X162.698 Y29.903 E.01663
G1 X162.904 Y30.391 E.01661
G1 X163.021 Y30.907 E.01659
G1 X163.048 Y31.425 E.01626
G1 X162.985 Y31.948 E.01652
G1 X162.831 Y32.456 E.01664
G1 X162.584 Y32.939 E.01701
G1 X162.264 Y33.361 E.01661
G1 X161.72 Y33.824 E.0224
G1 X161.349 Y34.047 E.01357
G1 X160.916 Y34.222 E.01464
G1 X160.425 Y34.332 E.01578
G1 X159.914 Y34.36 E.01605
G1 X159.544 Y34.314 E.01169
M204 S1000
G1 X159.544 Y34.314 F10800
G1 X159.549 Y33.937
M204 S800
G1 F1200
G1 X159.467 Y33.928 E.00259
G1 X159.023 Y33.794 E.01454
G1 X158.609 Y33.585 E.01454
G1 X158.237 Y33.307 E.01456
G1 X157.919 Y32.969 E.01455
G1 X157.664 Y32.581 E.01456
G1 X157.481 Y32.155 E.01454
G1 X157.375 Y31.703 E.01456
G1 X157.349 Y31.239 E.01457
G1 X157.404 Y30.778 E.01456
G1 X157.515 Y30.387 E.01274
G1 X157.747 Y29.92 E.01635
G1 X158.024 Y29.548 E.01454
G1 X158.363 Y29.23 E.01457
G1 X158.751 Y28.976 E.01454
G1 X159.254 Y28.775 E.01698
G1 X159.821 Y28.673 E.01806
G1 X160.378 Y28.685 E.01747
G1 X160.922 Y28.817 E.01755
G1 X161.412 Y29.058 E.01712
G1 X161.784 Y29.336 E.01456
G1 X162.102 Y29.674 E.01455
G1 X162.356 Y30.062 E.01454
G1 X162.539 Y30.489 E.01457
G1 X162.646 Y30.94 E.01453
G1 X162.672 Y31.404 E.01457
G1 X162.617 Y31.865 E.01456
G1 X162.483 Y32.309 E.01454
G1 X162.274 Y32.723 E.01454
G1 X161.955 Y33.134 E.01631
G1 X161.478 Y33.535 E.01954
G1 X160.998 Y33.794 E.0171
G1 X160.492 Y33.943 E.01654
G1 X159.981 Y33.986 E.01608
G1 X159.609 Y33.944 E.01174
M204 S1000
G1 X159.609 Y33.944 F10800
G1 X159.616 Y33.558
M204 S800
G1 F1200
G1 X159.275 Y33.486 E.01093
G1 X158.825 Y33.276 E.01557
G1 X158.503 Y33.041 E.0125
G1 X158.228 Y32.753 E.01249
G1 X158.006 Y32.422 E.0125
G1 X157.846 Y32.057 E.0125
G1 X157.751 Y31.67 E.01249
G1 X157.725 Y31.272 E.01251
G1 X157.768 Y30.876 E.01249
G1 X157.866 Y30.525 E.01143
G1 X158.056 Y30.136 E.01357
G1 X158.291 Y29.815 E.01247
G1 X158.579 Y29.539 E.01251
G1 X158.91 Y29.317 E.0125
G1 X159.321 Y29.146 E.01396
G1 X159.886 Y29.044 E.018
G1 X160.404 Y29.068 E.01626
G1 X160.839 Y29.19 E.01417
G1 X161.196 Y29.367 E.01249
G1 X161.517 Y29.602 E.01247
G1 X161.793 Y29.89 E.01251
G1 X162.015 Y30.221 E.0125
G1 X162.175 Y30.586 E.0125
G1 X162.27 Y30.973 E.01249
G1 X162.296 Y31.371 E.01251
G1 X162.253 Y31.767 E.01249
G1 X162.141 Y32.15 E.01251
G1 X161.965 Y32.507 E.01248
G1 X161.693 Y32.862 E.01402
G1 X161.235 Y33.246 E.01874
G1 X160.78 Y33.476 E.01599
G1 X160.359 Y33.581 E.0136
G1 X159.778 Y33.591 E.01822
G1 X159.675 Y33.57 E.0033
M204 S1000
G1 X159.675 Y33.57 F10800
G1 X159.681 Y33.187
M204 S800
;TYPE:External perimeter
G1 F1200
G1 X159.342 Y33.111 E.01089
G1 X159.041 Y32.968 E.01045
G1 X158.77 Y32.774 E.01045
G1 X158.537 Y32.537 E.01042
G1 X158.348 Y32.262 E.01046
G1 X158.21 Y31.959 E.01044
G1 X158.126 Y31.637 E.01043
G1 X158.1 Y31.305 E.01044
G1 X158.132 Y30.974 E.01043
G1 X158.217 Y30.663 E.01011
G1 X158.364 Y30.352 E.01079
G1 X158.558 Y30.081 E.01045
G1 X158.795 Y29.848 E.01042
G1 X159.07 Y29.659 E.01046
G1 X159.388 Y29.518 E.01091
G1 X159.952 Y29.416 E.01797
G1 X160.358 Y29.443 E.01276
G1 X160.679 Y29.532 E.01044
G1 X160.98 Y29.676 E.01046
G1 X161.251 Y29.869 E.01043
G1 X161.484 Y30.106 E.01042
G1 X161.673 Y30.381 E.01046
G1 X161.811 Y30.684 E.01044
G1 X161.894 Y31.006 E.01043
G1 X161.921 Y31.338 E.01044
G1 X161.889 Y31.669 E.01043
G1 X161.8 Y31.99 E.01044
G1 X161.656 Y32.291 E.01046
G1 X161.451 Y32.573 E.01093
G1 X160.993 Y32.957 E.01874
G1 X160.623 Y33.129 E.01279
G1 X160.326 Y33.206 E.00962
G1 X159.811 Y33.216 E.01615
G1 X159.74 Y33.2 E.00228
M204 S1000
;WIPE_START
G1 F8640
G1 X159.681 Y33.187 E-.01395
G1 X159.342 Y33.111 E-.08022
G1 X159.041 Y32.968 E-.07695
G1 X158.77 Y32.774 E-.07696
G1 X158.537 Y32.537 E-.07674
G1 X158.348 Y32.262 E-.07705
G1 X158.21 Y31.959 E-.07688
G1 X158.126 Y31.637 E-.07684
G1 X158.1 Y31.305 E-.07689
G1 X158.132 Y30.974 E-.07679
G1 X158.217 Y30.663 E-.07444
G1 X158.364 Y30.352 E-.07943
G1 X158.558 Y30.081 E-.07696
G1 X158.795 Y29.848 E-.07674
G1 X159.07 Y29.659 E-.07705
G1 X159.388 Y29.518 E-.08032
G1 X159.498 Y29.498 E-.02579
;WIPE_END
G1 Z.6 F720
G1 X188.944 Y45.772 F10800
G1 Z.2 F720
G1 E1.2 F2100
M204 S800
;TYPE:Perimeter
G1 F1200
G1 X189.378 Y46.626 E.03004
G1 X189.625 Y47.302 E.02257
G1 X189.84 Y48.238 E.03011
G1 X189.925 Y49.203 E.03037
G1 X189.876 Y50.138 E.02936
G1 X189.69 Y51.114 E.03115
G1 X189.375 Y52.026 E.03025
G1 X188.937 Y52.885 E.03023
G1 X188.444 Y53.592 E.02702
G1 X187.89 Y54.21 E.02602
G1 X187.549 Y54.539 E.01486
G1 X186.975 Y54.988 E.02285
G1 X186.3 Y55.397 E.02475
G1 X185.823 Y55.634 E.0167
G1 X185.26 Y55.861 E.01903
G1 X184.328 Y56.111 E.03026
G1 X183.37 Y56.228 E.03026
G1 X182.405 Y56.211 E.03026
G1 X181.452 Y56.06 E.03025
G1 X180.53 Y55.777 E.03024
G1 X179.656 Y55.369 E.03024
G1 X178.847 Y54.843 E.03026
G1 X178.119 Y54.21 E.03025
G1 X177.486 Y53.482 E.03025
G1 X176.961 Y52.672 E.03026
G1 X176.553 Y51.798 E.03024
G1 X176.251 Y50.796 E.03281
G1 X176.104 Y49.686 E.03511
G1 X176.104 Y48.957 E.02286
G1 X176.179 Y48.308 E.02048
G1 X176.263 Y47.816 E.01565
G1 X176.469 Y47.079 E.02399
G1 X176.85 Y46.18 E.03061
G1 X177.327 Y45.385 E.02907
G1 X177.748 Y44.853 E.02127
G1 X178.119 Y44.433 E.01757
G1 X178.66 Y43.946 E.02282
G1 X179.09 Y43.636 E.01662
G1 X179.554 Y43.328 E.01746
G1 X180.207 Y43.005 E.02284
G1 X180.891 Y42.749 E.0229
G1 X181.392 Y42.595 E.01643
G1 X182.405 Y42.432 E.03217
G1 X183.096 Y42.408 E.02168
G1 X184.083 Y42.49 E.03105
G1 X185.035 Y42.709 E.03063
G1 X185.935 Y43.055 E.03023
G1 X186.779 Y43.523 E.03026
G1 X187.231 Y43.855 E.01758
G1 X187.689 Y44.226 E.01848
G1 X188.231 Y44.786 E.02444
G1 X188.646 Y45.328 E.0214
G1 X188.914 Y45.72 E.01489
M204 S1000
G1 X188.914 Y45.72 F10800
G1 X188.611 Y45.948
M204 S800
G1 F1200
G1 X188.946 Y46.578 E.02237
G1 X189.226 Y47.308 E.02451
G1 X189.472 Y48.316 E.03253
G1 X189.549 Y49.229 E.02873
G1 X189.5 Y50.112 E.02773
G1 X189.321 Y51.035 E.02948
G1 X189.021 Y51.897 E.02862
G1 X188.604 Y52.708 E.02859
G1 X188.139 Y53.371 E.02539
G1 X187.619 Y53.948 E.02435
G1 X187.317 Y54.242 E.01321
G1 X186.743 Y54.691 E.02285
G1 X186.111 Y55.07 E.02311
G1 X185.387 Y55.403 E.02499
G1 X184.943 Y55.569 E.01486
G1 X184.236 Y55.745 E.02284
G1 X183.331 Y55.853 E.02858
G1 X182.419 Y55.834 E.0286
G1 X181.518 Y55.688 E.02862
G1 X180.646 Y55.418 E.02862
G1 X179.821 Y55.03 E.02859
G1 X179.057 Y54.531 E.02861
G1 X178.371 Y53.93 E.0286
G1 X177.775 Y53.239 E.02861
G1 X177.28 Y52.473 E.0286
G1 X176.898 Y51.644 E.02862
G1 X176.618 Y50.709 E.0306
G1 X176.481 Y49.686 E.03236
G1 X176.481 Y48.957 E.02286
G1 X176.626 Y47.918 E.03289
G1 X176.832 Y47.18 E.02402
G1 X177.194 Y46.333 E.02888
G1 X177.647 Y45.584 E.02745
G1 X178.038 Y45.093 E.01968
G1 X178.371 Y44.713 E.01584
G1 X178.912 Y44.226 E.02282
G1 X179.55 Y43.78 E.02441
G1 X180.103 Y43.475 E.0198
G1 X180.559 Y43.256 E.01586
G1 X181.31 Y43.009 E.02479
G1 X181.961 Y42.877 E.02083
G1 X182.419 Y42.809 E.01452
G1 X183.109 Y42.785 E.02165
G1 X184.046 Y42.865 E.02949
G1 X184.943 Y43.075 E.02889
G1 X185.794 Y43.404 E.02861
G1 X186.59 Y43.849 E.02859
G1 X187.426 Y44.496 E.03315
G1 X187.96 Y45.048 E.02408
G1 X188.341 Y45.55 E.01976
G1 X188.579 Y45.898 E.01322
M204 S1000
G1 X188.27 Y46.13 F10800
M204 S800
G1 F1200
G1 X188.67 Y46.883 E.02673
G1 X188.916 Y47.56 E.02258
G1 X189.103 Y48.394 E.0268
G1 X189.173 Y49.256 E.02712
G1 X189.124 Y50.085 E.02604
G1 X188.952 Y50.957 E.02787
G1 X188.667 Y51.768 E.02695
G1 X188.271 Y52.531 E.02695
G1 X187.834 Y53.149 E.02373
G1 X187.347 Y53.687 E.02275
G1 X186.801 Y54.167 E.02279
G1 X186.198 Y54.585 E.023
G1 X185.712 Y54.863 E.01756
G1 X185.246 Y55.053 E.01578
G1 X184.852 Y55.203 E.01322
G1 X184.145 Y55.379 E.02284
G1 X183.291 Y55.478 E.02696
G1 X182.432 Y55.457 E.02694
G1 X181.583 Y55.317 E.02698
G1 X180.763 Y55.06 E.02694
G1 X179.986 Y54.691 E.02697
G1 X179.268 Y54.218 E.02696
G1 X178.623 Y53.65 E.02695
G1 X178.064 Y52.997 E.02695
G1 X177.6 Y52.273 E.02696
G1 X177.242 Y51.491 E.02697
G1 X176.985 Y50.623 E.02838
G1 X176.858 Y49.686 E.02965
G1 X176.858 Y48.957 E.02286
G1 X176.989 Y48.019 E.0297
G1 X177.197 Y47.275 E.02422
G1 X177.538 Y46.487 E.02692
G1 X177.967 Y45.784 E.02582
G1 X178.623 Y44.994 E.0322
G1 X179.165 Y44.506 E.02287
G1 X179.761 Y44.093 E.02274
G1 X180.268 Y43.814 E.01814
G1 X180.729 Y43.595 E.016
G1 X181.426 Y43.368 E.02298
G1 X182.026 Y43.248 E.01919
G1 X182.432 Y43.186 E.01288
G1 X183.122 Y43.162 E.02165
G1 X184.009 Y43.241 E.02792
G1 X184.852 Y43.44 E.02716
G1 X185.653 Y43.754 E.02698
G1 X186.402 Y44.176 E.02696
G1 X187.085 Y44.698 E.02695
