; generated by PrusaSlicer 2.8.0+win64 on 2025-01-10 at 12:46:22 UTC


;
;
; 

; external perimeters extrusion width = 0.60mm
; perimeters extrusion width = 0.50mm
; infill extrusion width = 0.50mm
; solid infill extrusion width = 0.50mm
; top infill extrusion width = 0.45mm
; support material extrusion width = 0.38mm
; first layer extrusion width = 0.42mm

M73 P0 R118
M73 Q0 S121
M201 X1000 Y1000 Z200 E5000 ; sets maximum accelerations, mm/sec^2
M203 X200 Y200 Z12 E120 ; sets maximum feedrates, mm / sec
M204 S1250 T1250 ; sets acceleration (S) and retract acceleration (R), mm/sec^2
M205 X8.00 Y8.00 Z0.40 E4.50 ; sets the jerk limits, mm/sec
M205 S0 T0 ; sets the minimum extruding and travel feed rate, mm/sec

; printing object display_case.stl id:0 copy 0
; stop printing object display_case.stl id:0 copy 0

;TYPE:Custom
M862.3 P "MK3S" ; printer model check
M862.1 P0.4 ; nozzle diameter check
M115 U3.13.3 ; tell printer latest fw version
G90 ; use absolute coordinates
M83 ; extruder relative mode
M104 S200 ; set extruder temp
M140 S67 ; set bed temp
M190 S67 ; wait for bed temp
M109 S200 ; wait for extruder temp
G28 W ; home all without mesh bed level
G80 X105.872 Y16.65 W114.883 H69.6378 ; mesh bed levelling

G1 Z0.2 F720
G1 Y-3 F1000 ; go outside print area
G92 E0
G1 X60 E9 F1000 ; intro line
G1 X100 E12.5 F1000 ; intro line

G92 E0
M221 S95

; Don't change E values below. Excessive value can damage the printer.

G21 ; set units to millimeters
G90 ; use absolute coordinates
M83 ; use relative distances for extrusion
M900 K0.05 ; Filament gcode LA 1.5
M900 K30 ; Filament gcode LA 1.0
M107
;LAYER_CHANGE
;Z:0.2
;HEIGHT:0.2
G1 E-1.2 F2100
G1 Z.6 F720
; printing object display_case.stl id:0 copy 0
G1 X141.75 Y78.398 F10800
G1 Z.2 F720
G1 E1.2 F2100
M204 S800
;TYPE:Support material
;WIDTH:0.42
G1 F1200
G1 X142.438 Y78.936 E.02738
G1 X142.917 Y79.736 E.02924
G1 X143.106 Y80.689 E.03046
G1 X142.971 Y81.655 E.03058
G1 X142.535 Y82.488 E.02948
G1 X141.876 Y83.075 E.02767
G1 X141.092 Y83.351 E.02606
G1 X140.276 Y83.295 E.02565
G1 X139.761 Y83.075 E.01756
G1 X139.301 Y82.716 E.0183
G1 X138.781 Y81.954 E.02892
G1 X138.54 Y81.017 E.03034
G1 X138.621 Y80.043 E.03064
G1 X139.011 Y79.178 E.02975
G1 X139.41 Y78.724 E.01895
G1 X139.887 Y78.398 E.01812
G1 X140.613 Y78.431 E.02279
G1 X141.533 Y78.305 E.02912
G1 X141.698 Y78.376 E.00563
M204 S1000
G1 X141.698 Y78.376 F10800
G1 X142.37 Y82.42
M204 S800
G1 F1200
G1 X142.37 Y79.411 E.09435
G1 X142.001 Y78.978 E.01784
G1 X141.951 Y78.939 E.00199
G1 X141.951 Y82.603 E.11488
G1 X141.532 Y82.869 E.01556
G1 X141.532 Y78.674 E.13153
G1 X141.113 Y78.705 E.01317
G1 X141.113 Y83 E.13467
G1 X141.046 Y83.014 E.00215
G1 X140.694 Y83.021 E.01104
G1 X140.694 Y78.763 E.13351
G1 X140.275 Y78.712 E.01323
G1 X140.275 Y82.935 E.13241
G1 X139.856 Y82.729 E.01464
G1 X139.856 Y78.811 E.12285
G1 X139.437 Y79.183 E.01757
G1 X139.437 Y82.355 E.09946
G1 X139.018 Y81.624 E.02642
G1 X139.018 Y79.497 E.06669
M204 S1000
;WIPE_START
G1 F8640
G1 X139.018 Y81.624 E-.49113
G1 X139.437 Y82.355 E-.19455
G1 X139.437 Y80.128 E-.51432
;WIPE_END
G1 Z.6 F720
G1 X130.703 Y37.494 F10800
G1 Z.2 F720
G1 E1.2 F2100
M204 S800
G1 F1200
G1 X131.356 Y37.652 E.02107
G1 X132.377 Y38.156 E.0357
G1 X133.269 Y38.918 E.03678
G1 X133.947 Y39.874 E.03675
G1 X134.368 Y40.961 E.03655
G1 X134.433 Y41.476 E.01628
G1 X134.513 Y42.13 E.02066
G1 X134.368 Y43.29 E.03665
G1 X133.948 Y44.367 E.03625
G1 X133.568 Y44.914 E.02088
G1 X133.244 Y45.352 E.01708
G1 X132.369 Y46.096 E.03601
G1 X131.35 Y46.598 E.03562
G1 X130.713 Y46.751 E.02054
G1 X130.12 Y46.857 E.01889
G1 X128.992 Y46.813 E.03539
G1 X128.028 Y46.529 E.03151
G1 X128.028 Y37.718 E.27626
G1 X128.999 Y37.433 E.03173
G1 X130.126 Y37.391 E.03536
G1 X130.648 Y37.484 E.01662
M204 S1000
G1 X130.648 Y37.484 F10800
G1 X133.99 Y43.792
M204 S800
G1 F1200
G1 X133.99 Y40.925 E.08989
G1 X133.571 Y39.931 E.03382
G1 X133.571 Y44.315 E.13746
G1 X133.152 Y44.905 E.02269
G1 X133.152 Y39.34 E.17449
G1 X132.733 Y38.907 E.01889
G1 X132.733 Y45.341 E.20173
G1 X132.314 Y45.698 E.01726
G1 X132.314 Y38.549 E.22415
G1 X131.895 Y38.297 E.01533
G1 X131.895 Y45.951 E.23999
G1 X131.476 Y46.157 E.01464
G1 X131.476 Y38.09 E.25294
G1 X131.057 Y37.929 E.01407
G1 X131.057 Y46.319 E.26306
G1 X130.638 Y46.42 E.01351
G1 X130.638 Y37.828 E.2694
G1 X130.219 Y37.753 E.01335
G1 X130.219 Y46.494 E.27407
G1 X129.8 Y46.505 E.01314
G1 X129.8 Y37.743 E.27473
G1 X129.381 Y37.758 E.01315
G1 X129.381 Y46.489 E.27375
G1 X128.962 Y46.451 E.01319
G1 X128.962 Y37.797 E.27134
G1 X128.543 Y37.92 E.01369
G1 X128.543 Y46.504 E.26915
M204 S1000
;WIPE_START
G1 F8640
G1 X128.543 Y41.307 E-1.2
;WIPE_END
G1 Z.6 F720
G1 X112.548 Y32.913 F10800
G1 Z.2 F720
G1 E1.2 F2100
M204 S800
G1 F1200
G1 X113.108 Y32.938 E.01758
G1 X114.203 Y33.162 E.03504
G1 X115.272 Y33.595 E.03616
G1 X116.008 Y34.064 E.02736
G1 X116.008 Y44.376 E.32333
G1 X115.03 Y44.998 E.03634
M73 P0 R117
G1 X116.008 Y45.622 E.03637
G1 X116.008 Y79.729 E1.0694
G1 X114.941 Y79.912 E.03394
G1 X113.949 Y79.793 E.03133
G1 X113.311 Y79.582 E.02107
G1 X112.485 Y79.095 E.03006
G1 X111.732 Y78.343 E.03337
G1 X111.147 Y77.274 E.03821
G1 X110.913 Y76.154 E.03588
G1 X110.962 Y75.596 E.01756
G1 X110.458 Y75.024 E.0239
G1 X109.942 Y74.003 E.03587
G1 X109.711 Y72.944 E.03398
G1 X109.707 Y72.068 E.02747
G1 X109.809 Y71.578 E.01569
G1 X109.478 Y71.141 E.01719
G1 X109.006 Y70.118 E.03532
G1 X108.765 Y69.018 E.03531
G1 X108.765 Y67.818 E.03763
G1 X108.106 Y66.736 E.03972
G1 X107.748 Y65.642 E.03609
G1 X107.626 Y64.498 E.03607
G1 X107.837 Y63.078 E.04501
G1 X107.356 Y62.49 E.02382
G1 X106.827 Y61.531 E.03434
G1 X106.445 Y60.389 E.03776
G1 X106.285 Y59.248 E.03613
G1 X106.336 Y58.097 E.03612
G1 X106.595 Y56.973 E.03617
G1 X106.827 Y56.356 E.02067
G1 X107.357 Y55.395 E.03441
G1 X107.682 Y54.998 E.01609
G1 X107.105 Y54.283 E.02881
G1 X106.588 Y53.326 E.0341
G1 X106.214 Y52.189 E.03753
G1 X106.061 Y51.048 E.0361
G1 X106.214 Y49.368 E.05289
G1 X106.588 Y48.23 E.03756
G1 X107.105 Y47.273 E.0341
G1 X107.829 Y46.375 E.03617
G1 X108.703 Y45.623 E.03615
G1 X109.774 Y44.999 E.03886
G1 X108.7 Y44.373 E.03898
G1 X107.826 Y43.621 E.03615
G1 X107.104 Y42.724 E.0361
G1 X106.587 Y41.767 E.0341
G1 X106.213 Y40.63 E.03753
G1 X106.117 Y40.101 E.01686
G1 X106.06 Y38.952 E.03607
G1 X106.213 Y37.811 E.0361
G1 X106.586 Y36.673 E.03755
G1 X107.104 Y35.716 E.03412
G1 X107.827 Y34.818 E.03615
G1 X108.701 Y34.066 E.03615
G1 X109.697 Y33.485 E.03615
G1 X110.783 Y33.095 E.03618
G1 X111.893 Y32.912 E.03527
G1 X112.491 Y32.912 E.01875
M204 S1000
G1 X112.491 Y32.912 F10800
G1 X115.555 Y79.635
M204 S800
G1 F1200
G1 X115.555 Y45.735 E1.06291
G1 X115.136 Y45.468 E.01558
G1 X115.136 Y79.535 E1.06815
G1 X114.717 Y79.544 E.01314
M73 Q0 S120
G1 X114.717 Y45.202 E1.07677
G1 X114.398 Y44.998 E.01187
G1 X114.717 Y44.795 E.01186
G1 X114.717 Y33.737 E.34672
G1 X114.298 Y33.567 E.01418
G1 X114.298 Y79.493 E1.43998
G1 X113.879 Y79.413 E.01337
G1 X113.879 Y33.442 E1.44139
G1 X113.46 Y33.356 E.01341
G1 X113.46 Y79.274 E1.43973
G1 X113.041 Y79.029 E.01522
G1 X113.041 Y33.274 E1.43462
G1 X112.622 Y33.256 E.01315
G1 X112.622 Y78.752 E1.4265
G1 X112.203 Y78.334 E.01856
G1 X112.203 Y33.252 E1.41351
G1 X111.784 Y33.274 E.01316
G1 X111.784 Y77.754 E1.39464
G1 X111.469 Y77.159 E.02111
G1 X111.365 Y76.662 E.01592
G1 X111.365 Y33.343 E1.35824
G1 X110.946 Y33.412 E.01331
G1 X110.946 Y75.065 E1.306
G1 X110.527 Y74.409 E.02441
G1 X110.527 Y33.547 E1.2812
G1 X110.108 Y33.698 E.01396
G1 X110.108 Y44.802 E.34816
G1 X109.689 Y44.557 E.01522
G1 X109.689 Y33.883 E.33468
G1 X109.27 Y34.127 E.0152
G1 X109.27 Y44.313 E.31937
G1 X108.851 Y44.056 E.01541
G1 X108.851 Y34.384 E.30326
G1 X108.432 Y34.745 E.01734
G1 X108.432 Y43.695 E.28062
G1 X108.014 Y43.313 E.01775
G1 X108.014 Y35.127 E.25667
G1 X107.595 Y35.648 E.02096
G1 X107.595 Y42.792 E.224
G1 X107.176 Y42.143 E.02422
G1 X107.176 Y36.297 E.1833
G1 X106.757 Y37.186 E.03081
G1 X106.757 Y41.724 E.14229
M204 S1000
G1 X106.757 Y41.724 F10800
G1 X115.555 Y44.463
M204 S800
G1 F1200
G1 X115.555 Y34.178 E.32248
G1 X115.136 Y33.911 E.01558
G1 X115.136 Y44.73 E.33922
M204 S1000
G1 X115.136 Y44.73 F10800
G1 X110.108 Y73.957
M204 S800
G1 F1200
G1 X110.108 Y45.197 E.90175
G1 X109.689 Y45.441 E.0152
G1 X109.689 Y70.79 E.7948
G1 X109.27 Y69.74 E.03545
G1 X109.27 Y45.685 E.75423
G1 X108.851 Y45.943 E.01543
G1 X108.851 Y67.342 E.67095
G1 X108.432 Y66.622 E.02612
G1 X108.432 Y46.303 E.63709
G1 X108.014 Y46.686 E.01778
G1 X108.014 Y62.758 E.50393
G1 X107.595 Y62.22 E.02138
G1 X107.595 Y55.667 E.20546
G1 X107.176 Y56.427 E.02721
G1 X107.176 Y61.46 E.15781
G1 X106.757 Y60.206 E.04146
G1 X106.757 Y57.025 E.09974
M204 S1000
G1 X106.757 Y57.025 F10800
G1 X108.014 Y65.909
M204 S800
G1 F1200
G1 X108.014 Y63.084 E.08858
M204 S1000
G1 X108.014 Y63.084 F10800
G1 X107.595 Y54.62
M204 S800
G1 F1200
G1 X107.595 Y47.206 E.23246
G1 X107.176 Y47.856 E.02425
G1 X107.176 Y53.699 E.1832
G1 X106.757 Y52.81 E.03081
G1 X106.757 Y48.275 E.14219
M204 S1000
;WIPE_START
G1 F8640
G1 X106.757 Y52.81 E-1.04714
G1 X107.039 Y53.409 E-.15286
;WIPE_END
G1 Z.6 F720
G1 X186.226 Y78.214 F10800
G1 Z.2 F720
G1 E1.2 F2100
M204 S800
G1 F1200
G1 X186.997 Y78.544 E.0263
G1 X187.626 Y79.178 E.028
G1 X188.016 Y80.043 E.02975
G1 X188.097 Y81.017 E.03064
G1 X187.856 Y81.954 E.03034
G1 X187.336 Y82.716 E.02892
G1 X186.623 Y83.203 E.02707
G1 X186.092 Y83.351 E.01728
G1 X185.545 Y83.351 E.01715
G1 X185.014 Y83.203 E.01728
G1 X184.523 Y82.912 E.0179
G1 X183.927 Y82.233 E.02833
G1 X183.585 Y81.341 E.02995
G1 X183.558 Y80.363 E.03068
G1 X183.85 Y79.446 E.03017
G1 X184.41 Y78.724 E.02865
G1 X185.145 Y78.288 E.0268
G1 X185.682 Y78.177 E.01719
G1 X186.17 Y78.206 E.01533
M204 S1000
G1 X186.17 Y78.206 F10800
G1 X187.619 Y82.041
M204 S800
G1 F1200
G1 X187.619 Y79.917 E.0666
G1 X187.2 Y79.183 E.0265
G1 X187.2 Y82.355 E.09946
G1 X186.781 Y82.729 E.01761
G1 X186.781 Y78.827 E.12234
G1 X186.362 Y78.654 E.01421
G1 X186.362 Y82.935 E.13423
G1 X185.943 Y83.021 E.01341
M73 P1 R117
G1 X185.943 Y78.518 E.14119
G1 X185.524 Y78.541 E.01316
G1 X185.524 Y83 E.13981
G1 X185.105 Y82.869 E.01376
G1 X185.105 Y78.674 E.13153
G1 X184.686 Y78.939 E.01554
G1 X184.686 Y82.603 E.11488
G1 X184.267 Y82.129 E.01984
M73 Q1 S120
G1 X184.267 Y79.125 E.09419
M204 S1000
;WIPE_START
G1 F8640
G1 X184.267 Y82.129 E-.69363
G1 X184.686 Y82.603 E-.14608
G1 X184.686 Y81.043 E-.36029
;WIPE_END
G1 Z.6 F720
G1 X214.798 Y50.556 F10800
G1 Z.2 F720
G1 E1.2 F2100
M204 S800
G1 F1200
G1 X215.933 Y50.784 E.0363
G1 X217.007 Y51.215 E.03628
G1 X217.984 Y51.833 E.03625
G1 X218.832 Y52.619 E.03625
G1 X219.522 Y53.546 E.03623
G1 X220.032 Y54.582 E.03621
G1 X220.346 Y55.694 E.03623
G1 X220.452 Y56.843 E.03618
G1 X220.347 Y57.993 E.03621
G1 X220.036 Y59.104 E.03617
G1 X219.533 Y60.129 E.0358
G1 X219.142 Y60.667 E.02085
G1 X219.455 Y61.27 E.0213
G1 X219.779 Y62.368 E.03589
G1 X219.888 Y63.508 E.03591
G1 X219.779 Y64.648 E.03591
G1 X219.454 Y65.746 E.0359
G1 X218.903 Y66.808 E.03751
G1 X218.958 Y67.339 E.01674
G1 X218.835 Y68.482 E.03604
G1 X218.476 Y69.575 E.03607
G1 X217.897 Y70.567 E.03601
G1 X217.076 Y71.468 E.03822
G1 X216.958 Y72.173 E.02241
G1 X216.927 Y73.432 E.03949
G1 X216.67 Y74.351 E.02992
G1 X216.356 Y74.979 E.02201
G1 X215.61 Y75.898 E.03711
G1 X215.421 Y77.089 E.03781
G1 X214.855 Y78.201 E.03912
G1 X213.974 Y79.083 E.03909
G1 X212.862 Y79.65 E.03914
G1 X211.629 Y79.846 E.03915
G1 X210.628 Y79.688 E.03177
G1 X210.628 Y51.595 E.88084
G1 X211.412 Y51.131 E.02856
G1 X212.499 Y50.732 E.03631
G1 X213.64 Y50.539 E.03628
G1 X214.741 Y50.555 E.03452
M204 S1000
G1 X214.741 Y50.555 F10800
G1 X219.88 Y59.03
M204 S800
G1 F1200
G1 X219.88 Y55.294 E.11714
G1 X219.714 Y54.704 E.01922
G1 X219.461 Y54.191 E.01793
G1 X219.461 Y59.505 E.16662
G1 X219.042 Y60.227 E.02617
G1 X219.042 Y53.47 E.21186
G1 X218.623 Y52.908 E.02198
G1 X218.623 Y66.609 E.42959
G1 X219.042 Y65.802 E.02851
G1 X219.042 Y61.212 E.14392
G1 X219.445 Y62.433 E.04031
G1 X219.461 Y65.122 E.08431
M204 S1000
G1 X219.461 Y65.122 F10800
G1 X218.204 Y69.703
M204 S800
G1 F1200
G1 X218.204 Y52.501 E.53936
G1 X217.785 Y52.112 E.01793
M73 P1 R116
G1 X217.785 Y70.084 E.5635
G1 X217.366 Y70.645 E.02195
G1 X217.367 Y51.844 E.58949
G1 X216.948 Y51.579 E.01554
G1 X216.948 Y71.105 E.61222
G1 X216.758 Y71.313 E.00883
G1 X216.614 Y72.174 E.02737
G1 X216.529 Y73.596 E.04467
G1 X216.529 Y51.389 E.69628
G1 X216.11 Y51.221 E.01415
G1 X216.11 Y74.713 E.73658
G1 X215.691 Y75.26 E.0216
G1 X215.691 Y51.081 E.75812
G1 X215.272 Y50.997 E.0134
G1 X215.272 Y75.864 E.77969
G1 X215.095 Y76.983 E.03552
M73 Q1 S119
G1 X214.853 Y77.458 E.01671
G1 X214.853 Y50.913 E.8323
G1 X214.434 Y50.89 E.01316
G1 X214.434 Y78.143 E.8545
G1 X214.015 Y78.562 E.01858
G1 X214.015 Y50.884 E.86782
G1 X213.596 Y50.89 E.01314
G1 X213.596 Y78.895 E.87808
G1 X213.177 Y79.109 E.01475
G1 X213.177 Y50.962 E.88253
G1 X212.758 Y51.033 E.01332
G1 X212.758 Y79.323 E.88701
G1 X212.339 Y79.39 E.0133
G1 X212.339 Y51.153 E.88535
G1 X211.92 Y51.306 E.01399
G1 X211.92 Y79.457 E.88265
G1 X211.629 Y79.503 E.00924
G1 X211.501 Y79.483 E.00406
G1 X211.501 Y51.473 E.87823
G1 X211.082 Y51.721 E.01527
G1 X211.082 Y79.588 E.87375
M204 S1000
;WIPE_START
G1 F8640
G1 X211.082 Y74.391 E-1.2
;WIPE_END
G1 Z.6 F720
G1 X199.699 Y35.636 F10800
G1 Z.2 F720
G1 E1.2 F2100
M204 S800
G1 F1200
G1 X200.258 Y35.662 E.01755
G1 X201.352 Y35.888 E.03503
G1 X202.419 Y36.321 E.0361
G1 X203.108 Y36.762 E.02565
G1 X203.108 Y47.124 E.32489
G1 X202.414 Y47.567 E.02582
G1 X201.347 Y48 E.0361
G1 X200.22 Y48.232 E.03608
G1 X199.069 Y48.256 E.0361
G1 X197.934 Y48.071 E.03606
G1 X196.851 Y47.684 E.03606
G1 X195.856 Y47.107 E.03606
G1 X194.982 Y46.359 E.03607
G1 X194.257 Y45.466 E.03607
G1 X193.735 Y44.508 E.03421
G1 X193.358 Y43.369 E.03762
G1 X193.202 Y42.228 E.03611
G1 X193.202 Y41.661 E.01778
G1 X193.357 Y40.52 E.0361
G1 X193.735 Y39.379 E.03769
G1 X194.258 Y38.419 E.03428
G1 X194.983 Y37.525 E.03609
G1 X195.858 Y36.777 E.03609
G1 X196.854 Y36.201 E.03608
G1 X197.938 Y35.814 E.03609
G1 X199.048 Y35.634 E.03526
G1 X199.642 Y35.636 E.01862
M204 S1000
G1 X202.702 Y47.182 F10800
M204 S800
G1 F1200
G1 X202.702 Y36.905 E.32223
G1 X202.283 Y36.638 E.01558
G1 X202.283 Y47.248 E.33267
G1 X201.864 Y47.424 E.01425
G1 X201.864 Y36.462 E.34371
G1 X201.445 Y36.292 E.01418
G1 X201.445 Y47.593 E.35433
G1 X201.026 Y47.719 E.01372
G1 X201.026 Y36.167 E.3622
G1 X200.607 Y36.081 E.01341
G1 X200.607 Y47.805 E.3676
G1 X200.188 Y47.892 E.01342
G1 X200.188 Y35.998 E.37293
G1 X199.769 Y35.979 E.01315
G1 X199.769 Y47.902 E.37384
G1 X199.35 Y47.91 E.01314
G1 X199.35 Y35.975 E.37421
G1 X198.932 Y35.997 E.01312
G1 X198.932 Y47.889 E.37287
G1 X198.513 Y47.821 E.01331
G1 X198.513 Y36.065 E.3686
G1 X198.094 Y36.133 E.01331
G1 X198.094 Y47.753 E.36434
G1 X197.675 Y47.618 E.0138
G1 X197.675 Y36.268 E.35587
G1 X197.256 Y36.418 E.01395
G1 X197.256 Y47.468 E.34646
G1 X196.837 Y47.283 E.01436
G1 X196.837 Y36.603 E.33486
G1 X196.418 Y36.846 E.01519
G1 X196.418 Y47.04 E.31963
G1 X195.999 Y46.783 E.01541
G1 X195.999 Y37.104 E.30348
G1 X195.58 Y37.462 E.01728
G1 X195.58 Y46.424 E.281
G1 X195.161 Y46.041 E.0178
G1 X195.161 Y37.845 E.25698
G1 X194.742 Y38.361 E.02084
G1 X194.742 Y45.525 E.22462
G1 X194.323 Y44.877 E.02419
G1 X194.323 Y39.009 E.18399
G1 X193.904 Y39.893 E.03067
G1 X193.904 Y44.463 E.14329
M204 S1000
;WIPE_START
G1 F8640
G1 X193.904 Y39.893 E-1.05523
G1 X194.172 Y39.326 E-.14477
;WIPE_END
G1 Z.6 F720
G1 X214.935 Y34.283 F10800
G1 Z.2 F720
G1 E1.2 F2100
M204 S800
G1 F1200
G1 X216.066 Y34.514 E.03619
G1 X217.136 Y34.947 E.03619
G1 X218.11 Y35.567 E.0362
G1 X218.954 Y36.354 E.03618
G1 X219.642 Y37.28 E.03617
G1 X220.15 Y38.316 E.03618
G1 X220.461 Y39.427 E.03617
G1 X220.566 Y40.574 E.03611
G1 X220.516 Y41.122 E.01725
G1 X220.46 Y41.727 E.01905
G1 X220.147 Y42.836 E.03613
G1 X219.638 Y43.872 E.03619
G1 X218.949 Y44.798 E.03619
G1 X218.103 Y45.583 E.03619
G1 X217.128 Y46.202 E.03621
G1 X216.057 Y46.634 E.03621
G1 X214.926 Y46.863 E.03618
G1 X213.771 Y46.883 E.03622
G1 X212.632 Y46.694 E.0362
G1 X211.547 Y46.3 E.03619
