; generated by PrusaSlicer 2.8.0+win64 on 2025-01-10 at 12:47:01 UTC


;
;
; 

; external perimeters extrusion width = 0.60mm
; perimeters extrusion width = 0.50mm
; infill extrusion width = 0.50mm
; solid infill extrusion width = 0.50mm
; top infill extrusion width = 0.45mm
; support material extrusion width = 0.38mm
; first layer extrusion width = 0.42mm

M73 P0 R93
M73 Q0 S95
M201 X1000 Y1000 Z200 E5000 ; sets maximum accelerations, mm/sec^2
M203 X200 Y200 Z12 E120 ; sets maximum feedrates, mm / sec
M204 S1250 T1250 ; sets acceleration (S) and retract acceleration (R), mm/sec^2
M205 X8.00 Y8.00 Z0.40 E4.50 ; sets the jerk limits, mm/sec
M205 S0 T0 ; sets the minimum extruding and travel feed rate, mm/sec

; printing object display_insert.stl id:0 copy 0
; stop printing object display_insert.stl id:0 copy 0

;TYPE:Custom
M862.3 P "MK3S" ; printer model check
M862.1 P0.4 ; nozzle diameter check
M115 U3.13.3 ; tell printer latest fw version
G90 ; use absolute coordinates
M83 ; extruder relative mode
M104 S200 ; set extruder temp
M140 S67 ; set bed temp
M190 S67 ; wait for bed temp
M109 S200 ; wait for extruder temp
G28 W ; home all without mesh bed level
G80 X141.813 Y22.1535 W95.2302 H61.0003 ; mesh bed levelling

G1 Z0.2 F720
G1 Y-3 F1000 ; go outside print area
G92 E0
G1 X60 E9 F1000 ; intro line
G1 X100 E12.5 F1000 ; intro line
M73 Q0 S94

G92 E0
M221 S95

; Don't change E values below. Excessive value can damage the printer.

G21 ; set units to millimeters
G90 ; use absolute coordinates
M83 ; use relative distances for extrusion
M900 K0.05 ; Filament gcode LA 1.5
M900 K30 ; Filament gcode LA 1.0
M107
;LAYER_CHANGE
;Z:0.2
;HEIGHT:0.2
G1 E-1.2 F2100
G1 Z.6 F720
; printing object display_insert.stl id:0 copy 0
G1 X189.697 Y67.496 F10800
G1 Z.2 F720
G1 E1.2 F2100
M204 S800
;TYPE:Support material
;WIDTH:0.42
G1 F1200
G1 X190.253 Y67.522 E.01745
G1 X191.346 Y67.746 E.03498
G1 X192.414 Y68.179 E.03613
G1 X193.386 Y68.798 E.03613
G1 X194.23 Y69.584 E.03616
G1 X194.917 Y70.51 E.03615
G1 X195.425 Y71.545 E.03615
G1 X195.737 Y72.655 E.03615
G1 X195.842 Y73.803 E.03614
G1 X195.737 Y74.952 E.03618
G1 X195.425 Y76.062 E.03615
G1 X194.917 Y77.097 E.03615
G1 X194.66 Y77.444 E.01354
G1 X184.354 Y77.444 E.32314
G1 X183.732 Y76.359 E.03921
G1 X183.514 Y75.78 E.0194
G1 X183.21 Y75.793 E.00954
G1 X182.621 Y77.114 E.04535
G1 X182.376 Y77.444 E.01289
G1 X172.052 Y77.444 E.3237
G1 X171.258 Y76.036 E.05068
G1 X170.506 Y77.444 E.05005
G1 X160.033 Y77.444 E.32837
G1 X159.428 Y76.34 E.03947
G1 X159.053 Y77.103 E.02666
G1 X158.8 Y77.444 E.01331
G1 X149.41 Y77.444 E.29442
G1 X149.41 Y69.144 E.26024
G1 X149.979 Y68.654 E.02354
G1 X150.975 Y68.073 E.03615
G1 X152.061 Y67.682 E.03619
G1 X153.172 Y67.5 E.0353
G1 X154.387 Y67.525 E.0381
G1 X155.482 Y67.749 E.03504
G1 X156.551 Y68.182 E.03616
G1 X157.524 Y68.802 E.03617
G1 X158.368 Y69.588 E.03616
G1 X159.055 Y70.514 E.03615
G1 X159.486 Y71.391 E.03064
G1 X160.05 Y70.358 E.0369
G1 X160.74 Y69.503 E.03445
G1 X161.617 Y68.751 E.03622
G1 X162.616 Y68.171 E.03622
G1 X163.703 Y67.783 E.03619
G1 X164.812 Y67.604 E.03522
G1 X166.027 Y67.631 E.0381
G1 X167.124 Y67.859 E.03513
G1 X168.192 Y68.294 E.03616
G1 X169.163 Y68.916 E.03616
G1 X170.004 Y69.703 E.03611
G1 X170.689 Y70.63 E.03614
G1 X171.246 Y71.771 E.03981
G1 X171.953 Y70.31 E.05089
G1 X172.677 Y69.411 E.03619
G1 X173.552 Y68.66 E.03615
G1 X174.549 Y68.079 E.03618
G1 X175.634 Y67.69 E.03614
G1 X176.745 Y67.508 E.0353
G1 X177.959 Y67.534 E.03807
G1 X179.055 Y67.759 E.03508
G1 X180.123 Y68.192 E.03613
G1 X181.095 Y68.812 E.03615
G1 X181.939 Y69.599 E.03618
G1 X182.626 Y70.525 E.03615
G1 X183.206 Y71.823 E.04458
G1 X183.511 Y71.836 E.00957
G1 X183.732 Y71.248 E.0197
G1 X184.251 Y70.29 E.03416
G1 X184.975 Y69.394 E.03612
G1 X185.85 Y68.644 E.03613
G1 X186.845 Y68.065 E.0361
G1 X187.93 Y67.677 E.03613
G1 X189.04 Y67.495 E.03527
G1 X189.64 Y67.496 E.01881
M204 S1000
G1 X189.64 Y67.496 F10800
G1 X195.391 Y75.555
M204 S800
G1 F1200
G1 X195.391 Y72.679 E.09017
G1 X194.972 Y71.392 E.04244
G1 X194.972 Y76.214 E.15119
G1 X194.553 Y77.018 E.02843
G1 X194.553 Y70.589 E.20158
G1 X194.134 Y70.024 E.02205
G1 X194.134 Y77.104 E.22199
G1 X193.715 Y77.104 E.01314
G1 X193.715 Y69.568 E.23629
G1 X193.296 Y69.178 E.01795
G1 X193.296 Y77.104 E.24851
G1 X192.877 Y77.104 E.01314
G1 X192.877 Y68.876 E.25798
G1 X192.458 Y68.609 E.01558
G1 X192.458 Y77.104 E.26635
G1 X192.039 Y77.104 E.01314
G1 X192.039 Y68.393 E.27313
G1 X191.62 Y68.223 E.01418
G1 X191.62 Y77.104 E.27846
G1 X191.201 Y77.104 E.01314
G1 X191.201 Y68.063 E.28347
G1 X190.782 Y67.977 E.01341
G1 X190.782 Y77.104 E.28617
G1 X190.363 Y77.104 E.01314
G1 X190.363 Y67.891 E.28887
G1 X189.944 Y67.847 E.01321
G1 X189.944 Y77.104 E.29025
G1 X189.525 Y77.104 E.01314
G1 X189.525 Y67.835 E.29062
G1 X189.107 Y67.835 E.01311
G1 X189.107 Y77.104 E.29062
G1 X188.688 Y77.104 E.01314
G1 X188.688 Y67.897 E.28868
G1 X188.269 Y67.965 E.01331
G1 X188.269 Y77.104 E.28655
G1 X187.85 Y77.104 E.01314
G1 X187.85 Y68.066 E.28338
G1 X187.431 Y68.216 E.01395
G1 X187.431 Y77.104 E.27868
G1 X187.012 Y77.104 E.01314
G1 X187.012 Y68.366 E.27397
G1 X186.593 Y68.605 E.01512
G1 X186.593 Y77.104 E.26648
G1 X186.174 Y77.104 E.01314
G1 X186.174 Y68.848 E.25886
G1 X185.755 Y69.173 E.01663
G1 X185.755 Y77.104 E.24867
G1 X185.336 Y77.104 E.01314
G1 X185.336 Y69.532 E.23741
G1 X184.917 Y70.007 E.01986
G1 X184.917 Y77.104 E.22252
G1 X184.498 Y77.059 E.01321
G1 X184.498 Y70.548 E.20415
G1 X184.079 Y71.32 E.02754
G1 X184.079 Y76.287 E.15574
G1 X183.746 Y75.431 E.0288
G1 X183.66 Y75.435 E.0027
G1 X183.66 Y72.182 E.102
G1 X183.241 Y72.164 E.01315
G1 X183.241 Y75.452 E.10309
G1 X182.95 Y75.465 E.00913
G1 X182.822 Y75.921 E.01485
G1 X182.822 Y71.708 E.1321
G1 X182.403 Y70.842 E.03016
G1 X182.403 Y76.788 E.18643
G1 X182.205 Y77.104 E.01169
G1 X181.984 Y77.104 E.00693
G1 X181.984 Y70.229 E.21556
G1 X181.565 Y69.714 E.02082
G1 X181.565 Y77.104 E.23171
G1 X181.146 Y77.104 E.01314
G1 X181.146 Y69.324 E.24394
G1 X180.727 Y68.98 E.017
G1 X180.727 Y77.104 E.25472
G1 X180.308 Y77.104 E.01314
G1 X180.308 Y68.713 E.26309
G1 X179.889 Y68.464 E.01528
G1 X179.889 Y77.104 E.2709
G1 X179.47 Y77.104 E.01314
G1 X179.47 Y68.294 E.27623
G1 X179.051 Y68.124 E.01418
G1 X179.051 Y77.104 E.28156
G1 X178.632 Y77.104 E.01314
G1 X178.632 Y68.019 E.28485
G1 X178.213 Y67.932 E.01342
G1 X178.213 Y77.104 E.28758
G1 X177.794 Y77.104 E.01314
G1 X177.794 Y67.866 E.28965
G1 X177.375 Y67.848 E.01315
G1 X177.375 Y77.104 E.29022
G1 X176.956 Y77.104 E.01314
G1 X176.956 Y67.847 E.29025
G1 X176.772 Y67.847 E.00577
G1 X176.537 Y67.886 E.00747
G1 X176.537 Y77.104 E.28902
G1 X176.118 Y77.104 E.01314
G1 X176.118 Y67.954 E.28689
G1 X175.699 Y68.027 E.01334
G1 X175.699 Y77.104 E.2846
G1 X175.28 Y77.104 E.01314
G1 X175.28 Y68.177 E.2799
G1 X174.861 Y68.328 E.01396
G1 X174.861 Y77.104 E.27517
G1 X174.442 Y77.104 E.01314
G1 X174.442 Y68.534 E.26871
G1 X174.023 Y68.778 E.0152
G1 X174.023 Y77.104 E.26106
G1 X173.604 Y77.104 E.01314
G1 X173.604 Y69.062 E.25215
G1 X173.185 Y69.422 E.01732
G1 X173.185 Y77.104 E.24086
G1 X172.766 Y77.104 E.01314
G1 X172.766 Y69.841 E.22773
G1 X172.347 Y70.361 E.02094
G1 X172.347 Y77.104 E.21142
G1 X172.221 Y77.104 E.00395
G1 X171.928 Y76.563 E.01929
G1 X171.928 Y71.069 E.17226
G1 X171.509 Y72.035 E.03301
M73 P0 R92
G1 X171.509 Y75.788 E.11767
G1 X171.244 Y75.297 E.01749
G1 X171.09 Y75.608 E.01088
G1 X171.09 Y72.226 E.10604
G1 X170.672 Y71.367 E.02995
G1 X170.672 Y76.457 E.15959
G1 X170.383 Y77.041 E.02043
G1 X170.253 Y77.104 E.00453
G1 X170.253 Y70.61 E.20361
G1 X169.834 Y70.043 E.02211
G1 X169.834 Y77.104 E.22139
G1 X169.415 Y77.104 E.01314
G1 X169.415 Y69.616 E.23478
G1 X168.996 Y69.224 E.01799
G1 X168.996 Y77.104 E.24707
G1 X168.577 Y77.104 E.01314
G1 X168.577 Y68.943 E.25588
G1 X168.158 Y68.675 E.01559
G1 X168.158 Y77.104 E.26429
G1 X167.739 Y77.104 E.01314
G1 X167.739 Y68.476 E.27052
G1 X167.32 Y68.305 E.01419
G1 X167.32 Y77.104 E.27589
G1 X166.901 Y77.104 E.01314
G1 X166.901 Y68.159 E.28046
G1 X166.482 Y68.072 E.01342
G1 X166.482 Y77.104 E.28319
G1 X166.063 Y77.104 E.01314
G1 X166.063 Y67.985 E.28592
G1 X165.644 Y67.953 E.01318
G1 X165.644 Y77.104 E.28692
G1 X165.225 Y77.104 E.01314
G1 X165.225 Y67.943 E.28724
G1 X164.84 Y67.943 E.01207
G1 X164.806 Y77.104 E.28724
G1 X164.387 Y77.104 E.01314
G1 X164.387 Y68.016 E.28495
G1 X163.968 Y68.084 E.01331
G1 X163.968 Y77.104 E.28282
G1 X163.549 Y77.104 E.01314
G1 X163.549 Y68.198 E.27924
G1 X163.13 Y68.348 E.01395
G1 X163.13 Y77.104 E.27454
G1 X162.711 Y77.104 E.01314
G1 X162.711 Y68.509 E.26949
G1 X162.292 Y68.752 E.01519
G1 X162.292 Y77.104 E.26187
G1 X161.873 Y77.104 E.01314
G1 X161.873 Y68.995 E.25425
G1 X161.454 Y69.338 E.01698
G1 X161.454 Y77.104 E.2435
G1 X161.035 Y77.104 E.01314
G1 X161.035 Y69.697 E.23224
G1 X160.616 Y70.196 E.02043
G1 X160.616 Y77.104 E.2166
G1 X160.227 Y77.104 E.0122
G1 X160.197 Y77.048 E.00199
G1 X160.197 Y70.773 E.19675
G1 X159.778 Y71.565 E.02809
G1 X159.778 Y76.273 E.14762
G1 X159.414 Y75.6 E.02399
G1 X159.359 Y75.711 E.00388
G1 X159.359 Y71.904 E.11937
G1 X158.94 Y71.05 E.02983
G1 X158.94 Y76.564 E.17289
G1 X158.63 Y77.104 E.01952
G1 X158.521 Y77.104 E.00342
G1 X158.521 Y70.364 E.21133
G1 X158.102 Y69.804 E.02193
G1 X158.102 Y77.104 E.22889
G1 X157.683 Y77.104 E.01314
G1 X157.683 Y69.414 E.24111
G1 X157.264 Y69.039 E.01763
G1 X157.264 Y77.104 E.25287
G1 X156.845 Y77.104 E.01314
G1 X156.845 Y68.772 E.26124
G1 X156.426 Y68.505 E.01558
G1 X156.426 Y77.104 E.26962
G1 X156.007 Y77.104 E.01314
G1 X156.007 Y68.328 E.27517
G1 X155.588 Y68.159 E.01417
G1 X155.588 Y77.104 E.28046
G1 X155.169 Y77.104 E.01314
G1 X155.169 Y68.032 E.28445
G1 X154.75 Y67.946 E.01341
G1 X154.75 Y77.104 E.28714
G1 X154.331 Y77.104 E.01314
G1 X154.331 Y67.862 E.28978
G1 X153.912 Y67.843 E.01315
M73 P1 R92
G1 X153.912 Y77.104 E.29037
G1 X153.493 Y77.104 E.01314
M73 Q1 S94
G1 X153.493 Y67.839 E.2905
G1 X153.199 Y67.839 E.00922
G1 X153.074 Y67.859 E.00397
G1 X153.074 Y77.104 E.28987
G1 X152.656 Y77.104 E.01311
G1 X152.656 Y67.928 E.28771
G1 X152.237 Y67.997 E.01331
G1 X152.237 Y77.104 E.28554
G1 X151.818 Y77.104 E.01314
G1 X151.818 Y68.13 E.28137
G1 X151.399 Y68.281 E.01396
G1 X151.399 Y77.104 E.27664
G1 X150.98 Y77.104 E.01314
G1 X150.98 Y68.463 E.27093
G1 X150.561 Y68.708 E.01522
M73 Q1 S93
G1 X150.561 Y77.104 E.26325
G1 X150.142 Y77.104 E.01314
G1 X150.142 Y68.756 E.26175
M204 S1000
;WIPE_START
G1 F8640
G1 X150.142 Y73.953 E-1.2
;WIPE_END
G1 Z.6 F720
G1 X151.22 Y45.267 F10800
G1 Z.2 F720
G1 E1.2 F2100
M204 S800
G1 F1200
G1 X151.735 Y47.019 E.05726
G1 X151.56 Y47.644 E.02035
G1 X151.797 Y48.529 E.02873
G1 X151.412 Y49.901 E.04468
G1 X151.797 Y51.252 E.04405
G1 X151.58 Y52.026 E.0252
G1 X151.717 Y52.537 E.01659
G1 X152.738 Y53.058 E.03594
G1 X153.593 Y53.743 E.03435
G1 X154.361 Y54.751 E.03973
G1 X154.791 Y55.864 E.03741
G1 X154.955 Y57.005 E.03614
G1 X154.816 Y58.253 E.03937
G1 X154.326 Y59.384 E.03865
G1 X153.738 Y60.18 E.03103
G1 X152.513 Y61.261 E.05123
G1 X151.511 Y61.818 E.03594
G1 X151.797 Y62.887 E.0347
G1 X151.327 Y64.563 E.05458
G1 X149.41 Y66.353 E.08224
G1 X149.41 Y63.532 E.08845
G1 X148.994 Y63.116 E.01845
G1 X144.806 Y63.116 E.13131
G1 X144.39 Y63.532 E.01845
G1 X144.39 Y66.114 E.08096
G1 X143.198 Y66.303 E.03784
G1 X142.19 Y63.033 E.10729
G1 X142.649 Y61.396 E.05331
G1 X142.264 Y60.043 E.04411
G1 X142.653 Y58.655 E.0452
G1 X142.224 Y57.166 E.04859
G1 X142.661 Y55.604 E.05086
G1 X142.263 Y54.21 E.04545
G1 X142.654 Y52.816 E.04539
G1 X142.225 Y51.331 E.04847
G1 X142.695 Y49.654 E.05461
G1 X142.994 Y49.376 E.0128
G1 X142.517 Y48.93 E.02048
G1 X142.002 Y47.179 E.05723
G1 X142.472 Y45.502 E.05461
G1 X144.39 Y43.713 E.08224
G1 X144.39 Y46.534 E.08845
G1 X144.805 Y46.949 E.0184
G1 X148.994 Y46.949 E.13134
G1 X149.41 Y46.533 E.01845
G1 X149.41 Y43.577 E.09268
G1 X151.179 Y45.229 E.07589
M204 S1000
;WIPE_START
G1 F8640
G1 X149.41 Y43.577 E-.55888
G1 X149.41 Y46.354 E-.64112
;WIPE_END
G1 Z.6 F720
G1 X154.331 Y58.945 F10800
G1 Z.2 F720
G1 E1.2 F2100
M204 S800
G1 F1200
G1 X154.331 Y55.615 E.10441
G1 X154.062 Y54.918 E.02343
G1 X153.912 Y54.722 E.00774
G1 X153.912 Y59.373 E.14583
G1 X153.493 Y59.94 E.02211
G1 X153.493 Y54.172 E.18085
G1 X153.074 Y53.762 E.01838
G1 X153.074 Y60.372 E.20725
G1 X152.656 Y60.711 E.01687
G1 X152.656 Y53.427 E.22838
G1 X152.237 Y53.176 E.01531
G1 X152.237 Y61.027 E.24616
G1 X151.818 Y61.26 E.01503
G1 X151.818 Y52.761 E.26648
M204 S1000
G1 X151.818 Y52.761 F10800
G1 X151.399 Y63.679
M204 S800
G1 F1200
G1 X151.399 Y62.711 E.03035
G1 X151.114 Y61.65 E.03445
G1 X151.399 Y61.492 E.01022
G1 X151.399 Y51.077 E.32656
G1 X151.058 Y49.908 E.03818
G1 X151.399 Y48.692 E.0396
G1 X151.399 Y48.353 E.01063
G1 X151.208 Y47.642 E.02308
G1 X151.383 Y47.017 E.02035
G1 X150.98 Y45.625 E.04544
G1 X150.98 Y64.423 E.5894
G1 X150.561 Y64.814 E.01797
G1 X150.561 Y45.116 E.61762
G1 X150.142 Y44.725 E.01797
G1 X150.142 Y65.205 E.64214
G1 X149.749 Y65.572 E.01686
G1 X149.723 Y46.7 E.59172
G1 X149.304 Y47.119 E.01858
G1 X149.304 Y62.946 E.49624
G1 X149.134 Y62.777 E.00752
G1 X148.885 Y62.777 E.00781
G1 X148.885 Y47.289 E.48562
G1 X148.466 Y47.289 E.01314
G1 X148.466 Y62.777 E.48562
G1 X148.047 Y62.777 E.01314
G1 X148.047 Y47.289 E.48562
G1 X147.628 Y47.289 E.01314
G1 X147.628 Y62.777 E.48562
G1 X147.209 Y62.777 E.01314
G1 X147.209 Y47.289 E.48562
G1 X146.79 Y47.289 E.01314
G1 X146.79 Y62.777 E.48562
G1 X146.371 Y62.777 E.01314
G1 X146.371 Y47.289 E.48562
G1 X145.952 Y47.289 E.01314
G1 X145.952 Y62.777 E.48562
G1 X145.533 Y62.777 E.01314
G1 X145.533 Y47.289 E.48562
G1 X145.114 Y47.289 E.01314
G1 X145.114 Y62.777 E.48562
G1 X144.695 Y62.777 E.01314
G1 X144.695 Y47.289 E.48562
G1 X144.276 Y46.9 E.01793
G1 X144.276 Y63.166 E.51001
G1 X144.05 Y63.391 E.01
G1 X144.05 Y65.824 E.07629
G1 X143.857 Y65.855 E.00613
G1 X143.857 Y44.674 E.66412
G1 X143.438 Y45.065 E.01797
G1 X143.438 Y65.921 E.65393
G1 X143.019 Y64.654 E.04184
G1 X143.019 Y49.816 E.46524
G1 X142.6 Y51.251 E.04687
G1 X143.008 Y52.809 E.0505
G1 X142.615 Y54.212 E.04568
G1 X143.016 Y55.597 E.04521
G1 X142.6 Y57.081 E.04832
G1 X143.007 Y58.648 E.05076
G1 X142.616 Y60.045 E.04549
G1 X143.004 Y61.388 E.04383
G1 X142.6 Y62.828 E.04689
G1 X142.6 Y63.908 E.03386
M204 S1000
G1 X143.019 Y49.167 F10800
M204 S800
G1 F1200
G1 X143.019 Y45.456 E.11636
G1 X142.773 Y45.685 E.01054
G1 X142.6 Y46.303 E.02012
G1 X142.6 Y48.637 E.07318
M204 S1000
;WIPE_START
G1 F8640
G1 X142.6 Y46.303 E-.53893
G1 X142.773 Y45.685 E-.14818
G1 X143.019 Y45.456 E-.0776
G1 X143.019 Y47.341 E-.43529
;WIPE_END
G1 Z.6 F720
G1 X222.333 Y67.497 F10800
G1 Z.2 F720
G1 E1.2 F2100
M204 S800
G1 F1200
G1 X222.893 Y67.523 E.01758
G1 X223.988 Y67.747 E.03504
G1 X225.057 Y68.18 E.03616
G1 X226.29 Y69.041 E.04715
G1 X226.29 Y77.444 E.26347
G1 X197.797 Y77.444 E.89338
G1 X197.174 Y76.354 E.03936
G1 X196.971 Y75.813 E.01812
G1 X196.801 Y75.218 E.0194
G1 X196.649 Y74.079 E.03603
G1 X196.705 Y72.93 E.03607
G1 X196.801 Y72.403 E.0168
G1 X197.174 Y71.265 E.03755
G1 X197.691 Y70.308 E.0341
G1 X198.414 Y69.409 E.03617
G1 X199.288 Y68.656 E.03617
G1 X200.285 Y68.075 E.03618
G1 X201.37 Y67.685 E.03615
G1 X202.481 Y67.502 E.0353
G1 X203.133 Y67.502 E.02044
G1 X203.696 Y67.527 E.01767
G1 X204.791 Y67.752 E.03505
G1 X205.86 Y68.185 E.03616
G1 X206.833 Y68.805 E.03617
G1 X207.834 Y69.737 E.04288
G1 X208.1 Y69.407 E.01329
G1 X208.974 Y68.655 E.03615
G1 X209.971 Y68.074 E.03618
G1 X211.056 Y67.683 E.03616
G1 X212.167 Y67.501 E.0353
G1 X213.382 Y67.526 E.0381
G1 X214.477 Y67.751 E.03505
G1 X215.546 Y68.183 E.03615
G1 X216.519 Y68.803 E.03617
G1 X217.42 Y69.642 E.0386
G1 X218.485 Y68.652 E.04559
G1 X219.482 Y68.071 E.03618
G1 X220.567 Y67.68 E.03616
G1 X221.678 Y67.497 E.0353
G1 X222.276 Y67.497 E.01875
M204 S1000
G1 X222.276 Y67.497 F10800
G1 X225.558 Y77.274
M204 S800
G1 F1200
G1 X225.558 Y68.901 E.26253
G1 X225.139 Y68.634 E.01558
G1 X225.139 Y77.104 E.26557
G1 X224.72 Y77.104 E.01314
G1 X224.72 Y68.409 E.27263
G1 X224.301 Y68.24 E.01417
G1 X224.301 Y77.104 E.27792
G1 X223.882 Y77.104 E.01314
G1 X223.882 Y68.072 E.28319
