; generated by PrusaSlicer 2.8.0+win64 on 2025-01-10 at 13:02:34 UTC


;
;
; 

; external perimeters extrusion width = 0.60mm
; perimeters extrusion width = 0.50mm
; infill extrusion width = 0.50mm
; solid infill extrusion width = 0.50mm
; top infill extrusion width = 0.45mm
; first layer extrusion width = 0.42mm

M73 P0 R210
M73 Q0 S214
M201 X1000 Y1000 Z200 E5000 ; sets maximum accelerations, mm/sec^2
M203 X200 Y200 Z12 E120 ; sets maximum feedrates, mm / sec
M204 S1250 T1250 ; sets acceleration (S) and retract acceleration (R), mm/sec^2
M205 X8.00 Y8.00 Z0.40 E4.50 ; sets the jerk limits, mm/sec
M205 S0 T0 ; sets the minimum extruding and travel feed rate, mm/sec

; printing object frame2.stl id:0 copy 0
; stop printing object frame2.stl id:0 copy 0

;TYPE:Custom
M862.3 P "MK3S" ; printer model check
M862.1 P0.4 ; nozzle diameter check
M115 U3.13.3 ; tell printer latest fw version
G90 ; use absolute coordinates
M83 ; extruder relative mode
M104 S200 ; set extruder temp
M140 S67 ; set bed temp
M190 S67 ; wait for bed temp
M109 S200 ; wait for extruder temp
G28 W ; home all without mesh bed level
G80 X6.59461 Y7.42601 W234.995 H49.5934 ; mesh bed levelling

G1 Z0.2 F720
G1 Y-3 F1000 ; go outside print area
G92 E0
G1 X60 E9 F1000 ; intro line
G1 X100 E12.5 F1000 ; intro line

G92 E0
M221 S95

; Don't change E values below. Excessive value can damage the printer.

G21 ; set units to millimeters
G90 ; use absolute coordinates
M83 ; use relative distances for extrusion
M900 K0.05 ; Filament gcode LA 1.5
M900 K30 ; Filament gcode LA 1.0
M107
;LAYER_CHANGE
;Z:0.2
;HEIGHT:0.2
G1 E-1.2 F2100
G1 Z.6 F720
; printing object frame2.stl id:0 copy 0
G1 X120.797 Y33.72 F10800
G1 Z.2 F720
G1 E1.2 F2100
M204 S800
;TYPE:Perimeter
;WIDTH:0.419999
G1 F1200
G1 X120.976 Y33.291 E.01457
G1 X121.306 Y32.775 E.0192
G1 X121.721 Y32.324 E.01922
G1 X122.208 Y31.951 E.01923
G1 X122.752 Y31.669 E.01921
G1 X123.336 Y31.486 E.01919
G1 X123.917 Y31.409 E.01838
G1 X124.533 Y31.433 E.01933
G1 X125.154 Y31.568 E.01993
G1 X125.72 Y31.803 E.01922
G1 X126.237 Y32.134 E.01925
G1 X126.688 Y32.548 E.0192
G1 X127.06 Y33.035 E.01921
G1 X127.342 Y33.579 E.01921
G1 X127.526 Y34.164 E.01923
G1 X127.605 Y34.772 E.01922
G1 X127.577 Y35.384 E.01921
G1 X127.443 Y35.982 E.01921
G1 X127.208 Y36.548 E.01922
G1 X126.878 Y37.064 E.0192
G1 X126.688 Y37.291 E.00928
G1 X126.317 Y37.645 E.01608
G1 X125.853 Y37.966 E.01769
G1 X125.297 Y38.226 E.01924
G1 X124.704 Y38.385 E.01925
G1 X124.092 Y38.439 E.01926
G1 X123.48 Y38.385 E.01926
G1 X122.887 Y38.226 E.01925
G1 X122.331 Y37.966 E.01924
G1 X121.867 Y37.645 E.01769
G1 X121.496 Y37.291 E.01608
G1 X121.124 Y36.804 E.01921
G1 X120.842 Y36.26 E.01921
G1 X120.658 Y35.675 E.01923
G1 X120.579 Y35.067 E.01922
G1 X120.607 Y34.455 E.01921
G1 X120.741 Y33.857 E.01921
G1 X120.774 Y33.776 E.00274
M204 S1000
G1 X120.774 Y33.776 F10800
G1 X121.15 Y33.849
M204 S800
G1 F1200
G1 X121.183 Y33.738 E.00363
G1 X121.433 Y33.251 E.01716
G1 X121.763 Y32.815 E.01714
G1 X122.164 Y32.442 E.01717
G1 X122.623 Y32.145 E.01714
G1 X123.127 Y31.932 E.01716
G1 X123.66 Y31.81 E.01714
G1 X124.162 Y31.783 E.01576
G1 X124.75 Y31.85 E.01856
G1 X125.273 Y32.011 E.01716
G1 X125.76 Y32.26 E.01715
G1 X126.197 Y32.59 E.01717
G1 X126.569 Y32.991 E.01715
G1 X126.866 Y33.451 E.01717
G1 X127.079 Y33.955 E.01716
G1 X127.201 Y34.488 E.01714
G1 X127.232 Y34.991 E.0158
G1 X127.176 Y35.518 E.01662
G1 X127.032 Y36.027 E.01659
G1 X126.795 Y36.521 E.01718
G1 X126.421 Y37.024 E.01965
G1 X126.02 Y37.396 E.01715
G1 X125.561 Y37.694 E.01716
G1 X125.057 Y37.907 E.01716
G1 X124.523 Y38.029 E.01717
G1 X123.977 Y38.057 E.01714
G1 X123.434 Y37.989 E.01716
G1 X122.911 Y37.828 E.01716
G1 X122.424 Y37.579 E.01715
G1 X121.987 Y37.249 E.01717
G1 X121.615 Y36.848 E.01715
G1 X121.318 Y36.388 E.01717
G1 X121.105 Y35.884 E.01716
G1 X120.983 Y35.351 E.01714
G1 X120.955 Y34.804 E.01717
G1 X121.023 Y34.261 E.01716
G1 X121.132 Y33.906 E.01164
M204 S1000
G1 X121.502 Y33.977 F10800
M204 S800
G1 F1200
G1 X121.525 Y33.898 E.00258
G1 X121.742 Y33.468 E.0151
G1 X122.029 Y33.082 E.01508
G1 X122.38 Y32.751 E.01513
G1 X122.782 Y32.487 E.01508
G1 X123.225 Y32.296 E.01513
G1 X123.693 Y32.186 E.01507
G1 X124.134 Y32.159 E.01385
G1 X124.652 Y32.214 E.01633
G1 X125.114 Y32.353 E.01513
G1 X125.544 Y32.569 E.01509
G1 X125.93 Y32.857 E.0151
G1 X126.26 Y33.207 E.01508
G1 X126.525 Y33.61 E.01512
G1 X126.715 Y34.052 E.01508
G1 X126.826 Y34.521 E.01511
G1 X126.853 Y35.002 E.01511
G1 X126.797 Y35.48 E.01509
G1 X126.659 Y35.941 E.01509
G1 X126.442 Y36.371 E.0151
G1 X126.155 Y36.757 E.01508
G1 X125.804 Y37.088 E.01513
G1 X125.402 Y37.352 E.01508
G1 X124.959 Y37.542 E.01511
G1 X124.491 Y37.653 E.01508
G1 X124.01 Y37.681 E.01511
G1 X123.532 Y37.625 E.01509
G1 X123.07 Y37.486 E.01513
G1 X122.64 Y37.27 E.01509
G1 X122.254 Y36.982 E.0151
G1 X121.924 Y36.632 E.01508
G1 X121.659 Y36.229 E.01512
G1 X121.469 Y35.787 E.01508
G1 X121.358 Y35.318 E.01511
G1 X121.331 Y34.837 E.01511
G1 X121.387 Y34.359 E.01509
G1 X121.484 Y34.034 E.01063
M204 S1000
G1 X121.484 Y34.034 F10800
G1 X121.853 Y34.105
M204 S800
G1 F1200
G1 X121.867 Y34.057 E.00157
G1 X122.05 Y33.684 E.01303
G1 X122.296 Y33.348 E.01306
G1 X122.596 Y33.06 E.01304
G1 X122.942 Y32.829 E.01304
G1 X123.322 Y32.661 E.01303
G1 X123.726 Y32.561 E.01305
G1 X124.107 Y32.535 E.01197
G1 X124.555 Y32.578 E.01411
G1 X124.954 Y32.694 E.01303
G1 X125.328 Y32.878 E.01307
G1 X125.663 Y33.124 E.01303
G1 X125.951 Y33.424 E.01304
G1 X126.183 Y33.769 E.01304
G1 X126.351 Y34.15 E.01306
G1 X126.45 Y34.554 E.01304
G1 X126.478 Y34.969 E.01304
G1 X126.433 Y35.382 E.01303
G1 X126.317 Y35.782 E.01306
G1 X126.133 Y36.155 E.01304
G1 X125.888 Y36.491 E.01304
G1 X125.588 Y36.779 E.01304
G1 X125.242 Y37.01 E.01304
G1 X124.862 Y37.178 E.01303
G1 X124.458 Y37.278 E.01305
G1 X124.043 Y37.305 E.01304
G1 X123.629 Y37.26 E.01306
G1 X123.23 Y37.144 E.01303
G1 X122.856 Y36.961 E.01306
G1 X122.521 Y36.715 E.01303
G1 X122.233 Y36.415 E.01304
G1 X122.001 Y36.07 E.01304
G1 X121.833 Y35.689 E.01306
G1 X121.734 Y35.285 E.01304
G1 X121.706 Y34.87 E.01304
G1 X121.751 Y34.457 E.01303
G1 X121.836 Y34.162 E.00963
M204 S1000
G1 X121.836 Y34.162 F10800
G1 X122.204 Y34.232
M204 S800
;TYPE:External perimeter
G1 F1200
G1 X122.209 Y34.217 E.0005
G1 X122.359 Y33.9 E.011
G1 X122.563 Y33.615 E.01099
G1 X122.812 Y33.369 E.01097
G1 X123.101 Y33.17 E.011
G1 X123.42 Y33.025 E.01099
G1 X123.759 Y32.937 E.01098
G1 X124.079 Y32.911 E.01007
G1 X124.457 Y32.943 E.01189
G1 X124.795 Y33.036 E.01099
G1 X125.111 Y33.187 E.01098
G1 X125.397 Y33.39 E.011
G1 X125.642 Y33.64 E.01098
G1 X125.841 Y33.929 E.011
G1 X125.986 Y34.247 E.01096
G1 X126.074 Y34.587 E.01101
G1 X126.102 Y34.936 E.01098
G1 X126.069 Y35.285 E.01099
G1 X125.975 Y35.622 E.01097
G1 X125.825 Y35.939 E.011
G1 X125.621 Y36.224 E.01099
G1 X125.371 Y36.47 E.011
G1 X125.083 Y36.668 E.01096
G1 X124.764 Y36.814 E.011
G1 X124.425 Y36.902 E.01098
G1 X124.076 Y36.93 E.01098
G1 X123.727 Y36.896 E.01099
G1 X123.389 Y36.803 E.01099
G1 X123.073 Y36.652 E.01098
G1 X122.787 Y36.449 E.011
G1 X122.542 Y36.199 E.01098
G1 X122.343 Y35.91 E.011
G1 X122.197 Y35.592 E.01097
G1 X122.11 Y35.252 E.011
G1 X122.082 Y34.903 E.01098
G1 X122.115 Y34.554 E.01099
G1 X122.188 Y34.29 E.00859
M204 S1000
;WIPE_START
G1 F8640
G1 X122.204 Y34.232 E-.01389
G1 X122.209 Y34.217 E-.00365
G1 X122.359 Y33.9 E-.08098
G1 X122.563 Y33.615 E-.08093
G1 X122.812 Y33.369 E-.08082
G1 X123.101 Y33.17 E-.08102
G1 X123.42 Y33.025 E-.08091
G1 X123.759 Y32.937 E-.08087
G1 X124.079 Y32.911 E-.07413
G1 X124.457 Y32.943 E-.08759
G1 X124.795 Y33.036 E-.08095
G1 X125.111 Y33.187 E-.08087
G1 X125.397 Y33.39 E-.08098
G1 X125.642 Y33.64 E-.08082
G1 X125.841 Y33.929 E-.08102
G1 X125.986 Y34.247 E-.0807
G1 X126.04 Y34.456 E-.04987
;WIPE_END
G1 Z.6 F720
G1 X216.778 Y37.173 F10800
G1 Z.2 F720
G1 E1.2 F2100
M204 S800
;TYPE:Perimeter
G1 F1200
G1 X216.463 Y37.515 E.01458
G1 X215.976 Y37.888 E.01923
G1 X215.432 Y38.17 E.01921
G1 X214.874 Y38.346 E.01835
G1 X214.263 Y38.43 E.01934
G1 X213.628 Y38.404 E.01993
G1 X213.03 Y38.271 E.01921
G1 X212.464 Y38.036 E.01922
G1 X211.947 Y37.705 E.01925
G1 X211.515 Y37.31 E.01835
G1 X211.137 Y36.823 E.01933
G1 X210.842 Y36.26 E.01993
G1 X210.658 Y35.675 E.01923
G1 X210.579 Y35.067 E.01922
G1 X210.607 Y34.455 E.01921
G1 X210.741 Y33.857 E.01921
G1 X210.976 Y33.291 E.01922
G1 X211.306 Y32.775 E.0192
G1 X211.721 Y32.324 E.01922
G1 X212.208 Y31.951 E.01923
G1 X212.752 Y31.669 E.01921
G1 X213.336 Y31.486 E.01919
G1 X213.917 Y31.409 E.01838
G1 X214.533 Y31.433 E.01933
G1 X215.154 Y31.568 E.01993
G1 X215.72 Y31.803 E.01922
G1 X216.237 Y32.134 E.01925
G1 X216.688 Y32.548 E.0192
G1 X216.821 Y32.698 E.00629
G1 X217.114 Y33.116 E.01601
G1 X217.342 Y33.579 E.01618
G1 X217.526 Y34.164 E.01923
G1 X217.605 Y34.772 E.01922
G1 X217.577 Y35.384 E.01921
G1 X217.443 Y35.982 E.01921
G1 X217.219 Y36.523 E.01836
G1 X216.878 Y37.064 E.02005
G1 X216.818 Y37.129 E.00277
M204 S1000
G1 X216.818 Y37.129 F10800
G1 X216.494 Y36.935
M204 S800
G1 F1200
G1 X216.197 Y37.249 E.01355
G1 X215.76 Y37.579 E.01717
G1 X215.273 Y37.828 E.01715
G1 X214.776 Y37.982 E.01631
G1 X214.225 Y38.055 E.01743
G1 X213.661 Y38.029 E.0177
G1 X213.127 Y37.907 E.01717
G1 X212.623 Y37.694 E.01716
G1 X212.164 Y37.396 E.01716
G1 X211.782 Y37.043 E.01631
G1 X211.443 Y36.602 E.01744
G1 X211.183 Y36.101 E.0177
G1 X211.023 Y35.577 E.01718
G1 X210.955 Y35.034 E.01716
G1 X210.983 Y34.488 E.01714
G1 X211.105 Y33.955 E.01714
G1 X211.318 Y33.451 E.01716
G1 X211.615 Y32.991 E.01717
G1 X211.987 Y32.59 E.01715
G1 X212.424 Y32.26 E.01717
G1 X212.911 Y32.011 E.01715
G1 X213.434 Y31.85 E.01716
G1 X213.95 Y31.785 E.01631
G1 X214.505 Y31.809 E.01742
G1 X215.057 Y31.932 E.01773
G1 X215.561 Y32.145 E.01716
G1 X216.02 Y32.442 E.01714
G1 X216.525 Y32.931 E.02204
G1 X216.831 Y33.381 E.01706
G1 X217.057 Y33.88 E.01718
G1 X217.187 Y34.375 E.01605
G1 X217.234 Y34.881 E.01593
G1 X217.192 Y35.428 E.0172
G1 X217.057 Y35.959 E.01718
G1 X216.842 Y36.437 E.01643
G1 X216.547 Y36.879 E.01666
G1 X216.535 Y36.891 E.00053
M204 S1000
G1 X216.535 Y36.891 F10800
G1 X216.204 Y36.691
M204 S800
G1 F1200
G1 X216.155 Y36.757 E.00258
G1 X215.804 Y37.088 E.01513
G1 X215.402 Y37.352 E.01508
G1 X214.959 Y37.542 E.01511
G1 X214.529 Y37.645 E.01386
G1 X214.01 Y37.681 E.01631
G1 X213.532 Y37.625 E.01509
G1 X213.07 Y37.486 E.01513
G1 X212.64 Y37.27 E.01509
G1 X212.254 Y36.982 E.0151
G1 X211.95 Y36.661 E.01386
G1 X211.66 Y36.229 E.01631
G1 X211.469 Y35.787 E.0151
G1 X211.358 Y35.318 E.01511
G1 X211.331 Y34.837 E.01511
G1 X211.387 Y34.359 E.01509
G1 X211.525 Y33.898 E.01509
G1 X211.742 Y33.468 E.0151
G1 X212.029 Y33.081 E.01511
G1 X212.38 Y32.751 E.01511
G1 X212.782 Y32.487 E.01508
G1 X213.225 Y32.296 E.01513
G1 X213.693 Y32.186 E.01507
G1 X214.134 Y32.159 E.01385
G1 X214.652 Y32.214 E.01633
G1 X215.114 Y32.353 E.01513
G1 X215.544 Y32.569 E.01509
G1 X215.93 Y32.857 E.0151
G1 X216.228 Y33.165 E.01344
G1 X216.524 Y33.61 E.01676
G1 X216.715 Y34.052 E.0151
G1 X216.826 Y34.521 E.01511
G1 X216.853 Y35.002 E.01511
G1 X216.797 Y35.48 E.01509
G1 X216.659 Y35.941 E.01509
G1 X216.442 Y36.371 E.0151
G1 X216.24 Y36.643 E.01062
M204 S1000
G1 X216.24 Y36.643 F10800
G1 X215.917 Y36.451
M204 S800
G1 F1200
G1 X215.888 Y36.491 E.00155
G1 X215.588 Y36.779 E.01304
G1 X215.242 Y37.01 E.01304
G1 X214.862 Y37.178 E.01303
G1 X214.491 Y37.27 E.01198
G1 X214.043 Y37.305 E.01409
G1 X213.629 Y37.26 E.01306
G1 X213.23 Y37.144 E.01303
G1 X212.856 Y36.961 E.01306
G1 X212.521 Y36.715 E.01303
G1 X212.256 Y36.441 E.01195
G1 X212.001 Y36.07 E.01412
G1 X211.833 Y35.689 E.01306
G1 X211.734 Y35.285 E.01304
G1 X211.706 Y34.87 E.01304
G1 X211.751 Y34.457 E.01303
G1 X211.867 Y34.057 E.01306
G1 X212.05 Y33.684 E.01303
G1 X212.296 Y33.348 E.01306
G1 X212.596 Y33.06 E.01304
G1 X212.942 Y32.829 E.01304
G1 X213.322 Y32.661 E.01303
G1 X213.726 Y32.561 E.01305
G1 X214.107 Y32.535 E.01197
G1 X214.555 Y32.578 E.01411
G1 X214.954 Y32.694 E.01303
G1 X215.328 Y32.878 E.01307
G1 X215.663 Y33.124 E.01303
G1 X215.932 Y33.398 E.01204
G1 X216.183 Y33.769 E.01404
G1 X216.351 Y34.15 E.01306
G1 X216.45 Y34.554 E.01304
G1 X216.478 Y34.969 E.01304
G1 X216.433 Y35.382 E.01303
G1 X216.317 Y35.782 E.01306
G1 X216.133 Y36.155 E.01304
G1 X215.953 Y36.402 E.00958
M204 S1000
G1 X215.953 Y36.402 F10800
G1 X215.631 Y36.211
M204 S800
;TYPE:External perimeter
G1 F1200
G1 X215.621 Y36.224 E.00051
G1 X215.371 Y36.47 E.011
G1 X215.083 Y36.668 E.01096
G1 X214.764 Y36.814 E.011
G1 X214.453 Y36.895 E.01008
G1 X214.076 Y36.93 E.01187
G1 X213.727 Y36.896 E.01099
G1 X213.389 Y36.803 E.01099
G1 X213.073 Y36.652 E.01098
G1 X212.787 Y36.449 E.011
G1 X212.562 Y36.22 E.01007
G1 X212.343 Y35.91 E.0119
G1 X212.197 Y35.592 E.01097
G1 X212.11 Y35.252 E.011
G1 X212.082 Y34.903 E.01098
G1 X212.115 Y34.554 E.01099
G1 X212.209 Y34.217 E.01097
G1 X212.359 Y33.9 E.011
G1 X212.563 Y33.615 E.01099
G1 X212.812 Y33.369 E.01097
G1 X213.101 Y33.17 E.011
G1 X213.42 Y33.025 E.01099
G1 X213.759 Y32.937 E.01098
G1 X214.079 Y32.911 E.01007
G1 X214.457 Y32.943 E.01189
G1 X214.795 Y33.036 E.01099
G1 X215.111 Y33.187 E.01098
G1 X215.397 Y33.39 E.011
G1 X215.636 Y33.631 E.01064
G1 X215.841 Y33.929 E.01134
G1 X215.986 Y34.247 E.01096
G1 X216.074 Y34.587 E.01101
G1 X216.102 Y34.936 E.01098
G1 X216.069 Y35.285 E.01099
G1 X215.975 Y35.622 E.01097
G1 X215.825 Y35.939 E.011
G1 X215.666 Y36.162 E.00859
M204 S1000
;WIPE_START
G1 F8640
G1 X215.631 Y36.211 E-.0139
G1 X215.621 Y36.224 E-.00379
G1 X215.371 Y36.47 E-.08099
G1 X215.083 Y36.668 E-.0807
G1 X214.764 Y36.814 E-.08101
G1 X214.453 Y36.895 E-.07421
G1 X214.076 Y36.93 E-.08742
G1 X213.727 Y36.896 E-.08097
G1 X213.389 Y36.803 E-.08095
G1 X213.073 Y36.652 E-.08087
G1 X212.787 Y36.449 E-.08098
G1 X212.562 Y36.22 E-.07413
G1 X212.343 Y35.91 E-.08764
G1 X212.197 Y35.592 E-.0808
G1 X212.11 Y35.252 E-.08104
G1 X212.082 Y34.903 E-.08084
G1 X212.102 Y34.689 E-.04976
;WIPE_END
G1 Z.6 F720
G1 X37.598 Y34.92 F10800
G1 Z.2 F720
G1 E1.2 F2100
M204 S800
;TYPE:Perimeter
G1 F1200
G1 X37.577 Y35.384 E.01456
G1 X37.443 Y35.982 E.01921
G1 X37.208 Y36.548 E.01922
G1 X36.878 Y37.064 E.0192
G1 X36.463 Y37.515 E.01922
G1 X35.976 Y37.888 E.01923
G1 X35.432 Y38.17 E.01921
G1 X34.848 Y38.353 E.01919
G1 X34.24 Y38.432 E.01922
G1 X33.628 Y38.404 E.01921
G1 X33.03 Y38.271 E.01921
G1 X32.464 Y38.035 E.01923
G1 X31.947 Y37.705 E.01923
G1 X31.515 Y37.31 E.01835
G1 X31.137 Y36.823 E.01933
G1 X30.842 Y36.26 E.01993
G1 X30.658 Y35.675 E.01923
G1 X30.579 Y35.067 E.01922
G1 X30.607 Y34.455 E.01921
G1 X30.741 Y33.857 E.01921
G1 X30.976 Y33.291 E.01922
G1 X31.306 Y32.775 E.0192
G1 X31.721 Y32.324 E.01922
G1 X32.208 Y31.951 E.01923
G1 X32.752 Y31.669 E.01921
G1 X33.336 Y31.486 E.01919
G1 X33.917 Y31.409 E.01838
G1 X34.533 Y31.433 E.01933
G1 X35.154 Y31.568 E.01993
G1 X35.72 Y31.803 E.01922
G1 X36.237 Y32.134 E.01925
G1 X36.688 Y32.548 E.0192
G1 X37.06 Y33.035 E.01921
G1 X37.342 Y33.579 E.01921
G1 X37.526 Y34.164 E.01923
G1 X37.605 Y34.772 E.01922
G1 X37.601 Y34.86 E.00276
M204 S1000
G1 X37.601 Y34.86 F10800
G1 X37.223 Y34.92
M204 S800
G1 F1200
G1 X37.201 Y35.351 E.01353
G1 X37.079 Y35.884 E.01714
G1 X36.866 Y36.388 E.01716
G1 X36.569 Y36.848 E.01717
G1 X36.197 Y37.249 E.01715
G1 X35.76 Y37.579 E.01717
G1 X35.273 Y37.828 E.01715
G1 X34.75 Y37.989 E.01716
G1 X34.207 Y38.057 E.01716
G1 X33.661 Y38.029 E.01714
G1 X33.127 Y37.907 E.01717
G1 X32.623 Y37.694 E.01716
G1 X32.164 Y37.397 E.01714
G1 X31.782 Y37.043 E.01633
G1 X31.443 Y36.602 E.01744
G1 X31.183 Y36.101 E.0177
G1 X31.023 Y35.577 E.01718
G1 X30.955 Y35.034 E.01716
G1 X30.983 Y34.488 E.01714
G1 X31.105 Y33.955 E.01714
G1 X31.318 Y33.451 E.01716
G1 X31.615 Y32.991 E.01717
G1 X31.987 Y32.59 E.01715
G1 X32.424 Y32.26 E.01717
G1 X32.911 Y32.011 E.01715
G1 X33.434 Y31.85 E.01716
G1 X33.95 Y31.785 E.01631
G1 X34.505 Y31.809 E.01742
G1 X35.057 Y31.932 E.01773
G1 X35.561 Y32.145 E.01716
G1 X36.02 Y32.442 E.01714
G1 X36.421 Y32.815 E.01717
G1 X36.751 Y33.251 E.01714
G1 X37.001 Y33.738 E.01716
G1 X37.161 Y34.261 E.01715
G1 X37.229 Y34.804 E.01716
G1 X37.226 Y34.86 E.00176
M204 S1000
