; generated by PrusaSlicer 2.8.0+win64 on 2025-01-10 at 12:48:54 UTC


;
;
; 

; external perimeters extrusion width = 0.60mm
; perimeters extrusion width = 0.50mm
; infill extrusion width = 0.50mm
; solid infill extrusion width = 0.50mm
; top infill extrusion width = 0.45mm
; first layer extrusion width = 0.42mm

; external perimeters extrusion width = 0.60mm
; perimeters extrusion width = 0.50mm
; infill extrusion width = 0.50mm
; solid infill extrusion width = 0.50mm
; top infill extrusion width = 0.45mm
; first layer extrusion width = 0.42mm

; external perimeters extrusion width = 0.60mm
; perimeters extrusion width = 0.50mm
; infill extrusion width = 0.50mm
; solid infill extrusion width = 0.50mm
; top infill extrusion width = 0.45mm
; first layer extrusion width = 0.42mm

; external perimeters extrusion width = 0.60mm
; perimeters extrusion width = 0.50mm
; infill extrusion width = 0.50mm
; solid infill extrusion width = 0.50mm
; top infill extrusion width = 0.45mm
; first layer extrusion width = 0.42mm

M73 P0 R24
M73 Q0 S24
M201 X1000 Y1000 Z200 E5000 ; sets maximum accelerations, mm/sec^2
M203 X200 Y200 Z12 E120 ; sets maximum feedrates, mm / sec
M204 S1250 T1250 ; sets acceleration (S) and retract acceleration (R), mm/sec^2
M205 X8.00 Y8.00 Z0.40 E4.50 ; sets the jerk limits, mm/sec
M205 S0 T0 ; sets the minimum extruding and travel feed rate, mm/sec

; printing object generic_screw_fastener.stl id:3 copy 0
; stop printing object generic_screw_fastener.stl id:3 copy 0
; printing object generic_screw_fastener.stl id:1 copy 0
; stop printing object generic_screw_fastener.stl id:1 copy 0
; printing object generic_screw_fastener.stl id:0 copy 0
; stop printing object generic_screw_fastener.stl id:0 copy 0
; printing object generic_screw_fastener.stl id:2 copy 0
; stop printing object generic_screw_fastener.stl id:2 copy 0

;TYPE:Custom
M862.3 P "MK3S" ; printer model check
M862.1 P0.4 ; nozzle diameter check
M115 U3.13.3 ; tell printer latest fw version
G90 ; use absolute coordinates
M83 ; extruder relative mode
M104 S200 ; set extruder temp
M140 S67 ; set bed temp
M190 S67 ; wait for bed temp
M109 S200 ; wait for extruder temp
G28 W ; home all without mesh bed level
G80 X185 Y15 W41.5 H10 ; mesh bed levelling

G1 Z0.2 F720
G1 Y-3 F1000 ; go outside print area
G92 E0
G1 X60 E9 F1000 ; intro line
G1 X100 E12.5 F1000 ; intro line

G92 E0
M221 S95

; Don't change E values below. Excessive value can damage the printer.

G21 ; set units to millimeters
G90 ; use absolute coordinates
M83 ; use relative distances for extrusion
M900 K0.05 ; Filament gcode LA 1.5
M900 K30 ; Filament gcode LA 1.0
M107
;LAYER_CHANGE
;Z:0.2
;HEIGHT:0.2
G1 E-1.2 F2100
G1 Z.6 F720
; printing object generic_screw_fastener.stl id:3 copy 0
G1 X221.411 Y18.446 F10800
G1 Z.2 F720
G1 E1.2 F2100
M204 S800
;TYPE:Perimeter
;WIDTH:0.419999
G1 F1200
G1 X221.574 Y18.446 E.00511
G1 X222.132 Y18.524 E.01767
G1 X222.694 Y18.734 E.01881
G1 X223.139 Y19.032 E.01679
G1 X223.512 Y19.416 E.01679
G1 X223.906 Y20.14 E.02584
G1 X224.046 Y20.723 E.0188
G1 X224.048 Y21.259 E.01681
G1 X223.939 Y21.783 E.01678
G1 X223.723 Y22.273 E.01679
G1 X223.409 Y22.707 E.0168
G1 X223.013 Y23.066 E.01676
G1 X222.791 Y23.205 E.00821
G1 X222.275 Y23.432 E.01768
;WIDTH:0.413888
G1 X221.685 Y23.531 E.01845
;WIDTH:0.412318
G1 X220.868 Y23.472 E.02516
;WIDTH:0.419999
G1 X220.306 Y23.266 E.01877
G1 X219.861 Y22.968 E.01679
G1 X219.488 Y22.584 E.01679
G1 X219.341 Y22.367 E.00822
G1 X219.094 Y21.86 E.01768
G1 X218.954 Y21.277 E.0188
G1 X218.952 Y20.741 E.01681
G1 X219.061 Y20.217 E.01678
G1 X219.277 Y19.727 E.01679
G1 X219.591 Y19.293 E.0168
G1 X219.987 Y18.934 E.01676
G1 X220.209 Y18.795 E.00821
G1 X220.724 Y18.565 E.01768
G1 X221.312 Y18.446 E.01881
G1 X221.351 Y18.446 E.00122
M204 S1000
G1 X221.351 Y18.446 F10800
G1 X221.423 Y18.817
M204 S800
G1 F1200
G1 X221.443 Y18.814 E.00063
G1 X222.08 Y18.898 E.02015
G1 X222.541 Y19.079 E.01553
G1 X223.005 Y19.416 E.01798
G1 X223.32 Y19.798 E.01552
G1 X223.567 Y20.305 E.01768
G1 X223.683 Y20.887 E.01861
G1 X223.655 Y21.363 E.01495
G1 X223.532 Y21.803 E.01432
G1 X223.321 Y22.208 E.01432
G1 X223.03 Y22.56 E.01432
G1 X222.637 Y22.861 E.01552
G1 X222.122 Y23.09 E.01767
G1 X221.557 Y23.186 E.01797
G1 X220.92 Y23.102 E.02015
G1 X220.459 Y22.921 E.01553
G1 X219.995 Y22.584 E.01798
G1 X219.68 Y22.202 E.01552
G1 X219.433 Y21.695 E.01768
G1 X219.325 Y21.211 E.01555
G1 X219.345 Y20.637 E.01801
G1 X219.468 Y20.197 E.01432
G1 X219.679 Y19.792 E.01432
G1 X219.97 Y19.44 E.01432
G1 X220.363 Y19.139 E.01552
G1 X220.878 Y18.91 E.01767
G1 X221.364 Y18.827 E.01546
M204 S1000
G1 X221.364 Y18.827 F10800
G1 X221.437 Y19.197
M204 S800
;TYPE:External perimeter
G1 F1200
G1 X221.469 Y19.193 E.00101
G1 X222.027 Y19.271 E.01767
G1 X222.422 Y19.443 E.01351
G1 X222.725 Y19.669 E.01185
G1 X222.981 Y19.964 E.01225
G1 X223.228 Y20.47 E.01765
G1 X223.306 Y20.893 E.01349
G1 X223.289 Y21.271 E.01186
G1 X223.193 Y21.637 E.01186
G1 X223.024 Y21.975 E.01185
G1 X222.788 Y22.271 E.01187
G1 X222.484 Y22.516 E.01224
G1 X221.969 Y22.746 E.01768
G1 X221.531 Y22.807 E.01387
G1 X220.973 Y22.729 E.01767
G1 X220.578 Y22.557 E.01351
G1 X220.275 Y22.331 E.01185
G1 X220.019 Y22.036 E.01225
G1 X219.772 Y21.53 E.01765
G1 X219.697 Y21.146 E.01227
G1 X219.711 Y20.729 E.01308
G1 X219.807 Y20.363 E.01186
G1 X219.976 Y20.025 E.01185
G1 X220.212 Y19.729 E.01187
G1 X220.516 Y19.484 E.01224
G1 X221.031 Y19.254 E.01768
G1 X221.377 Y19.206 E.01095
M204 S1000
;WIPE_START
G1 F8640
G1 X221.437 Y19.197 E-.01401
G1 X221.469 Y19.193 E-.00745
G1 X222.027 Y19.271 E-.1301
G1 X222.422 Y19.443 E-.09948
G1 X222.725 Y19.669 E-.08728
G1 X222.981 Y19.964 E-.09019
G1 X223.228 Y20.47 E-.13001
G1 X223.306 Y20.893 E-.09932
G1 X223.289 Y21.271 E-.08737
G1 X223.193 Y21.637 E-.08737
G1 X223.024 Y21.975 E-.08726
G1 X222.788 Y22.271 E-.08741
G1 X222.484 Y22.516 E-.09015
G1 X222.078 Y22.697 E-.1026
;WIPE_END
G1 Z.6 F720
G1 X221.384 Y17.689 F10800
G1 Z.2 F720
G1 E1.2 F2100
M204 S800
;TYPE:Perimeter
G1 F1200
G1 X220.872 Y17.746 E.01615
G1 X220.417 Y17.876 E.01484
G1 X219.902 Y18.106 E.01768
G1 X219.502 Y18.356 E.01479
G1 X218.996 Y18.829 E.02172
G1 X218.6 Y19.397 E.02171
G1 X218.418 Y19.791 E.01361
G1 X218.418 Y16.918 E.09008
G1 X224.582 Y16.918 E.19327
G1 X224.582 Y17.671 E.02361
G1 X224.582 Y19.804 E.06688
G1 X224.337 Y19.302 E.01751
G1 X224.073 Y18.911 E.01479
G1 X223.846 Y18.659 E.01063
G1 X223.308 Y18.223 E.02171
G1 X222.691 Y17.908 E.02172
G1 X222.237 Y17.777 E.01482
G1 X221.443 Y17.683 E.02507
M204 S1000
;WIPE_START
G1 F8640
G1 X221.384 Y17.689 E-.01369
G1 X220.872 Y17.746 E-.11895
G1 X220.417 Y17.876 E-.10926
G1 X219.902 Y18.106 E-.13024
G1 X219.502 Y18.356 E-.10892
G1 X218.996 Y18.829 E-.15993
G1 X218.6 Y19.397 E-.15988
G1 X218.418 Y19.791 E-.10021
G1 X218.418 Y18.497 E-.29892
;WIPE_END
G1 Z.6 F720
G1 X224.592 Y22.151 F10800
G1 Z.2 F720
G1 E1.2 F2100
M204 S800
;WIDTH:0.399524
G1 F1200
G1 X224.592 Y23.092 E.0279
G1 X224.053 Y23.092 E.01598
G1 X224.267 Y22.813 E.01043
G1 X224.565 Y22.205 E.02008
M204 S1000
;WIPE_START
G1 F8640
G1 X224.592 Y22.151 E-.01394
G1 X224.592 Y23.092 E-.21728
G1 X224.053 Y23.092 E-.12446
G1 X224.267 Y22.813 E-.08119
G1 X224.565 Y22.205 E-.15634
;WIPE_END
G1 E-.60679 F2100
G1 Z.6 F720
G1 X218.409 Y22.137 F10800
G1 Z.2 F720
G1 E1.2 F2100
M204 S800
;WIDTH:0.400648
G1 F1200
G1 X218.672 Y22.693 E.0183
G1 X218.942 Y23.091 E.01431
G1 X218.409 Y23.091 E.01585
G1 X218.409 Y22.197 E.02659
M204 S1000
;WIPE_START
G1 F8640
G1 X218.409 Y22.137 E-.01385
G1 X218.672 Y22.693 E-.14202
G1 X218.942 Y23.091 E-.11105
G1 X218.409 Y23.091 E-.12307
G1 X218.409 Y22.197 E-.20643
;WIPE_END
G1 E-.60358 F2100
G1 Z.6 F720
G1 X224.959 Y23.459 F10800
G1 Z.2 F720
G1 E1.2 F2100
M204 S800
;WIDTH:0.419999
G1 F1200
G1 X223.09 Y23.459 E.0586
G1 X223.515 Y23.138 E.0167
G1 X223.964 Y22.605 E.02185
G1 X224.21 Y22.133 E.01669
;WIDTH:0.452184
G1 X224.314 Y21.843 E.01048
;WIDTH:0.484369
G1 X224.418 Y21.553 E.01131
;WIDTH:0.498484
G1 X224.464 Y21.273 E.01075
;WIDTH:0.504176
G1 X224.459 Y20.65 E.0239
G1 X224.352 Y20.312 E.0136
;WIDTH:0.462088
G1 X224.245 Y19.974 E.01236
;WIDTH:0.419999
G1 X223.998 Y19.468 E.01765
G1 X223.793 Y19.163 E.01152
G1 X223.361 Y18.727 E.01924
G1 X222.848 Y18.39 E.01924
G1 X222.185 Y18.151 E.0221
G1 X221.443 Y18.06 E.02344
G1 X220.924 Y18.12 E.01638
G1 X220.571 Y18.221 E.01151
G1 X219.824 Y18.583 E.02603
G1 X219.485 Y18.862 E.01377
G1 X219.085 Y19.328 E.01926
G1 X218.79 Y19.867 E.01927
;WIDTH:0.45397
G1 X218.715 Y20.059 E.00705
;WIDTH:0.487941
G1 X218.639 Y20.251 E.00764
;WIDTH:0.521912
G1 X218.564 Y20.443 E.00821
G1 X218.536 Y20.727 E.01137
;WIDTH:0.504175
G1 X218.541 Y21.35 E.0239
G1 X218.648 Y21.688 E.0136
;WIDTH:0.462087
G1 X218.755 Y22.026 E.01236
;WIDTH:0.419999
G1 X219.056 Y22.632 E.02122
G1 X219.434 Y23.088 E.01857
G1 X219.895 Y23.459 E.01855
G1 X218.041 Y23.459 E.05813
G1 X218.041 Y22.754 E.0221
;WIDTH:0.43256
G1 X218.048 Y21.729 E.03321
;WIDTH:0.46256
G1 X218.063 Y21.393 E.01174
;WIDTH:0.492559
G1 X218.078 Y21.058 E.01254
;WIDTH:0.521912
G1 X218.092 Y20.385 E.02681
G1 X218.075 Y20.155 E.00919
;WIDTH:0.487941
G1 X218.058 Y19.924 E.00857
;WIDTH:0.45397
G1 X218.041 Y19.694 E.00788
;WIDTH:0.419999
G1 X218.041 Y16.541 E.09886
G1 X224.959 Y16.541 E.21691
G1 X224.959 Y17.671 E.03543
M73 Q1 S24
G1 X224.959 Y19.809 E.06704
;WIDTH:0.462088
G1 X224.938 Y20.21 E.014
;WIDTH:0.504176
G1 X224.917 Y20.61 E.01536
G1 X224.92 Y21.281 E.02574
;WIDTH:0.498484
G1 X224.939 Y21.618 E.01279
;WIDTH:0.459242
G1 X224.959 Y21.954 E.01165
;WIDTH:0.419999
G1 X224.959 Y23.399 E.04531
M204 S1000
G1 X224.959 Y23.399 F10800
M73 P1 R24
G1 X225.336 Y23.836
M204 S800
G1 F1200
G1 X222.046 Y23.848 E.10316
;WIDTH:0.396656
G1 X221.406 Y23.859 E.01883
;WIDTH:0.412318
G1 X220.843 Y23.84 E.0173
;WIDTH:0.419999
G1 X217.664 Y23.836 E.09968
G1 X217.664 Y16.164 E.24055
G1 X225.336 Y16.164 E.24055
G1 X225.336 Y17.671 E.04725
G1 X225.336 Y23.776 E.19142
M204 S1000
G1 X225.336 Y23.776 F10800
G1 X225.713 Y24.213
M204 S800
G1 F1200
G1 X217.287 Y24.213 E.26419
G1 X217.287 Y15.787 E.26419
G1 X225.713 Y15.787 E.26419
G1 X225.713 Y17.671 E.05907
G1 X225.713 Y24.153 E.20324
M204 S1000
G1 X226.09 Y24.59 F10800
M204 S800
;TYPE:External perimeter
G1 F1200
G1 X216.91 Y24.59 E.28783
G1 X216.91 Y15.41 E.28783
G1 X226.09 Y15.41 E.28783
G1 X226.09 Y17.671 E.07089
G1 X226.09 Y24.53 E.21506
M204 S1000
;WIPE_START
G1 F8640
G1 X226.09 Y24.59 E-.01385
G1 X220.953 Y24.59 E-1.18615
;WIPE_END
G1 Z.6 F720
G1 X223.636 Y17.088 F10800
G1 Z.2 F720
G1 E1.2 F2100
M204 S800
;TYPE:Solid infill
;WIDTH:0.426533
G1 F1200
G1 X224.242 Y17.694 E.02734
G1 X224.242 Y18.237 E.01732
G1 X223.263 Y17.258 E.04416
G1 X222.721 Y17.258 E.01729
G1 X223.277 Y17.814 E.02508
G1 X222.82 Y17.593 E.01619
G1 X222.391 Y17.47 E.01424
G1 X222.178 Y17.258 E.00959
G1 X221.636 Y17.258 E.01729
G1 X221.757 Y17.379 E.00546
G1 X221.443 Y17.342 E.01009
G1 X221.205 Y17.369 E.00764
G1 X221.093 Y17.258 E.00503
G1 X220.55 Y17.258 E.01732
G1 X220.723 Y17.43 E.00778
G1 X220.307 Y17.557 E.01387
G1 X220.008 Y17.258 E.01349
G1 X219.465 Y17.258 E.01732
G1 X219.93 Y17.722 E.02095
G1 X219.571 Y17.906 E.01287
G1 X218.923 Y17.258 E.02923
G1 X218.758 Y17.258 E.00526
G1 X218.758 Y17.635 E.01203
G1 X219.251 Y18.128 E.02224
G1 X218.96 Y18.38 E.01228
G1 X218.588 Y18.008 E.01678
M204 S1000
;WIPE_START
G1 F8640
G1 X218.96 Y18.38 E-.12148
G1 X219.251 Y18.128 E-.08889
G1 X218.758 Y17.635 E-.16099
G1 X218.758 Y17.258 E-.08705
G1 X218.923 Y17.258 E-.0381
G1 X219.571 Y17.906 E-.2116
G1 X219.93 Y17.722 E-.09315
G1 X219.465 Y17.258 E-.15168
G1 X220.008 Y17.258 E-.12538
G1 X220.307 Y17.557 E-.09764
G1 X220.406 Y17.527 E-.02404
;WIPE_END
G1 Z.6 F720
; stop printing object generic_screw_fastener.stl id:3 copy 0
; printing object generic_screw_fastener.stl id:2 copy 0
G1 X210.911 Y18.446 F10800
G1 Z.2 F720
G1 E1.2 F2100
M204 S800
;TYPE:Perimeter
;WIDTH:0.419999
G1 F1200
G1 X211.074 Y18.446 E.00511
G1 X211.632 Y18.524 E.01767
G1 X212.194 Y18.734 E.01881
G1 X212.639 Y19.032 E.01679
G1 X213.012 Y19.416 E.01679
G1 X213.406 Y20.14 E.02584
G1 X213.546 Y20.723 E.0188
G1 X213.548 Y21.259 E.01681
G1 X213.439 Y21.783 E.01678
G1 X213.223 Y22.273 E.01679
G1 X212.909 Y22.707 E.0168
G1 X212.513 Y23.066 E.01676
G1 X212.291 Y23.205 E.00821
G1 X211.775 Y23.432 E.01768
;WIDTH:0.413888
G1 X211.185 Y23.531 E.01845
;WIDTH:0.412318
G1 X210.368 Y23.472 E.02516
;WIDTH:0.419999
G1 X209.806 Y23.266 E.01877
G1 X209.361 Y22.968 E.01679
G1 X208.988 Y22.584 E.01679
G1 X208.841 Y22.367 E.00822
G1 X208.594 Y21.86 E.01768
G1 X208.454 Y21.277 E.0188
G1 X208.452 Y20.741 E.01681
G1 X208.561 Y20.217 E.01678
G1 X208.777 Y19.727 E.01679
G1 X209.091 Y19.293 E.0168
G1 X209.487 Y18.934 E.01676
G1 X209.709 Y18.795 E.00821
G1 X210.224 Y18.565 E.01768
G1 X210.812 Y18.446 E.01881
G1 X210.851 Y18.446 E.00122
M204 S1000
G1 X210.851 Y18.446 F10800
G1 X210.923 Y18.817
M204 S800
G1 F1200
G1 X210.943 Y18.814 E.00063
G1 X211.58 Y18.898 E.02015
G1 X212.041 Y19.079 E.01553
G1 X212.505 Y19.416 E.01798
G1 X212.82 Y19.798 E.01552
G1 X213.067 Y20.305 E.01768
G1 X213.183 Y20.887 E.01861
G1 X213.155 Y21.363 E.01495
G1 X213.032 Y21.803 E.01432
G1 X212.821 Y22.208 E.01432
G1 X212.53 Y22.56 E.01432
G1 X212.137 Y22.861 E.01552
G1 X211.622 Y23.09 E.01767
G1 X211.057 Y23.186 E.01797
G1 X210.42 Y23.102 E.02015
G1 X209.959 Y22.921 E.01553
G1 X209.495 Y22.584 E.01798
G1 X209.18 Y22.202 E.01552
G1 X208.933 Y21.695 E.01768
G1 X208.825 Y21.211 E.01555
G1 X208.845 Y20.637 E.01801
G1 X208.968 Y20.197 E.01432
G1 X209.179 Y19.792 E.01432
G1 X209.47 Y19.44 E.01432
G1 X209.863 Y19.139 E.01552
G1 X210.378 Y18.91 E.01767
G1 X210.864 Y18.827 E.01546
M204 S1000
G1 X210.864 Y18.827 F10800
G1 X210.937 Y19.197
M204 S800
;TYPE:External perimeter
G1 F1200
G1 X210.969 Y19.193 E.00101
G1 X211.527 Y19.271 E.01767
G1 X211.922 Y19.443 E.01351
G1 X212.225 Y19.669 E.01185
G1 X212.481 Y19.964 E.01225
G1 X212.728 Y20.47 E.01765
G1 X212.806 Y20.893 E.01349
G1 X212.789 Y21.271 E.01186
G1 X212.693 Y21.637 E.01186
G1 X212.524 Y21.975 E.01185
G1 X212.288 Y22.271 E.01187
G1 X211.984 Y22.516 E.01224
G1 X211.469 Y22.746 E.01768
G1 X211.031 Y22.807 E.01387
G1 X210.473 Y22.729 E.01767
G1 X210.078 Y22.557 E.01351
G1 X209.775 Y22.331 E.01185
G1 X209.519 Y22.036 E.01225
G1 X209.272 Y21.53 E.01765
G1 X209.197 Y21.146 E.01227
G1 X209.211 Y20.729 E.01308
G1 X209.307 Y20.363 E.01186
G1 X209.476 Y20.025 E.01185
G1 X209.712 Y19.729 E.01187
G1 X210.016 Y19.484 E.01224
G1 X210.531 Y19.254 E.01768
G1 X210.877 Y19.206 E.01095
M204 S1000
;WIPE_START
G1 F8640
G1 X210.937 Y19.197 E-.01401
G1 X210.969 Y19.193 E-.00745
G1 X211.527 Y19.271 E-.1301
G1 X211.922 Y19.443 E-.09948
G1 X212.225 Y19.669 E-.08728
G1 X212.481 Y19.964 E-.09019
G1 X212.728 Y20.47 E-.13001
G1 X212.806 Y20.893 E-.09932
G1 X212.789 Y21.271 E-.08737
G1 X212.693 Y21.637 E-.08737
G1 X212.524 Y21.975 E-.08726
G1 X212.288 Y22.271 E-.08741
G1 X211.984 Y22.516 E-.09015
G1 X211.578 Y22.697 E-.1026
;WIPE_END
G1 Z.6 F720
G1 X210.884 Y17.689 F10800
G1 Z.2 F720
G1 E1.2 F2100
M204 S800
;TYPE:Perimeter
G1 F1200
G1 X210.372 Y17.746 E.01615
G1 X209.917 Y17.876 E.01484
G1 X209.402 Y18.106 E.01768
G1 X209.002 Y18.356 E.01479
G1 X208.496 Y18.829 E.02172
G1 X208.1 Y19.397 E.02171
G1 X207.918 Y19.791 E.01361
G1 X207.918 Y16.918 E.09008
G1 X214.082 Y16.918 E.19327
G1 X214.082 Y17.671 E.02361
G1 X214.082 Y19.804 E.06688
G1 X213.837 Y19.302 E.01751
G1 X213.573 Y18.911 E.01479
G1 X213.346 Y18.659 E.01063
G1 X212.808 Y18.223 E.02171
G1 X212.191 Y17.908 E.02172
G1 X211.737 Y17.777 E.01482
G1 X210.943 Y17.683 E.02507
M204 S1000
;WIPE_START
G1 F8640
G1 X210.884 Y17.689 E-.01369
G1 X210.372 Y17.746 E-.11895
G1 X209.917 Y17.876 E-.10926
G1 X209.402 Y18.106 E-.13024
G1 X209.002 Y18.356 E-.10892
G1 X208.496 Y18.829 E-.15993
G1 X208.1 Y19.397 E-.15988
G1 X207.918 Y19.791 E-.10021
G1 X207.918 Y18.497 E-.29892
;WIPE_END
G1 Z.6 F720
G1 X214.092 Y22.151 F10800
G1 Z.2 F720
G1 E1.2 F2100
M204 S800
;WIDTH:0.399524
G1 F1200
G1 X214.092 Y23.092 E.0279
G1 X213.553 Y23.092 E.01598
G1 X213.767 Y22.813 E.01043
G1 X214.065 Y22.205 E.02008
