; generated by PrusaSlicer 2.8.0+win64 on 2025-01-10 at 12:47:48 UTC


;
;
; 

; external perimeters extrusion width = 0.60mm
; perimeters extrusion width = 0.50mm
; infill extrusion width = 0.50mm
; solid infill extrusion width = 0.50mm
; top infill extrusion width = 0.45mm
; first layer extrusion width = 0.42mm

M73 P0 R68
M73 Q0 S69
M201 X1000 Y1000 Z200 E5000 ; sets maximum accelerations, mm/sec^2
M203 X200 Y200 Z12 E120 ; sets maximum feedrates, mm / sec
M204 S1250 T1250 ; sets acceleration (S) and retract acceleration (R), mm/sec^2
M205 X8.00 Y8.00 Z0.40 E4.50 ; sets the jerk limits, mm/sec
M205 S0 T0 ; sets the minimum extruding and travel feed rate, mm/sec

; printing object pcb_base.stl id:0 copy 0
; stop printing object pcb_base.stl id:0 copy 0

;TYPE:Custom
M862.3 P "MK3S" ; printer model check
M862.1 P0.4 ; nozzle diameter check
M115 U3.13.3 ; tell printer latest fw version
G90 ; use absolute coordinates
M83 ; extruder relative mode
M104 S200 ; set extruder temp
M140 S67 ; set bed temp
M190 S67 ; wait for bed temp
M109 S200 ; wait for extruder temp
G28 W ; home all without mesh bed level
G80 X113.47 Y10.8143 W118.5 H62.7 ; mesh bed levelling

G1 Z0.2 F720
G1 Y-3 F1000 ; go outside print area
G92 E0
G1 X60 E9 F1000 ; intro line
G1 X100 E12.5 F1000 ; intro line

G92 E0
M221 S95

; Don't change E values below. Excessive value can damage the printer.

G21 ; set units to millimeters
G90 ; use absolute coordinates
M83 ; use relative distances for extrusion
M900 K0.05 ; Filament gcode LA 1.5
M900 K30 ; Filament gcode LA 1.0
M107
;LAYER_CHANGE
;Z:0.2
;HEIGHT:0.2
G1 E-1.2 F2100
G1 Z.6 F720
; printing object pcb_base.stl id:0 copy 0
G1 X150.72 Y22.814 F10800
G1 Z.2 F720
G1 E1.2 F2100
M204 S800
;TYPE:Perimeter
;WIDTH:0.419999
G1 F1200
G1 X150.726 Y22.455 E.01126
G1 X150.82 Y22.048 E.0131
G1 X151.082 Y21.413 E.02154
G1 X151.387 Y21.014 E.01575
G1 X151.718 Y20.671 E.01495
G1 X152.255 Y20.337 E.01983
G1 X152.606 Y20.184 E.01201
G1 X153.14 Y20.075 E.01709
G1 X153.445 Y20.047 E.0096
G1 X154.104 Y20.131 E.02083
G1 X154.505 Y20.247 E.01309
G1 X155.008 Y20.523 E.01799
G1 X155.33 Y20.764 E.01261
G1 X155.699 Y21.187 E.0176
G1 X155.921 Y21.529 E.01278
G1 X156.121 Y22.048 E.01744
G1 X156.218 Y22.496 E.01437
G1 X156.223 Y23.001 E.01583
G1 X156.147 Y23.503 E.01592
G1 X155.968 Y23.997 E.01647
G1 X155.725 Y24.409 E.015
G1 X155.403 Y24.791 E.01566
G1 X155.04 Y25.086 E.01467
G1 X154.564 Y25.355 E.01714
G1 X154.132 Y25.493 E.01422
G1 X153.586 Y25.579 E.01733
G1 X153.176 Y25.558 E.01287
G1 X152.638 Y25.454 E.01718
G1 X152.255 Y25.291 E.01305
G1 X151.763 Y24.994 E.01802
G1 X151.481 Y24.726 E.0122
G1 X151.126 Y24.286 E.01773
G1 X150.947 Y23.931 E.01247
G1 X150.78 Y23.458 E.01573
G1 X150.717 Y23.001 E.01446
G1 X150.719 Y22.874 E.00398
M204 S1000
G1 X150.719 Y22.874 F10800
G1 X151.097 Y22.814
M204 S800
G1 F1200
G1 X151.101 Y22.493 E.01007
G1 X151.174 Y22.177 E.01017
G1 X151.406 Y21.605 E.01935
G1 X151.77 Y21.145 E.01839
G1 X152.047 Y20.896 E.01168
G1 X152.491 Y20.638 E.0161
G1 X152.866 Y20.508 E.01244
G1 X153.43 Y20.425 E.01787
G1 X154.045 Y20.503 E.01944
G1 X154.356 Y20.593 E.01015
G1 X154.819 Y20.85 E.0166
G1 X155.171 Y21.145 E.0144
G1 X155.507 Y21.562 E.01679
G1 X155.766 Y22.177 E.02092
G1 X155.842 Y22.525 E.01117
G1 X155.843 Y23.091 E.01775
G1 X155.766 Y23.452 E.01157
G1 X155.578 Y23.944 E.01651
G1 X155.171 Y24.484 E.0212
G1 X154.844 Y24.764 E.0135
G1 X154.403 Y25.014 E.01589
G1 X154.066 Y25.122 E.0111
G1 X153.561 Y25.203 E.01604
G1 X153.241 Y25.186 E.01005
G1 X152.742 Y25.091 E.01593
G1 X152.444 Y24.965 E.01014
G1 X151.989 Y24.692 E.01664
G1 X151.531 Y24.199 E.0211
G1 X151.315 Y23.839 E.01316
G1 X151.143 Y23.356 E.01608
G1 X151.094 Y23.001 E.01124
G1 X151.096 Y22.874 E.00398
M204 S1000
G1 X151.096 Y22.874 F10800
G1 X151.477 Y22.814
M204 S800
G1 F1200
G1 X151.472 Y22.653 E.00505
G1 X151.528 Y22.306 E.01102
G1 X151.731 Y21.797 E.01718
G1 X152.059 Y21.387 E.01646
G1 X152.31 Y21.176 E.01028
G1 X152.827 Y20.905 E.0183
G1 X153.434 Y20.802 E.0193
G1 X153.985 Y20.876 E.01743
G1 X154.308 Y20.99 E.01074
G1 X154.81 Y21.31 E.01867
G1 X155.191 Y21.766 E.01863
G1 X155.412 Y22.306 E.01829
G1 X155.469 Y22.628 E.01025
G1 X155.451 Y23.181 E.01735
G1 X155.285 Y23.673 E.01628
G1 X155.121 Y23.956 E.01026
G1 X154.789 Y24.337 E.01585
G1 X154.308 Y24.638 E.01779
G1 X154.001 Y24.75 E.01025
G1 X153.506 Y24.829 E.01572
G1 X152.94 Y24.75 E.01792
G1 X152.632 Y24.638 E.01028
G1 X152.19 Y24.37 E.01621
G1 X151.819 Y23.956 E.01743
G1 X151.656 Y23.673 E.01024
G1 X151.49 Y23.186 E.01613
G1 X151.479 Y22.874 E.00979
M204 S1000
G1 X151.479 Y22.874 F10800
G1 X151.855 Y22.814
M204 S800
G1 F1200
G1 X151.867 Y22.485 E.01032
G1 X151.883 Y22.435 E.00165
G1 X152.055 Y21.99 E.01496
G1 X152.389 Y21.585 E.01646
G1 X152.821 Y21.317 E.01594
G1 X153.343 Y21.188 E.01686
G1 X153.926 Y21.248 E.01838
G1 X154.12 Y21.317 E.00646
G1 X154.55 Y21.583 E.01585
G1 X154.874 Y21.971 E.01585
G1 X155.074 Y22.487 E.01735
G1 X155.092 Y23.001 E.01613
G1 X155.058 Y23.194 E.00614
G1 X154.867 Y23.667 E.01599
G1 X154.543 Y24.052 E.01578
G1 X154.107 Y24.319 E.01603
G1 X153.568 Y24.444 E.01735
G1 X153.372 Y24.444 E.00615
G1 X152.874 Y24.339 E.01596
G1 X152.426 Y24.076 E.01629
G1 X152.088 Y23.688 E.01613
G1 X151.883 Y23.194 E.01677
G1 X151.849 Y23.001 E.00614
G1 X151.853 Y22.874 E.00398
M204 S1000
G1 X151.853 Y22.874 F10800
G1 X152.231 Y22.814
M204 S800
;TYPE:External perimeter
G1 F1200
G1 X152.237 Y22.564 E.00784
G1 X152.397 Y22.157 E.01371
G1 X152.687 Y21.83 E.0137
G1 X153.07 Y21.621 E.01368
G1 X153.475 Y21.558 E.01285
G1 X153.931 Y21.643 E.01454
G1 X154.304 Y21.872 E.01372
G1 X154.576 Y22.214 E.0137
G1 X154.715 Y22.628 E.01369
G1 X154.703 Y23.065 E.01371
G1 X154.543 Y23.472 E.01371
G1 X154.254 Y23.799 E.01368
G1 X153.87 Y24.008 E.01371
G1 X153.437 Y24.072 E.01372
G1 X153.009 Y23.985 E.01369
G1 X152.637 Y23.757 E.01368
G1 X152.364 Y23.415 E.01372
G1 X152.226 Y23.001 E.01368
G1 X152.229 Y22.874 E.00398
M204 S1000
;WIPE_START
G1 F8640
G1 X152.231 Y22.814 E-.01386
G1 X152.237 Y22.564 E-.05774
G1 X152.397 Y22.157 E-.10098
G1 X152.687 Y21.83 E-.10092
G1 X153.07 Y21.621 E-.10075
G1 X153.475 Y21.558 E-.09464
G1 X153.931 Y21.643 E-.10711
G1 X154.304 Y21.872 E-.10106
G1 X154.576 Y22.214 E-.1009
G1 X154.715 Y22.628 E-.10084
G1 X154.703 Y23.065 E-.10094
G1 X154.543 Y23.472 E-.10098
G1 X154.254 Y23.799 E-.10077
G1 X154.184 Y23.837 E-.01851
;WIPE_END
G1 Z.6 F720
G1 X145.799 Y13.992 F10800
G1 Z.2 F720
G1 E1.2 F2100
M204 S800
G1 F1200
G1 X145.77 Y14.008 E.00104
G1 X145.337 Y14.072 E.01372
G1 X144.909 Y13.985 E.01369
G1 X144.582 Y13.796 E.01184
G1 X144.264 Y13.415 E.01556
G1 X144.126 Y13 E.01371
G1 X144.137 Y12.563 E.01371
G1 X144.299 Y12.156 E.01373
G1 X144.591 Y11.832 E.01368
;WIDTH:0.440056
G1 X144.98 Y11.616 E.01469
G1 X145.445 Y11.586 E.01539
;WIDTH:0.430314
G1 X145.844 Y11.652 E.01303
G1 X146.2 Y11.873 E.0135
;WIDTH:0.419999
G1 X146.475 Y12.214 E.01374
G1 X146.615 Y12.628 E.0137
G1 X146.603 Y13.065 E.01371
G1 X146.443 Y13.472 E.01371
G1 X146.154 Y13.799 E.01368
G1 X145.852 Y13.963 E.01078
M204 S1000
;WIPE_START
G1 F8640
G1 X145.799 Y13.992 E-.01395
G1 X145.77 Y14.008 E-.00765
G1 X145.337 Y14.072 E-.10107
G1 X144.909 Y13.985 E-.10085
G1 X144.582 Y13.796 E-.08721
G1 X144.264 Y13.415 E-.11459
G1 X144.126 Y13 E-.10098
G1 X144.137 Y12.563 E-.10094
G1 X144.299 Y12.156 E-.10115
G1 X144.591 Y11.832 E-.10071
G1 X144.98 Y11.616 E-.10274
G1 X145.445 Y11.586 E-.10759
G1 X145.844 Y11.652 E-.09338
G1 X146.091 Y11.806 E-.06719
;WIPE_END
G1 Z.6 F720
G1 X126.975 Y14.097 F10800
G1 Z.2 F720
G1 E1.2 F2100
M204 S800
;TYPE:Perimeter
G1 F1200
G1 X126.958 Y14.194 E.00309
G1 X126.764 Y14.672 E.01617
G1 X126.42 Y15.071 E.01652
G1 X125.974 Y15.336 E.01627
G1 X125.468 Y15.444 E.01622
G1 X125.272 Y15.444 E.00615
G1 X124.768 Y15.336 E.01616
G1 X124.323 Y15.074 E.01619
G1 X123.987 Y14.686 E.01609
G1 X123.912 Y14.548 E.00492
G1 X123.753 Y14.073 E.01571
G1 X123.749 Y13.628 E.01395
G1 X123.91 Y13.085 E.01776
G1 X124.248 Y12.629 E.0178
G1 X124.721 Y12.317 E.01777
;WIDTH:0.45497
G1 X124.892 Y12.257 E.00621
;WIDTH:0.489941
G1 X125.063 Y12.196 E.00675
;WIDTH:0.524912
G1 X125.234 Y12.136 E.00726
;WIDTH:0.556903
G1 X125.837 Y12.181 E.02584
G1 X126.005 Y12.288 E.00851
;WIDTH:0.511269
G1 X126.174 Y12.396 E.00781
;WIDTH:0.465634
G1 X126.342 Y12.503 E.007
;WIDTH:0.419999
G1 X126.715 Y12.891 E.01688
G1 X126.955 Y13.426 E.01839
G1 X126.992 Y14.001 E.01807
G1 X126.985 Y14.038 E.00118
M204 S1000
G1 X126.985 Y14.038 F10800
G1 X126.604 Y14.031
M204 S800
;TYPE:External perimeter
G1 F1200
G1 X126.603 Y14.065 E.00107
G1 X126.443 Y14.472 E.01371
G1 X126.154 Y14.799 E.01368
G1 X125.77 Y15.008 E.01371
G1 X125.337 Y15.072 E.01372
G1 X124.907 Y14.984 E.01376
G1 X124.537 Y14.757 E.01361
G1 X124.265 Y14.416 E.01368
G1 X124.126 Y14 E.01375
G1 X124.137 Y13.564 E.01367
G1 X124.297 Y13.157 E.01371
G1 X124.587 Y12.83 E.0137
G1 X124.97 Y12.621 E.01368
G1 X125.375 Y12.558 E.01285
G1 X125.831 Y12.643 E.01454
G1 X126.203 Y12.871 E.01368
G1 X126.461 Y13.19 E.01286
G1 X126.615 Y13.628 E.01456
G1 X126.606 Y13.971 E.01076
M204 S1000
;WIPE_START
G1 F8640
G1 X126.604 Y14.031 E-.01386
G1 X126.603 Y14.065 E-.00785
G1 X126.443 Y14.472 E-.10098
G1 X126.154 Y14.799 E-.10077
G1 X125.77 Y15.008 E-.10095
G1 X125.337 Y15.072 E-.10107
G1 X124.907 Y14.984 E-.10135
G1 X124.537 Y14.757 E-.10023
G1 X124.265 Y14.416 E-.10072
G1 X124.126 Y14 E-.10128
G1 X124.137 Y13.564 E-.10071
G1 X124.297 Y13.157 E-.10098
G1 X124.587 Y12.83 E-.10092
G1 X124.846 Y12.688 E-.06833
;WIPE_END
G1 Z.6 F720
G1 X119.032 Y15.623 F10800
G1 Z.2 F720
G1 E1.2 F2100
M204 S800
;TYPE:Perimeter
G1 F1200
G1 X119.061 Y15.664 E.00157
G1 X119.229 Y16.045 E.01306
G1 X119.328 Y16.449 E.01304
G1 X119.356 Y16.864 E.01304
G1 X119.311 Y17.277 E.01303
G1 X119.195 Y17.677 E.01306
G1 X119.012 Y18.05 E.01303
G1 X118.766 Y18.386 E.01306
G1 X118.466 Y18.674 E.01304
G1 X118.12 Y18.905 E.01304
G1 X117.74 Y19.073 E.01303
G1 X117.336 Y19.172 E.01304
G1 X116.921 Y19.2 E.01304
G1 X116.507 Y19.155 E.01306
G1 X116.108 Y19.039 E.01303
G1 X115.735 Y18.856 E.01303
G1 X115.399 Y18.61 E.01306
G1 X115.111 Y18.31 E.01304
G1 X114.879 Y17.964 E.01306
G1 X114.712 Y17.584 E.01301
;WIDTH:0.419784
G1 X114.617 Y17.18 E.01301
;WIDTH:0.409212
G1 X114.617 Y16.449 E.02226
;WIDTH:0.419999
G1 X114.745 Y15.952 E.01609
G1 X114.929 Y15.579 E.01304
G1 X115.174 Y15.243 E.01304
G1 X115.474 Y14.955 E.01304
G1 X115.82 Y14.724 E.01304
G1 X116.2 Y14.556 E.01303
G1 X116.604 Y14.456 E.01305
G1 X116.988 Y14.43 E.01207
G1 X117.433 Y14.473 E.01402
G1 X117.832 Y14.589 E.01303
G1 X118.206 Y14.773 E.01307
G1 X118.542 Y15.018 E.01304
G1 X118.766 Y15.243 E.00995
G1 X118.998 Y15.574 E.01267
M204 S1000
G1 X118.998 Y15.574 F10800
G1 X118.71 Y15.81
M204 S800
;TYPE:External perimeter
G1 F1200
G1 X118.719 Y15.823 E.0005
G1 X118.865 Y16.142 E.011
G1 X118.97 Y16.678 E.01713
G1 X118.947 Y17.18 E.01576
G1 X118.854 Y17.517 E.01096
G1 X118.703 Y17.834 E.01101
G1 X118.499 Y18.119 E.01099
G1 X118.25 Y18.365 E.01097
G1 X117.961 Y18.563 E.01098
G1 X117.642 Y18.709 E.011
G1 X117.303 Y18.797 E.01098
G1 X116.954 Y18.824 E.01098
G1 X116.605 Y18.791 E.01099
G1 X116.267 Y18.698 E.01099
G1 X115.951 Y18.547 E.01098
G1 X115.666 Y18.344 E.01097
G1 X115.42 Y18.094 E.011
G1 X115.221 Y17.805 E.011
G1 X115.076 Y17.486 E.01099
G1 X114.988 Y17.147 E.01098
G1 X114.96 Y16.798 E.01098
G1 X114.993 Y16.449 E.01099
G1 X115.087 Y16.111 E.011
G1 X115.238 Y15.795 E.01098
G1 X115.441 Y15.51 E.01097
G1 X115.691 Y15.264 E.011
G1 X115.979 Y15.065 E.01098
G1 X116.298 Y14.92 E.01099
G1 X116.637 Y14.832 E.01098
G1 X116.96 Y14.806 E.01016
G1 X117.335 Y14.838 E.0118
G1 X117.673 Y14.931 E.01099
G1 X117.99 Y15.082 E.01101
G1 X118.275 Y15.285 E.01097
G1 X118.499 Y15.51 E.00995
G1 X118.675 Y15.761 E.00961
M204 S1000
;WIPE_START
G1 F8640
G1 X118.71 Y15.81 E-.0139
G1 X118.719 Y15.823 E-.00365
G1 X118.865 Y16.142 E-.08101
G1 X118.97 Y16.678 E-.12612
G1 X118.947 Y17.18 E-.11603
G1 X118.854 Y17.517 E-.08072
G1 X118.703 Y17.834 E-.08108
G1 X118.499 Y18.119 E-.08093
G1 X118.25 Y18.365 E-.08082
G1 X117.961 Y18.563 E-.08089
G1 X117.642 Y18.709 E-.08101
G1 X117.303 Y18.797 E-.08087
G1 X116.954 Y18.824 E-.08083
G1 X116.605 Y18.791 E-.08094
G1 X116.267 Y18.698 E-.08095
G1 X116.071 Y18.604 E-.05025
;WIPE_END
G1 Z.6 F720
G1 X127.746 Y41.932 F10800
G1 Z.2 F720
G1 E1.2 F2100
M204 S800
;TYPE:Perimeter
G1 F1200
G1 X127.935 Y42.039 E.00681
G1 X128.3 Y42.335 E.01473
G1 X128.654 Y42.756 E.01725
G1 X128.869 Y43.151 E.0141
G1 X129.055 Y43.653 E.01679
G1 X129.123 Y44.128 E.01505
G1 X129.111 Y44.703 E.01803
G1 X129.021 Y45.081 E.01218
G1 X128.844 Y45.553 E.01581
G1 X128.599 Y45.941 E.01439
G1 X128.267 Y46.328 E.01599
G1 X127.908 Y46.605 E.01422
G1 X127.43 Y46.871 E.01715
G1 X127.032 Y46.993 E.01305
G1 X126.528 Y47.076 E.01602
G1 X126.076 Y47.058 E.01418
G1 X125.544 Y46.956 E.01698
G1 X125.155 Y46.791 E.01325
G1 X124.656 Y46.488 E.0183
G1 X124.381 Y46.226 E.01191
G1 X124.027 Y45.788 E.01766
G1 X123.847 Y45.431 E.01254
G1 X123.664 Y44.894 E.01779
G1 X123.617 Y44.5 E.01244
G1 X123.629 Y43.929 E.01791
G1 X123.72 Y43.548 E.01228
G1 X123.928 Y43.011 E.01806
G1 X124.142 Y42.687 E.01217
G1 X124.524 Y42.251 E.01818
G1 X124.833 Y42.023 E.01204
G1 X125.296 Y41.764 E.01663
G1 X125.698 Y41.638 E.01321
G1 X126.26 Y41.549 E.01784
G1 X127.004 Y41.631 E.02347
G1 X127.48 Y41.781 E.01565
G1 X127.693 Y41.902 E.00768
M204 S1000
G1 X127.693 Y41.902 F10800
G1 X127.557 Y42.258
M204 S800
G1 F1200
G1 X127.789 Y42.393 E.00842
G1 X128.065 Y42.638 E.01157
G1 X128.393 Y43.042 E.01632
G1 X128.659 Y43.656 E.02098
G1 X128.742 Y44.031 E.01204
G1 X128.743 Y44.586 E.0174
G1 X128.666 Y44.952 E.01173
G1 X128.484 Y45.431 E.01607
G1 X128.31 Y45.699 E.01002
G1 X127.955 Y46.105 E.01691
G1 X127.397 Y46.465 E.02082
G1 X126.978 Y46.62 E.01401
G1 X126.392 Y46.706 E.01857
G1 X125.774 Y46.622 E.01956
G1 X125.344 Y46.465 E.01435
G1 X124.884 Y46.188 E.01684
G1 X124.431 Y45.699 E.0209
G1 X124.201 Y45.302 E.01439
G1 X124.03 Y44.807 E.01642
G1 X123.994 Y44.5 E.00969
G1 X124.004 Y43.974 E.0165
G1 X124.201 Y43.327 E.02121
G1 X124.431 Y42.93 E.01439
G1 X124.781 Y42.527 E.01674
G1 X125.344 Y42.164 E.021
G1 X125.766 Y42.008 E.01411
G1 X126.279 Y41.926 E.01629
G1 X126.945 Y42.003 E.02102
G1 X127.342 Y42.134 E.01311
G1 X127.505 Y42.228 E.0059
M204 S1000
G1 X127.505 Y42.228 F10800
G1 X127.366 Y42.589
M204 S800
G1 F1200
G1 X127.528 Y42.675 E.00575
G1 X127.778 Y42.882 E.01018
G1 X128.108 Y43.298 E.01665
G1 X128.307 Y43.791 E.01667
G1 X128.369 Y44.128 E.01074
G1 X128.36 Y44.631 E.01577
G1 X128.185 Y45.173 E.01786
G1 X128.021 Y45.456 E.01026
G1 X127.637 Y45.881 E.01796
G1 X127.208 Y46.138 E.01568
G1 X126.901 Y46.25 E.01025
G1 X126.386 Y46.329 E.01634
G1 X125.84 Y46.25 E.0173
G1 X125.532 Y46.138 E.01028
G1 X125.033 Y45.82 E.01855
G1 X124.656 Y45.371 E.01838
G1 X124.428 Y44.823 E.01861
G1 X124.372 Y44.5 E.01028
G1 X124.386 Y43.965 E.01678
G1 X124.556 Y43.456 E.01683
G1 X124.719 Y43.172 E.01027
G1 X125.123 Y42.733 E.01871
G1 X125.61 Y42.45 E.01766
G1 X126.176 Y42.317 E.01823
G1 X126.494 Y42.313 E.00997
G1 X127.028 Y42.41 E.01702
G1 X127.313 Y42.561 E.01011
M204 S1000
G1 X127.313 Y42.561 F10800
G1 X127.178 Y42.916
M204 S800
G1 F1200
G1 X127.34 Y43.002 E.00575
G1 X127.49 Y43.127 E.00612
G1 X127.813 Y43.555 E.01681
G1 X127.986 Y44.046 E.01632
G1 X127.988 Y44.568 E.01637
G1 X127.83 Y45.044 E.01573
G1 X127.732 Y45.214 E.00615
G1 X127.365 Y45.611 E.01695
G1 X126.887 Y45.867 E.017
G1 X126.38 Y45.952 E.01612
G1 X125.85 Y45.866 E.01684
G1 X125.398 Y45.626 E.01605
G1 X125.248 Y45.499 E.00616
G1 X124.937 Y45.106 E.01571
G1 X124.764 Y44.632 E.01582
G1 X124.749 Y44.5 E.00417
G1 X124.764 Y43.997 E.01578
G1 X124.937 Y43.523 E.01582
G1 X125.248 Y43.129 E.01574
G1 X125.398 Y43.003 E.00614
G1 X125.859 Y42.76 E.01634
G1 X126.382 Y42.68 E.01659
G1 X126.884 Y42.761 E.01594
G1 X127.125 Y42.888 E.00854
M204 S1000
G1 X127.125 Y42.888 F10800
G1 X126.99 Y43.241
M204 S800
;TYPE:External perimeter
G1 F1200
G1 X127.203 Y43.371 E.00782
G1 X127.461 Y43.69 E.01286
G1 X127.615 Y44.128 E.01456
G1 X127.603 Y44.565 E.01371
G1 X127.443 Y44.972 E.01371
