; generated by PrusaSlicer 2.8.0+win64 on 2025-01-10 at 13:18:57 UTC


;
;
; 

; external perimeters extrusion width = 0.60mm
; perimeters extrusion width = 0.50mm
; infill extrusion width = 0.50mm
; solid infill extrusion width = 0.50mm
; top infill extrusion width = 0.45mm
; first layer extrusion width = 0.42mm

M73 P0 R122
M73 Q0 S122
M201 X1000 Y1000 Z200 E5000 ; sets maximum accelerations, mm/sec^2
M203 X200 Y200 Z12 E120 ; sets maximum feedrates, mm / sec
M204 S1250 T1250 ; sets acceleration (S) and retract acceleration (R), mm/sec^2
M205 X8.00 Y8.00 Z0.40 E4.50 ; sets the jerk limits, mm/sec
M205 S0 T0 ; sets the minimum extruding and travel feed rate, mm/sec

; printing object top_right.stl id:0 copy 0
; stop printing object top_right.stl id:0 copy 0

;TYPE:Custom
M862.3 P "MK3S" ; printer model check
M862.1 P0.4 ; nozzle diameter check
M115 U3.13.3 ; tell printer latest fw version
G90 ; use absolute coordinates
M83 ; extruder relative mode
M104 S200 ; set extruder temp
M140 S67 ; set bed temp
M190 S67 ; wait for bed temp
M109 S200 ; wait for extruder temp
G28 W ; home all without mesh bed level
G80 X152.572 Y14.4346 W73 H70.4977 ; mesh bed levelling

G1 Z0.2 F720
G1 Y-3 F1000 ; go outside print area
G92 E0
G1 X60 E9 F1000 ; intro line
G1 X100 E12.5 F1000 ; intro line

G92 E0
M221 S95

; Don't change E values below. Excessive value can damage the printer.

G21 ; set units to millimeters
G90 ; use absolute coordinates
M83 ; use relative distances for extrusion
M900 K0.05 ; Filament gcode LA 1.5
M900 K30 ; Filament gcode LA 1.0
M107
;LAYER_CHANGE
;Z:0.2
;HEIGHT:0.2
G1 E-1.2 F2100
G1 Z.6 F720
; printing object top_right.stl id:0 copy 0
G1 X214.485 Y40.511 F10800
G1 Z.2 F720
G1 E1.2 F2100
M204 S800
;TYPE:Perimeter
;WIDTH:0.419999
G1 F1200
G1 X214.523 Y40.543 E.00156
G1 X214.765 Y40.868 E.0127
G1 X214.931 Y41.269 E.01361
G1 X214.991 Y41.713 E.01405
G1 X214.991 Y57.156 E.4842
G1 X214.93 Y57.604 E.01418
G1 X214.762 Y58.007 E.01369
G1 X214.516 Y58.334 E.01283
G1 X214.229 Y58.572 E.01169
G1 X213.791 Y58.779 E.01519
G1 X213.294 Y58.853 E.01575
G1 X205.351 Y58.853 E.24905
G1 X204.902 Y58.793 E.0142
G1 X204.443 Y58.59 E.01574
G1 X204.134 Y58.338 E.0125
G1 X203.831 Y57.911 E.01642
G1 X203.68 Y57.449 E.01524
G1 X203.654 Y57.156 E.00922
G1 X203.654 Y41.713 E.4842
G1 X203.7 Y41.32 E.01241
G1 X203.831 Y40.958 E.01207
G1 X204.137 Y40.527 E.01657
G1 X204.55 Y40.217 E.01619
G1 X205.026 Y40.048 E.01584
G1 X205.351 Y40.016 E.01024
G1 X213.294 Y40.016 E.24905
G1 X213.804 Y40.095 E.01618
G1 X214.239 Y40.304 E.01513
G1 X214.439 Y40.473 E.00821
M204 S1000
G1 X214.439 Y40.473 F10800
G1 X214.213 Y40.791
M204 S800
G1 F1200
G1 X214.35 Y40.921 E.00592
G1 X214.512 Y41.206 E.01028
G1 X214.602 Y41.538 E.01079
G1 X214.614 Y41.713 E.0055
G1 X214.614 Y57.156 E.4842
G1 X214.567 Y57.505 E.01104
G1 X214.435 Y57.818 E.01065
G1 X214.135 Y58.173 E.01457
G1 X213.792 Y58.378 E.01253
G1 X213.373 Y58.473 E.01347
G1 X205.351 Y58.476 E.25152
G1 X204.955 Y58.415 E.01256
G1 X204.568 Y58.218 E.01362
G1 X204.323 Y57.983 E.01064
G1 X204.111 Y57.607 E.01353
G1 X204.031 Y57.156 E.01436
G1 X204.031 Y41.713 E.4842
G1 X204.111 Y41.262 E.01436
G1 X204.323 Y40.886 E.01353
G1 X204.654 Y40.592 E.01388
G1 X205.059 Y40.426 E.01372
G1 X205.351 Y40.393 E.00921
G1 X213.294 Y40.393 E.24905
G1 X213.69 Y40.454 E.01256
G1 X214.029 Y40.617 E.01179
G1 X214.169 Y40.75 E.00605
M204 S1000
G1 X214.169 Y40.75 F10800
G1 X213.957 Y41.06
M204 S800
G1 F1200
G1 X214.111 Y41.244 E.00752
G1 X214.228 Y41.588 E.01139
G1 X214.236 Y41.713 E.00393
G1 X214.236 Y57.156 E.4842
G1 X214.163 Y57.522 E.0117
G1 X213.973 Y57.81 E.01082
G1 X213.731 Y57.991 E.00948
G1 X213.42 Y58.09 E.01023
G1 X205.351 Y58.099 E.253
G1 X204.991 Y58.027 E.01151
G1 X204.734 Y57.869 E.00946
G1 X204.507 Y57.576 E.01162
G1 X204.415 Y57.266 E.01014
G1 X204.408 Y57.156 E.00346
G1 X204.408 Y41.713 E.4842
G1 X204.465 Y41.391 E.01025
M73 P0 R121
G1 X204.616 Y41.122 E.00967
G1 X204.906 Y40.882 E.0118
G1 X205.23 Y40.778 E.01067
G1 X205.351 Y40.77 E.0038
G1 X213.294 Y40.77 E.24905
G1 X213.656 Y40.843 E.01158
G1 X213.899 Y40.991 E.00892
G1 X213.919 Y41.014 E.00096
M204 S1000
G1 X213.919 Y41.014 F10800
G1 X213.681 Y41.318
M204 S800
G1 F1200
G1 X213.746 Y41.374 E.00269
G1 X213.854 Y41.638 E.00894
G1 X213.859 Y41.713 E.00236
G1 X213.859 Y57.156 E.4842
G1 X213.783 Y57.44 E.00922
G1 X213.606 Y57.628 E.0081
G1 X213.369 Y57.717 E.00794
G1 X205.351 Y57.722 E.2514
G1 X205.079 Y57.652 E.00881
G1 X204.875 Y57.462 E.00874
G1 X204.789 Y57.222 E.00799
G1 X204.785 Y57.156 E.00207
G1 X204.785 Y41.713 E.4842
G1 X204.844 Y41.461 E.00811
G1 X205.018 Y41.256 E.00843
G1 X205.278 Y41.152 E.00878
G1 X205.351 Y41.148 E.00229
G1 X213.294 Y41.148 E.24905
G1 X213.56 Y41.214 E.00859
G1 X213.635 Y41.279 E.00311
M204 S1000
G1 X213.635 Y41.279 F10800
G1 X213.395 Y41.568
M204 S800
;TYPE:External perimeter
G1 F1200
G1 X213.43 Y41.583 E.00119
G1 X213.482 Y41.713 E.00439
G1 X213.482 Y57.156 E.4842
G1 X213.414 Y57.301 E.00502
G1 X213.294 Y57.345 E.00401
G1 X205.351 Y57.345 E.24905
G1 X205.204 Y57.274 E.00512
G1 X205.162 Y57.156 E.00393
G1 X205.162 Y41.713 E.4842
G1 X205.228 Y41.57 E.00494
G1 X205.351 Y41.525 E.00411
G1 X213.294 Y41.525 E.24905
G1 X213.34 Y41.544 E.00156
M204 S1000
;WIPE_START
G1 F8640
G1 X213.395 Y41.568 E-.01386
G1 X213.43 Y41.583 E-.00879
G1 X213.482 Y41.713 E-.03233
G1 X213.482 Y46.672 E-1.14502
;WIPE_END
G1 Z.6 F720
G1 X222.631 Y82.268 F10800
G1 Z.2 F720
G1 E1.2 F2100
M204 S800
;TYPE:Perimeter
;WIDTH:0.387473
G1 F1200
G1 X222.411 Y82.457 E.00831
;WIDTH:0.384362
G1 X221.957 Y82.731 E.01506
;WIDTH:0.382103
G1 X221.465 Y82.924 E.01491
;WIDTH:0.380681
G1 X220.947 Y83.031 E.01486
;WIDTH:0.380386
G1 X220.418 Y83.05 E.01485
;WIDTH:0.381518
G1 X219.893 Y82.98 E.01491
;WIDTH:0.383501
G1 X219.388 Y82.822 E.01498
;WIDTH:0.389234
G1 X218.916 Y82.583 E.01523
;WIDTH:0.402623
G1 X218.601 Y82.349 E.01174
;WIDTH:0.419999
G1 X218.194 Y81.971 E.01742
G1 X217.983 Y81.71 E.01052
G1 X217.721 Y81.247 E.01668
G1 X217.54 Y80.746 E.0167
G1 X217.446 Y80.222 E.01669
G1 X217.443 Y79.69 E.01668
G1 X217.529 Y79.164 E.01671
G1 X217.703 Y78.661 E.01669
G1 X217.96 Y78.194 E.01671
G1 X218.291 Y77.778 E.01667
G1 X218.514 Y77.564 E.00969
G1 X218.945 Y77.25 E.01672
G1 X219.422 Y77.014 E.01669
G1 X219.932 Y76.861 E.01669
G1 X220.264 Y76.819 E.01049
G1 X220.88 Y76.819 E.01931
G1 X221.512 Y76.939 E.02017
G1 X222.005 Y77.141 E.0167
G1 X222.456 Y77.423 E.01668
G1 X222.853 Y77.778 E.0167
G1 X223.185 Y78.194 E.01669
G1 X223.442 Y78.661 E.01671
G1 X223.615 Y79.164 E.01668
;WIDTH:0.41872
G1 X223.69 Y79.691 E.01663
;WIDTH:0.396656
G1 X223.678 Y80.221 E.01559
;WIDTH:0.38081
G1 X223.586 Y80.742 E.01486
;WIDTH:0.382345
G1 X223.407 Y81.24 E.01494
;WIDTH:0.38473
G1 X223.146 Y81.701 E.01506
;WIDTH:0.387473
G1 X222.812 Y82.111 E.01515
G1 X222.676 Y82.229 E.00516
M204 S1000
G1 X222.676 Y82.229 F10800
G1 X222.405 Y81.988
M204 S800
;WIDTH:0.419999
G1 F1200
G1 X222.144 Y82.209 E.01072
G1 X221.694 Y82.462 E.01619
G1 X221.204 Y82.625 E.01619
G1 X220.673 Y82.693 E.01679
G1 X220.131 Y82.658 E.01703
G1 X219.607 Y82.519 E.017
G1 X219.092 Y82.267 E.01798
G1 X218.455 Y81.699 E.02676
G1 X218.142 Y81.249 E.01719
G1 X217.908 Y80.667 E.01967
G1 X217.823 Y80.206 E.0147
G1 X217.817 Y79.738 E.01467
G1 X217.89 Y79.275 E.0147
G1 X218.04 Y78.831 E.01469
G1 X218.263 Y78.419 E.01469
G1 X218.552 Y78.05 E.0147
G1 X218.775 Y77.836 E.00969
G1 X219.186 Y77.543 E.01583
G1 X219.647 Y77.329 E.01594
G1 X220.136 Y77.205 E.01582
G1 X220.88 Y77.196 E.02333
G1 X221.417 Y77.304 E.01717
G1 X221.989 Y77.563 E.01969
G1 X222.369 Y77.836 E.01467
G1 X222.698 Y78.17 E.0147
G1 X222.966 Y78.555 E.01471
G1 X223.165 Y78.979 E.01469
G1 X223.289 Y79.431 E.0147
G1 X223.335 Y79.897 E.01468
G1 X223.282 Y80.453 E.01751
G1 X223.128 Y80.972 E.01697
G1 X222.877 Y81.453 E.01701
G1 X222.541 Y81.873 E.01686
G1 X222.451 Y81.949 E.00369
M204 S1000
G1 X222.451 Y81.949 F10800
G1 X222.174 Y81.702
M204 S800
G1 F1200
G1 X221.869 Y81.938 E.01209
G1 X221.511 Y82.128 E.01271
G1 X221.127 Y82.256 E.01269
G1 X220.673 Y82.316 E.01436
G1 X220.195 Y82.286 E.01502
G1 X219.633 Y82.128 E.0183
G1 X219.161 Y81.853 E.01713
G1 X218.716 Y81.427 E.01932
G1 X218.42 Y80.966 E.01718
G1 X218.277 Y80.587 E.0127
G1 X218.2 Y80.19 E.01268
G1 X218.191 Y79.785 E.0127
G1 X218.25 Y79.385 E.01268
G1 X218.376 Y79.001 E.01267
G1 X218.566 Y78.643 E.01271
G1 X218.813 Y78.322 E.0127
G1 X219.036 Y78.108 E.00969
G1 X219.451 Y77.828 E.0157
G1 X219.823 Y77.669 E.01268
G1 X220.264 Y77.573 E.01415
G1 X220.88 Y77.573 E.01931
G1 X221.412 Y77.701 E.01716
G1 X221.778 Y77.875 E.01271
G1 X222.108 Y78.108 E.01267
G1 X222.395 Y78.394 E.0127
G1 X222.629 Y78.725 E.01271
G1 X222.804 Y79.09 E.01269
G1 X222.915 Y79.479 E.01268
G1 X222.958 Y79.881 E.01268
G1 X222.914 Y80.373 E.01549
G1 X222.778 Y80.832 E.01501
G1 X222.519 Y81.315 E.01718
G1 X222.216 Y81.66 E.0144
M204 S1000
G1 X222.216 Y81.66 F10800
G1 X221.937 Y81.409
M204 S800
;TYPE:External perimeter
G1 F1200
G1 X221.685 Y81.609 E.01009
G1 X221.386 Y81.773 E.01069
G1 X221.063 Y81.884 E.01071
G1 X220.673 Y81.939 E.01235
G1 X220.259 Y81.914 E.013
G1 X219.759 Y81.773 E.01629
G1 X219.378 Y81.538 E.01404
G1 X218.977 Y81.154 E.01741
G1 X218.77 Y80.825 E.01219
G1 X218.646 Y80.508 E.01067
G1 X218.576 Y80.174 E.0107
G1 X218.565 Y79.833 E.0107
G1 X218.611 Y79.496 E.01066
G1 X218.713 Y79.17 E.01071
G1 X218.869 Y78.867 E.01069
G1 X219.074 Y78.595 E.01068
G1 X219.297 Y78.381 E.00969
G1 X219.606 Y78.172 E.0117
G1 X219.918 Y78.034 E.0107
G1 X220.264 Y77.95 E.01116
G1 X220.88 Y77.95 E.01931
G1 X221.257 Y78.045 E.01219
G1 X221.567 Y78.188 E.0107
G1 X221.848 Y78.381 E.01069
G1 X222.092 Y78.619 E.01069
G1 X222.292 Y78.894 E.01066
G1 X222.443 Y79.2 E.0107
G1 X222.541 Y79.527 E.0107
G1 X222.581 Y79.865 E.01067
G1 X222.545 Y80.294 E.0135
G1 X222.374 Y80.825 E.01749
G1 X222.179 Y81.143 E.0117
G1 X221.979 Y81.366 E.00939
M204 S1000
;WIPE_START
G1 F8640
G1 X221.937 Y81.409 E-.01388
G1 X221.685 Y81.609 E-.07429
G1 X221.386 Y81.773 E-.07874
G1 X221.063 Y81.884 E-.07886
G1 X220.673 Y81.939 E-.09094
G1 X220.259 Y81.914 E-.09577
G1 X219.759 Y81.773 E-.11995
G1 X219.378 Y81.538 E-.10336
G1 X218.977 Y81.154 E-.1282
G1 X218.77 Y80.825 E-.08975
G1 X218.646 Y80.508 E-.0786
G1 X218.576 Y80.174 E-.0788
G1 X218.565 Y79.833 E-.07878
G1 X218.611 Y79.496 E-.07854
G1 X218.626 Y79.448 E-.01154
;WIPE_END
G1 Z.6 F720
G1 X154.473 Y79.675 F10800
G1 Z.2 F720
G1 E1.2 F2100
M204 S800
;TYPE:Perimeter
;WIDTH:0.385668
G1 F1200
G1 X154.5 Y79.385 E.0083
;WIDTH:0.382814
G1 X154.638 Y78.874 E.01496
;WIDTH:0.380929
G1 X154.86 Y78.394 E.01486
;WIDTH:0.380058
G1 X155.159 Y77.958 E.01482
;WIDTH:0.38935
G1 X155.384 Y77.71 E.00965
;WIDTH:0.389355
G1 X155.858 Y77.327 E.01755
G1 X156.396 Y77.043 E.01752
;WIDTH:0.388394
G1 X156.936 Y76.878 E.01622
;WIDTH:0.394447
G1 X157.264 Y76.832 E.00968
;WIDTH:0.409404
G1 X157.88 Y76.824 E.01877
;WIDTH:0.419999
G1 X158.512 Y76.939 E.02014
G1 X159.005 Y77.141 E.0167
G1 X159.456 Y77.423 E.01668
G1 X159.853 Y77.778 E.0167
G1 X160.185 Y78.194 E.01669
G1 X160.442 Y78.661 E.01671
G1 X160.616 Y79.164 E.01669
G1 X160.702 Y79.69 E.01671
G1 X160.698 Y80.222 E.01668
G1 X160.605 Y80.746 E.01669
G1 X160.424 Y81.247 E.0167
G1 X160.161 Y81.71 E.0167
G1 X159.822 Y82.12 E.01668
;WIDTH:0.414787
G1 X159.412 Y82.459 E.01645
;WIDTH:0.389497
G1 X158.957 Y82.73 E.01526
;WIDTH:0.381061
G1 X158.465 Y82.924 E.01487
;WIDTH:0.38304
G1 X157.947 Y83.033 E.01497
;WIDTH:0.385998
G1 X157.418 Y83.053 E.0151
G1 X156.893 Y82.982 E.01511
;WIDTH:0.385699
G1 X156.388 Y82.822 E.0151
;WIDTH:0.382835
G1 X155.918 Y82.58 E.01494
;WIDTH:0.380936
G1 X155.495 Y82.262 E.01487
;WIDTH:0.380058
G1 X155.132 Y81.877 E.01483
;WIDTH:0.380907
G1 X154.838 Y81.437 E.01487
;WIDTH:0.383181
G1 X154.622 Y80.953 E.015
;WIDTH:0.386035
G1 X154.491 Y80.441 E.01508
G1 X154.45 Y79.913 E.01511
;WIDTH:0.385668
G1 X154.467 Y79.734 E.00512
M204 S1000
G1 X154.467 Y79.734 F10800
G1 X154.829 Y79.72
M204 S800
;WIDTH:0.419999
G1 F1200
G1 X154.869 Y79.353 E.01158
G1 X155.027 Y78.857 E.01632
G1 X155.283 Y78.391 E.01667
G1 X155.635 Y77.971 E.01718
G1 X156.061 Y77.627 E.01717
G1 X156.545 Y77.372 E.01715
G1 X157.027 Y77.226 E.01579
G1 X157.866 Y77.196 E.02632
G1 X158.417 Y77.304 E.0176
G1 X158.926 Y77.524 E.01739
G1 X159.369 Y77.836 E.01699
G1 X159.762 Y78.256 E.01803
G1 X159.966 Y78.555 E.01135
G1 X160.165 Y78.979 E.01469
G1 X160.289 Y79.431 E.0147
G1 X160.335 Y79.897 E.01468
G1 X160.301 Y80.365 E.01471
G1 X160.189 Y80.82 E.01469
G1 X160.002 Y81.249 E.01467
G1 X159.745 Y81.641 E.0147
G1 X159.331 Y82.06 E.01847
G1 X159.052 Y82.267 E.01089
G1 X158.531 Y82.522 E.01819
G1 X158.001 Y82.66 E.01717
G1 X157.454 Y82.693 E.01718
G1 X156.954 Y82.627 E.01581
G1 X156.434 Y82.455 E.01717
G1 X155.983 Y82.196 E.01631
G1 X155.582 Y81.848 E.01665
G1 X155.245 Y81.417 E.01715
G1 X154.996 Y80.922 E.01737
G1 X154.851 Y80.4 E.01699
G1 X154.81 Y79.897 E.01582
G1 X154.823 Y79.78 E.00369
M204 S1000
G1 X154.823 Y79.78 F10800
G1 X155.193 Y79.767
M204 S800
G1 F1200
G1 X155.25 Y79.385 E.01211
G1 X155.376 Y79.001 E.01267
G1 X155.586 Y78.615 E.01378
G1 X155.895 Y78.243 E.01516
G1 X156.367 Y77.875 E.01877
G1 X156.823 Y77.669 E.01569
G1 X157.264 Y77.573 E.01415
G1 X157.88 Y77.573 E.01931
G1 X158.412 Y77.701 E.01716
G1 X158.778 Y77.875 E.01271
G1 X159.108 Y78.108 E.01267
G1 X159.459 Y78.48 E.01604
G1 X159.768 Y79.001 E.01899
G1 X159.915 Y79.479 E.01568
G1 X159.958 Y79.881 E.01268
G1 X159.933 Y80.285 E.01269
G1 X159.84 Y80.679 E.01269
G1 X159.681 Y81.052 E.01271
G1 X159.462 Y81.392 E.01268
G1 X159.094 Y81.767 E.01647
G1 X158.599 Y82.089 E.01852
G1 X158.127 Y82.256 E.0157
G1 X157.727 Y82.316 E.01268
G1 X157.322 Y82.308 E.0127
G1 X156.925 Y82.231 E.01268
G1 X156.546 Y82.089 E.01269
G1 X156.197 Y81.884 E.01269
G1 X155.865 Y81.599 E.01372
G1 X155.567 Y81.219 E.01514
G1 X155.305 Y80.679 E.01882
G1 X155.2 Y80.19 E.01568
G1 X155.192 Y79.826 E.01142
M204 S1000
G1 X155.192 Y79.826 F10800
G1 X155.567 Y79.815
M204 S800
;TYPE:External perimeter
G1 F1200
G1 X155.611 Y79.496 E.0101
G1 X155.713 Y79.17 E.01071
G1 X155.889 Y78.84 E.01173
G1 X156.156 Y78.516 E.01316
G1 X156.578 Y78.188 E.01676
G1 X156.918 Y78.034 E.0117
G1 X157.264 Y77.95 E.01116
G1 X157.88 Y77.95 E.01931
G1 X158.257 Y78.045 E.01219
G1 X158.567 Y78.188 E.0107
G1 X158.848 Y78.381 E.01069
G1 X159.155 Y78.704 E.01397
G1 X159.432 Y79.17 E.017
G1 X159.541 Y79.527 E.0117
G1 X159.581 Y79.865 E.01067
G1 X159.564 Y80.206 E.01071
G1 X159.49 Y80.539 E.0107
G1 X159.36 Y80.854 E.01068
G1 X159.179 Y81.143 E.01069
G1 X158.857 Y81.474 E.01448
G1 X158.415 Y81.76 E.01651
G1 X157.873 Y81.916 E.01768
G1 X157.386 Y81.936 E.01528
G1 X157.05 Y81.876 E.0107
G1 X156.73 Y81.76 E.01067
G1 X156.433 Y81.591 E.01071
G1 X156.148 Y81.35 E.0117
G1 X155.888 Y81.021 E.01315
G1 X155.655 Y80.539 E.01679
G1 X155.576 Y80.174 E.01171
G1 X155.566 Y79.874 E.00941
M204 S1000
;WIPE_START
G1 F8640
G1 X155.567 Y79.815 E-.01363
G1 X155.611 Y79.496 E-.07436
G1 X155.713 Y79.17 E-.07887
G1 X155.889 Y78.84 E-.08636
G1 X156.156 Y78.516 E-.09694
G1 X156.578 Y78.188 E-.12341
G1 X156.918 Y78.034 E-.08618
G1 X157.264 Y77.95 E-.08221
G1 X157.88 Y77.95 E-.14224
G1 X158.257 Y78.045 E-.08977
G1 X158.567 Y78.188 E-.07883
G1 X158.848 Y78.381 E-.07871
G1 X159.155 Y78.704 E-.1029
G1 X159.3 Y78.948 E-.06559
;WIPE_END
G1 Z.6 F720
G1 X193.482 Y35.91 F10800
G1 Z.2 F720
G1 E1.2 F2100
M204 S800
;TYPE:Perimeter
G1 F1200
G1 X193.524 Y35.944 E.00169
G1 X193.814 Y36.36 E.0159
G1 X193.962 Y36.802 E.01461
G1 X193.991 Y37.88 E.03381
G1 X193.991 Y61.756 E.74861
G1 X193.934 Y62.189 E.01369
G1 X193.743 Y62.639 E.01533
G1 X193.461 Y62.987 E.01404
G1 X193.103 Y63.248 E.01389
G1 X192.659 Y63.413 E.01485
G1 X192.294 Y63.453 E.01151
G1 X170.851 Y63.453 E.67233
G1 X170.426 Y63.399 E.01343
G1 X170.043 Y63.248 E.01291
G1 X169.657 Y62.962 E.01506
G1 X169.431 Y62.684 E.01123
G1 X169.259 Y62.344 E.01195
G1 X169.166 Y61.958 E.01245
G1 X169.154 Y61.756 E.00634
G1 X169.154 Y37.113 E.77266
G1 X169.227 Y36.622 E.01556
G1 X169.419 Y36.203 E.01445
G1 X169.694 Y35.872 E.01349
G1 X170.047 Y35.619 E.01362
G1 X170.459 Y35.462 E.01382
