; generated by PrusaSlicer 2.8.0+win64 on 2025-01-13 at 23:35:00 UTC


;
;
; 

; external perimeters extrusion width = 0.60mm
; perimeters extrusion width = 0.50mm
; infill extrusion width = 0.50mm
; solid infill extrusion width = 0.50mm
; top infill extrusion width = 0.45mm
; first layer extrusion width = 0.42mm

M73 P0 R123
M73 Q0 S123
M201 X1000 Y1000 Z200 E5000 ; sets maximum accelerations, mm/sec^2
M203 X200 Y200 Z12 E120 ; sets maximum feedrates, mm / sec
M204 S1250 T1250 ; sets acceleration (S) and retract acceleration (R), mm/sec^2
M205 X8.00 Y8.00 Z0.40 E4.50 ; sets the jerk limits, mm/sec
M205 S0 T0 ; sets the minimum extruding and travel feed rate, mm/sec

; printing object top_right.stl id:0 copy 0
; stop printing object top_right.stl id:0 copy 0

;TYPE:Custom
M862.3 P "MK3S" ; printer model check
M862.1 P0.4 ; nozzle diameter check
M115 U3.13.3 ; tell printer latest fw version
G90 ; use absolute coordinates
M83 ; extruder relative mode
M104 S200 ; set extruder temp
M140 S67 ; set bed temp
M190 S67 ; wait for bed temp
M109 S200 ; wait for extruder temp
G28 W ; home all without mesh bed level
G80 X152.572 Y14.4346 W73 H70.4977 ; mesh bed levelling

G1 Z0.2 F720
G1 Y-3 F1000 ; go outside print area
G92 E0
G1 X60 E9 F1000 ; intro line
G1 X100 E12.5 F1000 ; intro line

G92 E0
M221 S95

; Don't change E values below. Excessive value can damage the printer.

G21 ; set units to millimeters
G90 ; use absolute coordinates
M83 ; use relative distances for extrusion
M900 K0.05 ; Filament gcode LA 1.5
M900 K30 ; Filament gcode LA 1.0
M107
;LAYER_CHANGE
;Z:0.2
;HEIGHT:0.2
G1 E-1.2 F2100
G1 Z.6 F720
; printing object top_right.stl id:0 copy 0
G1 X203.751 Y43.524 F10800
G1 Z.2 F720
G1 E1.2 F2100
M204 S800
;TYPE:Perimeter
;WIDTH:0.419999
G1 F1200
G1 X203.797 Y43.469 E.00225
G1 X204.166 Y43.209 E.01415
G1 X204.593 Y43.055 E.01423
G1 X204.951 Y43.016 E.01129
G1 X213.094 Y43.016 E.25532
G1 X213.604 Y43.095 E.01618
G1 X214.039 Y43.304 E.01513
G1 X214.323 Y43.543 E.01164
G1 X214.565 Y43.868 E.0127
G1 X214.731 Y44.269 E.01361
G1 X214.791 Y44.713 E.01405
G1 X214.791 Y60.256 E.48734
G1 X214.737 Y60.678 E.01334
G1 X214.587 Y61.062 E.01293
G1 X214.364 Y61.381 E.0122
G1 X213.961 Y61.715 E.01641
G1 X213.533 Y61.895 E.01456
G1 X213.094 Y61.953 E.01388
G1 X204.951 Y61.953 E.25532
G1 X204.517 Y61.897 E.01372
G1 X204.057 Y61.698 E.01571
G1 X203.693 Y61.395 E.01485
G1 X203.464 Y61.075 E.01234
G1 X203.309 Y60.685 E.01316
G1 X203.254 Y60.256 E.01356
G1 X203.254 Y44.713 E.48734
G1 X203.328 Y44.219 E.01566
G1 X203.53 Y43.785 E.01501
G1 X203.712 Y43.569 E.00886
M204 S1000
G1 X203.712 Y43.569 F10800
G1 X204.029 Y43.795
M204 S800
G1 F1200
G1 X204.155 Y43.661 E.00577
G1 X204.495 Y43.475 E.01215
G1 X204.864 Y43.396 E.01183
G1 X213.094 Y43.393 E.25805
G1 X213.49 Y43.454 E.01256
G1 X213.829 Y43.617 E.01179
G1 X214.15 Y43.921 E.01386
G1 X214.312 Y44.206 E.01028
G1 X214.402 Y44.538 E.01079
G1 X214.414 Y44.713 E.0055
G1 X214.414 Y60.256 E.48734
G1 X214.372 Y60.584 E.01037
G1 X214.255 Y60.883 E.01007
G1 X213.982 Y61.233 E.01392
G1 X213.66 Y61.448 E.01214
G1 X213.231 Y61.569 E.01398
G1 X204.951 Y61.576 E.25961
G1 X204.554 Y61.515 E.01259
G1 X204.167 Y61.318 E.01362
G1 X203.878 Y61.025 E.0129
G1 X203.726 Y60.747 E.00993
G1 X203.642 Y60.425 E.01043
G1 X203.631 Y60.256 E.00531
G1 X203.631 Y44.713 E.48734
G1 X203.688 Y44.329 E.01217
G1 X203.846 Y43.991 E.0117
G1 X203.988 Y43.839 E.00652
M204 S1000
G1 X203.988 Y43.839 F10800
G1 X204.299 Y44.048
M204 S800
G1 F1200
G1 X204.515 Y43.877 E.00864
G1 X204.867 Y43.774 E.0115
G1 X204.951 Y43.77 E.00264
G1 X213.094 Y43.77 E.25532
G1 X213.456 Y43.843 E.01158
G1 X213.699 Y43.991 E.00892
G1 X213.911 Y44.244 E.01035
G1 X214.028 Y44.588 E.01139
G1 X214.036 Y44.713 E.00393
G1 X214.036 Y60.256 E.48734
G1 X213.971 Y60.601 E.01101
G1 X213.799 Y60.881 E.0103
G1 X213.498 Y61.108 E.01182
G1 X213.163 Y61.196 E.01086
G1 X204.951 Y61.199 E.25748
G1 X204.621 Y61.139 E.01052
G1 X204.326 Y60.962 E.01079
G1 X204.125 Y60.711 E.01008
G1 X204.016 Y60.377 E.01102
G1 X204.008 Y60.256 E.0038
G1 X204.008 Y44.713 E.48734
G1 X204.049 Y44.439 E.00869
G1 X204.237 Y44.097 E.01224
G1 X204.252 Y44.085 E.0006
M204 S1000
G1 X204.252 Y44.085 F10800
G1 X204.555 Y44.329
M204 S800
G1 F1200
G1 X204.61 Y44.262 E.00272
G1 X204.87 Y44.153 E.00884
G1 X204.951 Y44.148 E.00254
G1 X213.094 Y44.148 E.25532
G1 X213.36 Y44.214 E.00859
G1 X213.546 Y44.374 E.00769
G1 X213.654 Y44.638 E.00894
G1 X213.659 Y44.713 E.00236
G1 X213.659 Y60.256 E.48734
G1 X213.591 Y60.525 E.0087
G1 X213.429 Y60.712 E.00776
G1 X213.199 Y60.812 E.00786
G1 X213.094 Y60.822 E.00331
G1 X204.951 Y60.822 E.25532
G1 X204.689 Y60.757 E.00846
G1 X204.491 Y60.586 E.0082
G1 X204.39 Y60.329 E.00866
G1 X204.385 Y60.256 E.00229
G1 X204.385 Y44.713 E.48734
G1 X204.439 Y44.473 E.00771
G1 X204.518 Y44.376 E.00392
M204 S1000
G1 X204.518 Y44.376 F10800
G1 X204.807 Y44.612
M204 S800
;TYPE:External perimeter
G1 F1200
G1 X204.823 Y44.575 E.00126
G1 X204.951 Y44.525 E.00431
G1 X213.094 Y44.525 E.25532
G1 X213.23 Y44.583 E.00464
G1 X213.282 Y44.713 E.00439
G1 X213.282 Y60.256 E.48734
G1 X213.221 Y60.396 E.00479
G1 X213.094 Y60.445 E.00427
G1 X204.951 Y60.445 E.25532
G1 X204.811 Y60.383 E.0048
G1 X204.762 Y60.256 E.00427
G1 X204.762 Y44.713 E.48734
G1 X204.783 Y44.667 E.00159
M204 S1000
;WIPE_START
G1 F8640
G1 X204.807 Y44.612 E-.01386
G1 X204.823 Y44.575 E-.00931
G1 X204.951 Y44.525 E-.03173
G1 X209.91 Y44.525 E-1.1451
;WIPE_END
G1 Z.6 F720
G1 X221.735 Y82.818 F10800
G1 Z.2 F720
G1 E1.2 F2100
M204 S800
;TYPE:Perimeter
;WIDTH:0.382104
G1 F1200
G1 X221.465 Y82.924 E.00818
;WIDTH:0.380681
G1 X220.947 Y83.031 E.01486
;WIDTH:0.380381
G1 X220.418 Y83.05 E.01485
;WIDTH:0.392289
G1 X220.085 Y83.013 E.00973
G1 X219.488 Y82.857 E.01793
;WIDTH:0.391176
G1 X218.916 Y82.583 E.01837
;WIDTH:0.405024
G1 X218.487 Y82.271 E.01597
;WIDTH:0.419999
G1 X218.116 Y81.89 E.01667
G1 X217.821 Y81.447 E.01669
G1 X217.605 Y80.96 E.0167
G1 X217.475 Y80.444 E.01668
G1 X217.433 Y79.913 E.0167
G1 X217.462 Y79.579 E.01051
G1 X217.591 Y78.977 E.0193
G1 X217.703 Y78.661 E.01051
G1 X217.96 Y78.194 E.01671
G1 X218.291 Y77.778 E.01667
G1 X218.689 Y77.423 E.01672
G1 X219.125 Y77.148 E.01616
G1 X219.633 Y76.939 E.01722
G1 X220.085 Y76.831 E.01457
G1 X220.88 Y76.819 E.02493
G1 X221.512 Y76.939 E.02017
G1 X222.005 Y77.141 E.0167
G1 X222.456 Y77.423 E.01668
G1 X222.854 Y77.778 E.01672
G1 X223.064 Y78.039 E.0105
G1 X223.387 Y78.563 E.0193
G1 X223.615 Y79.164 E.02015
;WIDTH:0.41872
G1 X223.69 Y79.691 E.01663
;WIDTH:0.396656
G1 X223.678 Y80.221 E.01559
;WIDTH:0.38081
G1 X223.586 Y80.742 E.01486
;WIDTH:0.382344
G1 X223.407 Y81.24 E.01494
;WIDTH:0.384729
G1 X223.146 Y81.701 E.01506
;WIDTH:0.387475
G1 X222.812 Y82.111 E.01515
G1 X222.411 Y82.457 E.01517
;WIDTH:0.384363
G1 X221.957 Y82.731 E.01506
;WIDTH:0.382104
G1 X221.791 Y82.796 E.00503
M204 S1000
G1 X221.618 Y82.487 F10800
M204 S800
;WIDTH:0.419999
G1 F1200
G1 X221.204 Y82.625 E.01368
G1 X220.673 Y82.693 E.01679
G1 X220.177 Y82.662 E.01558
G1 X219.581 Y82.507 E.01931
G1 X219.092 Y82.267 E.01708
G1 X218.604 Y81.873 E.01967
G1 X218.304 Y81.512 E.01472
G1 X218.07 Y81.107 E.01467
G1 X217.908 Y80.667 E.0147
G1 X217.823 Y80.206 E.0147
G1 X217.83 Y79.658 E.01718
G1 X217.96 Y79.057 E.01928
G1 X218.179 Y78.555 E.01717
G1 X218.496 Y78.109 E.01716
G1 X218.9 Y77.736 E.01724
G1 X219.295 Y77.485 E.01467
G1 X219.728 Y77.304 E.01471
G1 X220.264 Y77.196 E.01714
G1 X220.88 Y77.196 E.01931
G1 X221.417 Y77.304 E.01717
G1 X221.989 Y77.563 E.01969
G1 X222.369 Y77.836 E.01467
G1 X222.743 Y78.237 E.01719
G1 X223.066 Y78.761 E.0193
G1 X223.255 Y79.275 E.01717
G1 X223.336 Y79.857 E.01842
G1 X223.301 Y80.365 E.01597
G1 X223.128 Y80.972 E.01979
G1 X222.877 Y81.453 E.01701
G1 X222.541 Y81.873 E.01686
G1 X222.144 Y82.209 E.01631
G1 X221.694 Y82.462 E.01619
G1 X221.675 Y82.468 E.00062
M204 S1000
G1 X221.493 Y82.134 F10800
M204 S800
G1 F1200
G1 X221.127 Y82.256 E.0121
G1 X220.673 Y82.316 E.01436
G1 X220.272 Y82.297 E.01259
G1 X219.677 Y82.142 E.01928
G1 X219.197 Y81.884 E.01709
G1 X218.887 Y81.624 E.01269
G1 X218.626 Y81.315 E.01268
G1 X218.42 Y80.966 E.01271
G1 X218.277 Y80.587 E.0127
G1 X218.2 Y80.19 E.01268
G1 X218.199 Y79.738 E.01417
G1 X218.329 Y79.136 E.01931
G1 X218.541 Y78.68 E.01577
G1 X218.813 Y78.322 E.0141
G1 X219.111 Y78.048 E.01269
G1 X219.451 Y77.828 E.0127
G1 X219.823 Y77.669 E.01268
G1 X220.264 Y77.573 E.01415
G1 X220.88 Y77.573 E.01931
G1 X221.412 Y77.701 E.01716
G1 X221.778 Y77.875 E.01271
G1 X222.108 Y78.109 E.01268
G1 X222.422 Y78.434 E.01417
G1 X222.745 Y78.959 E.01933
G1 X222.915 Y79.479 E.01715
G1 X222.958 Y79.881 E.01268
G1 X222.914 Y80.373 E.01549
G1 X222.778 Y80.832 E.01501
G1 X222.519 Y81.315 E.01718
G1 X222.189 Y81.69 E.01566
G1 X221.869 Y81.938 E.01269
G1 X221.548 Y82.109 E.0114
M204 S1000
G1 X221.548 Y82.109 F10800
G1 X221.368 Y81.779
M204 S800
;TYPE:External perimeter
G1 F1200
G1 X221.063 Y81.884 E.01011
G1 X220.673 Y81.939 E.01235
G1 X220.367 Y81.932 E.0096
G1 X219.772 Y81.777 E.01928
G1 X219.433 Y81.591 E.01212
G1 X219.17 Y81.375 E.01067
G1 X218.947 Y81.117 E.01069
G1 X218.77 Y80.825 E.01071
G1 X218.646 Y80.508 E.01067
G1 X218.576 Y80.174 E.0107
G1 X218.567 Y79.817 E.0112
G1 X218.697 Y79.215 E.01931
G1 X218.884 Y78.847 E.01294
G1 X219.074 Y78.595 E.0099
G1 X219.322 Y78.361 E.01069
G1 X219.606 Y78.172 E.0107
G1 X219.918 Y78.034 E.0107
G1 X220.264 Y77.95 E.01116
G1 X220.88 Y77.95 E.01931
G1 X221.257 Y78.045 E.01219
G1 X221.567 Y78.188 E.0107
G1 X221.848 Y78.381 E.01069
G1 X222.101 Y78.632 E.01117
G1 X222.424 Y79.156 E.0193
G1 X222.541 Y79.527 E.0122
G1 X222.581 Y79.865 E.01067
G1 X222.545 Y80.294 E.0135
G1 X222.374 Y80.825 E.01749
G1 X222.179 Y81.143 E.0117
G1 X221.952 Y81.397 E.01068
G1 X221.685 Y81.609 E.01069
G1 X221.422 Y81.753 E.0094
M204 S1000
;WIPE_START
G1 F8640
G1 X221.368 Y81.779 E-.01384
G1 X221.063 Y81.884 E-.07448
G1 X220.673 Y81.939 E-.09094
G1 X220.367 Y81.932 E-.07067
G1 X219.772 Y81.777 E-.14197
G1 X219.433 Y81.591 E-.08928
G1 X219.17 Y81.375 E-.07858
G1 X218.947 Y81.117 E-.07874
G1 X218.77 Y80.825 E-.07884
G1 X218.646 Y80.508 E-.0786
G1 X218.576 Y80.174 E-.0788
G1 X218.567 Y79.817 E-.08246
G1 X218.697 Y79.215 E-.14221
G1 X218.884 Y78.847 E-.09531
G1 X218.898 Y78.829 E-.00528
;WIPE_END
G1 Z.6 F720
G1 X194.582 Y39.214 F10800
G1 Z.2 F720
G1 E1.2 F2100
M204 S800
;TYPE:Perimeter
G1 F1200
G1 X194.643 Y39.265 E.00249
G1 X194.925 Y39.681 E.01576
M73 P0 R122
G1 X195.053 Y40.058 E.01248
G1 X195.091 Y40.413 E.01119
G1 X195.091 Y65.456 E.7852
G1 X195.041 Y65.865 E.01292
G1 X194.876 Y66.283 E.01409
G1 X194.575 Y66.675 E.0155
G1 X194.248 Y66.922 E.01285
G1 X193.844 Y67.092 E.01374
G1 X193.394 Y67.153 E.01424
G1 X170.351 Y67.153 E.7225
G1 X169.929 Y67.1 E.01334
G1 X169.483 Y66.914 E.01515
G1 X169.08 Y66.581 E.01639
G1 X168.858 Y66.262 E.01219
G1 X168.707 Y65.878 E.01294
G1 X168.654 Y65.456 E.01334
G1 X168.654 Y40.413 E.7852
G1 X168.702 Y40.011 E.01269
G1 X168.857 Y39.608 E.01354
G1 X168.946 Y39.462 E.00536
G1 X169.291 Y39.088 E.01595
G1 X169.733 Y38.833 E.016
G1 X170.199 Y38.723 E.01501
G1 X170.672 Y38.716 E.01483
G1 X193.394 Y38.716 E.71243
G1 X193.815 Y38.77 E.01331
G1 X194.286 Y38.97 E.01604
G1 X194.535 Y39.176 E.01013
M204 S1000
G1 X194.535 Y39.176 F10800
G1 X194.315 Y39.49
M204 S800
G1 F1200
G1 X194.448 Y39.619 E.00581
G1 X194.621 Y39.927 E.01108
G1 X194.705 Y40.267 E.01098
G1 X194.714 Y65.456 E.78978
G1 X194.651 Y65.857 E.01273
G1 X194.497 Y66.18 E.01122
G1 X194.235 Y66.473 E.01232
G1 X193.854 Y66.693 E.01379
G1 X193.512 Y66.771 E.011
G1 X193.394 Y66.776 E.0037
G1 X170.351 Y66.776 E.7225
G1 X169.919 Y66.703 E.01374
G1 X169.568 Y66.519 E.01243
G1 X169.271 Y66.214 E.01335
G1 X169.123 Y65.939 E.00979
G1 X169.042 Y65.622 E.01026
G1 X169.031 Y65.456 E.00522
G1 X169.031 Y40.413 E.7852
G1 X169.093 Y40.013 E.01269
G1 X169.258 Y39.673 E.01185
G1 X169.526 Y39.383 E.01238
G1 X169.87 Y39.184 E.01246
G1 X170.281 Y39.095 E.01319
G1 X170.672 Y39.093 E.01226
G1 X193.394 Y39.093 E.71243
G1 X193.8 Y39.157 E.01289
G1 X194.151 Y39.332 E.0123
G1 X194.272 Y39.449 E.00528
M204 S1000
G1 X194.272 Y39.449 F10800
G1 X194.061 Y39.763
M204 S800
G1 F1200
G1 X194.244 Y40.007 E.00956
G1 X194.331 Y40.309 E.00985
G1 X194.336 Y41.273 E.03023
G1 X194.336 Y65.456 E.75824
G1 X194.274 Y65.795 E.01081
G1 X194.099 Y66.081 E.01051
G1 X193.798 Y66.308 E.01182
G1 X193.478 Y66.395 E.0104
G1 X193.394 Y66.399 E.00264
G1 X170.351 Y66.399 E.7225
G1 X170.022 Y66.34 E.01048
G1 X169.717 Y66.154 E.0112
G1 X169.521 Y65.904 E.00996
G1 X169.416 Y65.575 E.01083
G1 X169.408 Y65.456 E.00374
G1 X169.408 Y40.413 E.7852
G1 X169.471 Y40.076 E.01075
G1 X169.57 Y39.885 E.00675
G1 X169.83 Y39.628 E.01146
G1 X170.154 Y39.491 E.01103
G1 X170.672 Y39.47 E.01625
G1 X193.394 Y39.47 E.71243
G1 X193.738 Y39.536 E.01098
G1 X194.018 Y39.707 E.01029
G1 X194.024 Y39.715 E.00031
M204 S1000
G1 X194.024 Y39.715 F10800
G1 X193.779 Y40.025
M204 S800
G1 F1200
G1 X193.873 Y40.113 E.00404
G1 X193.956 Y40.351 E.0079
G1 X193.959 Y41.273 E.02891
G1 X193.959 Y65.456 E.75824
G1 X193.888 Y65.732 E.00894
G1 X193.718 Y65.92 E.00795
G1 X193.445 Y66.019 E.00911
G1 X193.394 Y66.022 E.0016
G1 X170.351 Y66.022 E.7225
G1 X170.108 Y65.967 E.00781
G1 X169.888 Y65.781 E.00903
G1 X169.79 Y65.527 E.00854
G1 X169.785 Y65.456 E.00223
G1 X169.785 Y40.413 E.7852
G1 X169.853 Y40.145 E.00867
G1 X169.882 Y40.096 E.00179
G1 X170.098 Y39.907 E.009
G1 X170.351 Y39.848 E.00815
G1 X193.394 Y39.848 E.7225
G1 X193.662 Y39.915 E.00866
G1 X193.735 Y39.984 E.00315
M204 S1000
G1 X193.735 Y39.984 F10800
G1 X193.496 Y40.273
M204 S800
;TYPE:External perimeter
G1 F1200
G1 X193.54 Y40.294 E.00153
G1 X193.582 Y40.413 E.00396
G1 X193.582 Y65.456 E.7852
G1 X193.514 Y65.601 E.00502
G1 X193.394 Y65.645 E.00401
G1 X170.351 Y65.645 E.7225
G1 X170.21 Y65.581 E.00486
G1 X170.162 Y65.456 E.0042
G1 X170.162 Y40.413 E.7852
G1 X170.195 Y40.308 E.00345
G1 X170.334 Y40.225 E.00508
G1 X170.672 Y40.225 E.0106
G1 X193.394 Y40.225 E.71243
G1 X193.442 Y40.248 E.00167
M204 S1000
;WIPE_START
G1 F8640
G1 X193.496 Y40.273 E-.01374
G1 X193.54 Y40.294 E-.01126
G1 X193.582 Y40.413 E-.02914
G1 X193.582 Y45.376 E-1.14586
;WIPE_END
G1 Z.6 F720
G1 X158.744 Y37.845 F10800
G1 Z.2 F720
G1 E1.2 F2100
M204 S800
;TYPE:Perimeter
G1 F1200
G1 X158.255 Y37.999 E.01607
G1 X157.727 Y38.058 E.01666
;WIDTH:0.395871
G1 X157.198 Y38.033 E.01554
;WIDTH:0.387296
G1 X156.679 Y37.927 E.01517
;WIDTH:0.390569
G1 X156.115 Y37.692 E.01766
;WIDTH:0.392121
G1 X155.583 Y37.334 E.01862
G1 X155.155 Y36.91 E.01749
;WIDTH:0.38842
G1 X154.836 Y36.438 E.01637
;WIDTH:0.385474
G1 X154.623 Y35.953 E.01509
;WIDTH:0.382379
G1 X154.494 Y35.44 E.01493
;WIDTH:0.380445
G1 X154.453 Y34.912 E.01486
;WIDTH:0.38903
G1 X154.477 Y34.582 E.00952
;WIDTH:0.393648
G1 X154.596 Y34.017 E.01684
G1 X154.822 Y33.46 E.01753
;WIDTH:0.388929
G1 X155.157 Y32.956 E.01741
;WIDTH:0.387026
G1 X155.527 Y32.577 E.01515
;WIDTH:0.383476
G1 X155.955 Y32.266 E.01498
;WIDTH:0.381077
G1 X156.43 Y32.032 E.01489
;WIDTH:0.379836
G1 X156.937 Y31.881 E.01482
;WIDTH:0.39487
G1 X157.286 Y31.831 E.01032
;WIDTH:0.409464
G1 X157.88 Y31.824 E.01811
;WIDTH:0.419999
G1 X158.512 Y31.939 E.02014
G1 X159.005 Y32.141 E.0167
G1 X159.456 Y32.423 E.01668
G1 X159.853 Y32.778 E.0167
G1 X160.185 Y33.194 E.01669
G1 X160.442 Y33.661 E.01671
G1 X160.616 Y34.164 E.01669
G1 X160.702 Y34.69 E.01671
G1 X160.698 Y35.222 E.01668
G1 X160.642 Y35.553 E.01053
G1 X160.461 Y36.142 E.01932
G1 X160.323 Y36.447 E.0105
G1 X160.028 Y36.89 E.01669
G1 X159.662 Y37.277 E.0167
G1 X159.236 Y37.597 E.01671
G1 X158.799 Y37.821 E.0154
M204 S1000
G1 X158.799 Y37.821 F10800
G1 X158.619 Y37.49
M204 S800
G1 F1200
G1 X158.191 Y37.627 E.01409
G1 X157.727 Y37.693 E.01469
G1 X157.258 Y37.679 E.01471
G1 X156.793 Y37.585 E.01487
G1 X156.311 Y37.387 E.01634
G1 X155.786 Y37.033 E.01985
G1 X155.427 Y36.672 E.01596
G1 X155.142 Y36.249 E.01599
G1 X154.927 Y35.739 E.01735
G1 X154.824 Y35.225 E.01644
G1 X154.822 Y34.701 E.01643
G1 X154.952 Y34.094 E.01946
G1 X155.145 Y33.623 E.01596
G1 X155.446 Y33.17 E.01705
G1 X155.822 Y32.794 E.01667
G1 X156.258 Y32.502 E.01645
