; generated by PrusaSlicer 2.8.0+win64 on 2025-01-10 at 13:16:52 UTC


;
;
; 

; external perimeters extrusion width = 0.60mm
; perimeters extrusion width = 0.50mm
; infill extrusion width = 0.50mm
; solid infill extrusion width = 0.50mm
; top infill extrusion width = 0.45mm
; first layer extrusion width = 0.42mm

M73 P0 R100
M73 Q0 S100
M201 X1000 Y1000 Z200 E5000 ; sets maximum accelerations, mm/sec^2
M203 X200 Y200 Z12 E120 ; sets maximum feedrates, mm / sec
M204 S1250 T1250 ; sets acceleration (S) and retract acceleration (R), mm/sec^2
M205 X8.00 Y8.00 Z0.40 E4.50 ; sets the jerk limits, mm/sec
M205 S0 T0 ; sets the minimum extruding and travel feed rate, mm/sec

; printing object top_left.stl id:0 copy 0
; stop printing object top_left.stl id:0 copy 0

;TYPE:Custom
M862.3 P "MK3S" ; printer model check
M862.1 P0.4 ; nozzle diameter check
M115 U3.13.3 ; tell printer latest fw version
G90 ; use absolute coordinates
M83 ; extruder relative mode
M104 S200 ; set extruder temp
M140 S67 ; set bed temp
M190 S67 ; wait for bed temp
M109 S200 ; wait for extruder temp
G28 W ; home all without mesh bed level
G80 X158.272 Y14.0594 W73 H70.4977 ; mesh bed levelling

G1 Z0.2 F720
G1 Y-3 F1000 ; go outside print area
G92 E0
G1 X60 E9 F1000 ; intro line
G1 X100 E12.5 F1000 ; intro line

G92 E0
M221 S95

; Don't change E values below. Excessive value can damage the printer.

G21 ; set units to millimeters
G90 ; use absolute coordinates
M83 ; use relative distances for extrusion
M900 K0.05 ; Filament gcode LA 1.5
M900 K30 ; Filament gcode LA 1.0
M107
;LAYER_CHANGE
;Z:0.2
;HEIGHT:0.2
G1 E-1.2 F2100
G1 Z.6 F720
; printing object top_left.stl id:0 copy 0
G1 X214.6 Y62.283 F10800
G1 Z.2 F720
G1 E1.2 F2100
M204 S800
;TYPE:Perimeter
;WIDTH:0.419999
G1 F1200
G1 X214.962 Y62.531 E.01376
G1 X215.447 Y62.95 E.0201
G1 X215.882 Y63.421 E.0201
G1 X216.532 Y64.411 E.03713
G1 X216.836 Y65.082 E.0231
G1 X217.024 Y65.695 E.0201
G1 X217.142 Y66.325 E.0201
G1 X217.188 Y66.964 E.02009
G1 X217.163 Y67.605 E.02011
G1 X217.066 Y68.239 E.02011
G1 X216.899 Y68.857 E.02007
G1 X216.663 Y69.454 E.02013
G1 X216.363 Y70.02 E.02009
G1 X216 Y70.549 E.02012
G1 X215.581 Y71.034 E.0201
G1 X215.11 Y71.469 E.0201
G1 X214.594 Y71.849 E.02009
G1 X214.038 Y72.168 E.0201
G1 X213.45 Y72.423 E.0201
G1 X212.837 Y72.611 E.0201
G1 X212.207 Y72.729 E.0201
G1 X211.567 Y72.775 E.02012
G1 X210.927 Y72.75 E.02008
G1 X210.293 Y72.653 E.02011
G1 X209.674 Y72.486 E.0201
G1 X209.078 Y72.251 E.02009
G1 X208.512 Y71.95 E.0201
G1 X207.983 Y71.588 E.0201
G1 X207.498 Y71.168 E.02012
G1 X207.063 Y70.698 E.02008
G1 X206.683 Y70.181 E.02012
G1 X206.363 Y69.625 E.02011
G1 X206.108 Y69.037 E.0201
G1 X205.921 Y68.424 E.02009
G1 X205.803 Y67.794 E.0201
G1 X205.756 Y67.154 E.02012
G1 X205.781 Y66.514 E.02008
G1 X205.878 Y65.88 E.02011
G1 X206.045 Y65.261 E.0201
G1 X206.538 Y64.183 E.03717
G1 X206.944 Y63.57 E.02305
G1 X207.363 Y63.085 E.0201
G1 X207.834 Y62.65 E.0201
G1 X208.35 Y62.27 E.02009
G1 X208.906 Y61.951 E.0201
G1 X209.674 Y61.633 E.02606
G1 X210.198 Y61.484 E.01708
G1 X211.254 Y61.353 E.03336
G1 X212.007 Y61.368 E.02361
G1 X212.651 Y61.465 E.02042
G1 X213.27 Y61.633 E.02011
G1 X213.866 Y61.868 E.02009
G1 X214.433 Y62.169 E.02013
G1 X214.55 Y62.249 E.00444
M204 S1000
G1 X214.55 Y62.249 F10800
G1 X214.382 Y62.59
M204 S800
G1 F1200
G1 X214.743 Y62.839 E.01375
G1 X215.195 Y63.231 E.01876
G1 X215.601 Y63.672 E.01879
G1 X216.213 Y64.612 E.03517
G1 X216.488 Y65.226 E.02109
G1 X216.661 Y65.799 E.01877
G1 X216.77 Y66.388 E.01878
G1 X216.812 Y66.985 E.01876
G1 X216.786 Y67.584 E.0188
G1 X216.694 Y68.175 E.01875
G1 X216.536 Y68.753 E.01879
G1 X216.315 Y69.309 E.01876
G1 X216.033 Y69.837 E.01877
G1 X215.693 Y70.331 E.0188
G1 X215.3 Y70.783 E.01878
G1 X214.859 Y71.188 E.01877
G1 X214.376 Y71.541 E.01876
G1 X213.856 Y71.838 E.01878
G1 X213.306 Y72.075 E.01878
G1 X212.732 Y72.249 E.01881
G1 X212.144 Y72.357 E.01874
G1 X211.546 Y72.399 E.0188
G1 X210.948 Y72.374 E.01877
G1 X210.356 Y72.281 E.01879
G1 X209.778 Y72.124 E.01878
G1 X209.222 Y71.902 E.01877
G1 X208.694 Y71.62 E.01877
G1 X208.201 Y71.28 E.01878
G1 X207.749 Y70.887 E.01878
G1 X207.344 Y70.446 E.01877
G1 X206.99 Y69.963 E.01878
G1 X206.694 Y69.443 E.01876
G1 X206.457 Y68.893 E.01878
G1 X206.283 Y68.32 E.01878
G1 X206.174 Y67.731 E.01878
G1 X206.133 Y67.133 E.01879
G1 X206.158 Y66.535 E.01877
G1 X206.25 Y65.943 E.01878
G1 X206.408 Y65.366 E.01876
G1 X206.878 Y64.347 E.03518
G1 X207.251 Y63.788 E.02107
G1 X207.644 Y63.336 E.01878
G1 X208.085 Y62.931 E.01877
G1 X208.569 Y62.578 E.01878
G1 X209.089 Y62.281 E.01878
G1 X209.778 Y61.995 E.02339
G1 X210.283 Y61.852 E.01646
G1 X211.297 Y61.728 E.03203
G1 X211.988 Y61.745 E.02167
G1 X212.588 Y61.837 E.01903
G1 X213.166 Y61.995 E.01879
G1 X213.722 Y62.217 E.01877
G1 X214.25 Y62.499 E.01877
G1 X214.333 Y62.556 E.00316
M204 S1000
G1 X214.333 Y62.556 F10800
G1 X214.165 Y62.896
M204 S800
G1 F1200
G1 X214.525 Y63.146 E.01374
G1 X214.944 Y63.513 E.01746
G1 X215.319 Y63.924 E.01744
G1 X215.894 Y64.813 E.0332
G1 X216.139 Y65.37 E.01908
G1 X216.299 Y65.903 E.01745
G1 X216.398 Y66.451 E.01746
G1 X216.435 Y67.006 E.01744
G1 X216.41 Y67.563 E.01748
G1 X216.322 Y68.112 E.01743
G1 X216.174 Y68.649 E.01746
G1 X215.967 Y69.165 E.01743
G1 X215.703 Y69.655 E.01745
G1 X215.385 Y70.112 E.01746
G1 X215.019 Y70.531 E.01744
G1 X214.608 Y70.907 E.01747
G1 X214.157 Y71.234 E.01747
G1 X213.673 Y71.508 E.01744
G1 X213.161 Y71.726 E.01745
G1 X212.628 Y71.886 E.01745
G1 X212.08 Y71.985 E.01746
G1 X211.525 Y72.022 E.01744
G1 X210.969 Y71.997 E.01745
G1 X210.419 Y71.91 E.01746
G1 X209.883 Y71.761 E.01744
G1 X209.366 Y71.554 E.01746
G1 X208.876 Y71.29 E.01745
G1 X208.419 Y70.973 E.01744
G1 X208 Y70.606 E.01746
G1 X207.625 Y70.195 E.01744
G1 X207.298 Y69.745 E.01744
G1 X207.024 Y69.26 E.01747
G1 X206.805 Y68.748 E.01746
G1 X206.645 Y68.215 E.01745
G1 X206.546 Y67.668 E.01743
G1 X206.509 Y67.112 E.01747
G1 X206.534 Y66.556 E.01745
G1 X206.622 Y66.007 E.01743
G1 X206.77 Y65.47 E.01746
G1 X207.217 Y64.511 E.03317
G1 X207.559 Y64.006 E.01912
G1 X207.925 Y63.587 E.01744
G1 X208.336 Y63.212 E.01744
G1 X208.787 Y62.885 E.01747
G1 X209.271 Y62.611 E.01744
G1 X209.883 Y62.357 E.02078
G1 X210.367 Y62.219 E.01578
G1 X211.34 Y62.102 E.03073
G1 X211.97 Y62.121 E.01976
G1 X212.525 Y62.209 E.01762
G1 X213.061 Y62.357 E.01743
G1 X213.578 Y62.565 E.01747
G1 X214.068 Y62.829 E.01745
G1 X214.116 Y62.862 E.00183
M204 S1000
G1 X214.116 Y62.862 F10800
G1 X213.948 Y63.202
M204 S800
G1 F1200
G1 X214.307 Y63.454 E.01375
G1 X214.693 Y63.794 E.01613
G1 X215.038 Y64.175 E.01612
G1 X215.575 Y65.013 E.03121
G1 X215.791 Y65.515 E.01714
G1 X215.937 Y66.008 E.01612
G1 X216.026 Y66.514 E.01611
G1 X216.059 Y67.028 E.01615
G1 X216.033 Y67.541 E.01611
G1 X215.951 Y68.049 E.01613
G1 X215.812 Y68.544 E.01612
G1 X215.618 Y69.021 E.01615
G1 X215.373 Y69.473 E.01612
G1 X215.078 Y69.894 E.01612
G1 X214.738 Y70.28 E.01613
G1 X214.357 Y70.625 E.01612
G1 X213.939 Y70.926 E.01615
G1 X213.491 Y71.178 E.01612
G1 X213.017 Y71.378 E.01613
G1 X212.524 Y71.524 E.01612
G1 X212.017 Y71.614 E.01615
G1 X211.504 Y71.646 E.01612
G1 X210.99 Y71.621 E.01614
G1 X210.482 Y71.538 E.01614
G1 X209.987 Y71.399 E.01612
G1 X209.511 Y71.205 E.01612
G1 X209.059 Y70.96 E.01612
G1 X208.637 Y70.665 E.01614
G1 X208.251 Y70.325 E.01613
G1 X207.906 Y69.944 E.01612
G1 X207.605 Y69.526 E.01615
G1 X207.354 Y69.078 E.0161
G1 X207.153 Y68.604 E.01614
G1 X207.008 Y68.111 E.01611
G1 X206.918 Y67.604 E.01615
G1 X206.886 Y67.091 E.01612
G1 X206.911 Y66.577 E.01614
G1 X206.994 Y66.07 E.01611
G1 X207.133 Y65.574 E.01615
G1 X207.557 Y64.674 E.03119
G1 X207.866 Y64.225 E.01709
G1 X208.207 Y63.839 E.01615
G1 X208.588 Y63.493 E.01614
G1 X209.005 Y63.193 E.01611
G1 X209.454 Y62.941 E.01614
G1 X209.987 Y62.72 E.01809
G1 X210.482 Y62.581 E.01612
G1 X211.382 Y62.477 E.02841
G1 X211.951 Y62.498 E.01785
G1 X212.462 Y62.581 E.01623
G1 X212.957 Y62.72 E.01612
G1 X213.434 Y62.913 E.01613
G1 X213.885 Y63.159 E.01611
G1 X213.898 Y63.168 E.0005
M204 S1000
G1 X213.898 Y63.168 F10800
G1 X213.731 Y63.507
M204 S800
;TYPE:External perimeter
G1 F1200
G1 X214.105 Y63.774 E.01441
G1 X214.457 Y64.09 E.01483
G1 X214.776 Y64.451 E.0151
G1 X215.255 Y65.214 E.02825
G1 X215.449 Y65.679 E.0158
G1 X215.579 Y66.133 E.01481
G1 X215.657 Y66.598 E.01478
G1 X215.682 Y67.07 E.01482
G1 X215.655 Y67.541 E.01479
G1 X215.574 Y68.006 E.0148
G1 X215.442 Y68.46 E.01482
G1 X215.261 Y68.896 E.0148
G1 X215.031 Y69.308 E.01479
G1 X214.757 Y69.693 E.01482
G1 X214.33 Y70.144 E.01947
G1 X213.915 Y70.481 E.01676
G1 X213.308 Y70.848 E.02224
G1 X212.853 Y71.037 E.01545
G1 X212.399 Y71.166 E.0148
G1 X211.933 Y71.244 E.01481
G1 X211.462 Y71.269 E.01479
G1 X210.99 Y71.242 E.01482
G1 X210.525 Y71.161 E.0148
G1 X210.072 Y71.03 E.01479
G1 X209.636 Y70.848 E.01481
G1 X209.223 Y70.618 E.01482
G1 X208.839 Y70.344 E.01479
G1 X208.488 Y70.029 E.01479
G1 X208.174 Y69.676 E.01481
G1 X207.902 Y69.29 E.01481
G1 X207.674 Y68.876 E.01482
G1 X207.495 Y68.44 E.01478
G1 X207.365 Y67.986 E.01481
G1 X207.287 Y67.52 E.01481
G1 X207.262 Y67.049 E.01479
G1 X207.29 Y66.577 E.01483
G1 X207.37 Y66.112 E.01479
G1 X207.506 Y65.649 E.01513
G1 X207.898 Y64.835 E.02833
G1 X208.187 Y64.426 E.0157
G1 X208.503 Y64.075 E.01481
G1 X208.855 Y63.761 E.01479
G1 X209.241 Y63.489 E.01481
G1 X209.655 Y63.262 E.0148
G1 X210.092 Y63.082 E.01482
G1 X210.556 Y62.951 E.01512
G1 X211.427 Y62.851 E.02749
G1 X211.932 Y62.875 E.01585
G1 X212.419 Y62.957 E.01548
G1 X212.873 Y63.089 E.01482
G1 X213.308 Y63.271 E.01478
G1 X213.679 Y63.477 E.01331
M204 S1000
;WIPE_START
G1 F8640
G1 X213.731 Y63.507 E-.01386
G1 X214.105 Y63.774 E-.10611
G1 X214.457 Y64.09 E-.10922
G1 X214.776 Y64.451 E-.11124
G1 X215.255 Y65.214 E-.20802
G1 X215.449 Y65.679 E-.11634
G1 X215.579 Y66.133 E-.10904
G1 X215.657 Y66.598 E-.10887
G1 X215.682 Y67.07 E-.10914
G1 X215.655 Y67.541 E-.10893
G1 X215.581 Y67.965 E-.09923
;WIPE_END
G1 Z.6 F720
G1 X228.848 Y77.814 F10800
G1 Z.2 F720
G1 E1.2 F2100
M204 S800
;TYPE:Perimeter
;WIDTH:0.387391
G1 F1200
G1 X229.009 Y78.056 E.00833
G1 X229.222 Y78.54 E.01515
;WIDTH:0.384071
G1 X229.351 Y79.054 E.01503
;WIDTH:0.381717
G1 X229.392 Y79.582 E.01492
;WIDTH:0.380331
G1 X229.343 Y80.108 E.01482
;WIDTH:0.389834
G1 X229.264 Y80.43 E.00956
;WIDTH:0.393323
G1 X229.046 Y80.976 E.01713
G1 X228.732 Y81.48 E.0173
;WIDTH:0.388979
G1 X228.319 Y81.918 E.01732
;WIDTH:0.387351
G1 X227.89 Y82.229 E.01518
;WIDTH:0.384039
G1 X227.415 Y82.463 E.01502
;WIDTH:0.381695
G1 X226.908 Y82.613 E.01489
;WIDTH:0.380322
G1 X226.382 Y82.677 E.01487
;WIDTH:0.380485
G1 X225.854 Y82.651 E.01484
;WIDTH:0.382024
G1 X225.337 Y82.536 E.01493
;WIDTH:0.384121
G1 X224.847 Y82.336 E.01502
;WIDTH:0.385843
G1 X224.398 Y82.056 E.01509
;WIDTH:0.407406
G1 X224.141 Y81.845 E.01008
;WIDTH:0.419999
G1 X223.73 Y81.387 E.01929
G1 X223.403 Y80.833 E.02017
G1 X223.229 Y80.33 E.01669
G1 X223.142 Y79.804 E.01672
G1 X223.146 Y79.272 E.01668
G1 X223.24 Y78.748 E.01669
G1 X223.42 Y78.247 E.01669
G1 X223.683 Y77.784 E.0167
G1 X224.02 Y77.372 E.01669
G1 X224.423 Y77.023 E.01672
G1 X224.878 Y76.747 E.01669
G1 X225.373 Y76.552 E.01668
G1 X225.896 Y76.449 E.01671
;WIDTH:0.407938
G1 X226.427 Y76.44 E.01612
;WIDTH:0.388353
G1 X226.951 Y76.515 E.0152
;WIDTH:0.38034
G1 X227.456 Y76.673 E.01485
;WIDTH:0.380461
G1 X227.927 Y76.915 E.01486
;WIDTH:0.381984
G1 X228.35 Y77.232 E.0149
;WIDTH:0.384484
G1 X228.715 Y77.616 E.01505
;WIDTH:0.387391
G1 X228.814 Y77.764 E.0051
M204 S1000
G1 X228.814 Y77.764 F10800
G1 X228.538 Y78.005
M204 S800
;WIDTH:0.419999
G1 F1200
G1 X228.702 Y78.245 E.00911
G1 X228.908 Y78.726 E.01641
G1 X229.018 Y79.234 E.0163
G1 X229.028 Y79.754 E.01631
G1 X228.94 Y80.265 E.01626
G1 X228.709 Y80.84 E.01943
G1 X228.442 Y81.265 E.01574
G1 X228.069 Y81.658 E.01699
G1 X227.642 Y81.961 E.01642
G1 X227.168 Y82.175 E.01631
G1 X226.662 Y82.295 E.01631
G1 X226.116 Y82.314 E.01713
G1 X225.575 Y82.228 E.01718
G1 X225.064 Y82.04 E.01707
G1 X224.599 Y81.758 E.01705
G1 X224.013 Y81.138 E.02675
G1 X223.74 Y80.663 E.01718
G1 X223.556 Y80.063 E.01968
G1 X223.51 Y79.597 E.01468
G1 X223.543 Y79.129 E.01471
G1 X223.655 Y78.674 E.01469
G1 X223.921 Y78.117 E.01935
G1 X224.304 Y77.621 E.01965
G1 X224.718 Y77.273 E.01696
G1 X225.207 Y77.01 E.01741
G1 X225.654 Y76.867 E.01472
G1 X226.118 Y76.801 E.01469
G1 X226.586 Y76.815 E.01468
G1 X227.045 Y76.907 E.01468
G1 X227.548 Y77.112 E.01703
G1 X228.005 Y77.413 E.01716
G1 X228.396 Y77.797 E.01718
G1 X228.504 Y77.955 E.006
M204 S1000
G1 X228.504 Y77.955 F10800
G1 X228.222 Y78.2
M204 S800
G1 F1200
G1 X228.424 Y78.528 E.01208
G1 X228.567 Y78.907 E.0127
G1 X228.645 Y79.304 E.01269
G1 X228.654 Y79.709 E.0127
G1 X228.578 Y80.154 E.01415
G1 X228.349 Y80.726 E.01932
G1 X228.051 Y81.152 E.0163
G1 X227.734 Y81.446 E.01356
G1 X227.394 Y81.666 E.0127
G1 X227.022 Y81.825 E.01268
G1 X226.628 Y81.919 E.0127
G1 X226.148 Y81.939 E.01506
G1 X225.67 Y81.863 E.01518
G1 X225.15 Y81.666 E.01744
G1 X224.81 Y81.446 E.0127
G1 X224.296 Y80.888 E.02379
G1 X224.04 Y80.404 E.01717
G1 X223.93 Y80.015 E.01268
G1 X223.886 Y79.613 E.01268
G1 X223.912 Y79.209 E.01269
G1 X224.078 Y78.633 E.0188
G1 X224.325 Y78.179 E.01621
G1 X224.656 Y77.804 E.01568
G1 X224.976 Y77.556 E.01269
G1 X225.333 Y77.366 E.01268
G1 X225.717 Y77.238 E.01269
G1 X226.118 Y77.178 E.01271
G1 X226.522 Y77.186 E.01267
G1 X226.92 Y77.263 E.01271
G1 X227.364 Y77.442 E.01501
G1 X227.768 Y77.707 E.01515
G1 X228.162 Y78.102 E.01749
G1 X228.19 Y78.148 E.00169
M204 S1000
G1 X228.19 Y78.148 F10800
G1 X227.908 Y78.393
M204 S800
;TYPE:External perimeter
G1 F1200
G1 X228.074 Y78.669 E.0101
G1 X228.199 Y78.986 E.01068
G1 X228.268 Y79.32 E.01069
G1 X228.28 Y79.661 E.0107
G1 X228.228 Y80.014 E.01119
G1 X227.999 Y80.585 E.01929
G1 X227.771 Y80.899 E.01217
G1 X227.522 Y81.133 E.01071
G1 X227.238 Y81.322 E.0107
G1 X226.927 Y81.46 E.01067
G1 X226.596 Y81.543 E.0107
G1 X226.18 Y81.563 E.01306
G1 X225.618 Y81.46 E.01791
G1 X225.278 Y81.306 E.0117
G1 X225.022 Y81.133 E.00969
G1 X224.579 Y80.639 E.0208
G1 X224.401 Y80.294 E.01217
G1 X224.304 Y79.967 E.01069
G1 X224.263 Y79.629 E.01068
G1 X224.28 Y79.288 E.01071
G1 X224.428 Y78.773 E.0168
G1 X224.666 Y78.351 E.01519
G1 X224.893 Y78.097 E.01068
G1 X225.16 Y77.885 E.01069
G1 X225.459 Y77.721 E.01069
G1 X225.781 Y77.61 E.01068
G1 X226.118 Y77.555 E.01071
G1 X226.459 Y77.558 E.01069
G1 X226.794 Y77.618 E.01067
G1 X227.18 Y77.771 E.01302
G1 X227.651 Y78.097 E.01796
G1 X227.871 Y78.346 E.01042
M204 S1000
;WIPE_START
G1 F8640
G1 X227.908 Y78.393 E-.01381
G1 X228.074 Y78.669 E-.07437
G1 X228.199 Y78.986 E-.07868
G1 X228.268 Y79.32 E-.07875
G1 X228.28 Y79.661 E-.07879
G1 X228.228 Y80.014 E-.08239
G1 X227.999 Y80.585 E-.14205
G1 X227.771 Y80.899 E-.0896
G1 X227.522 Y81.133 E-.0789
G1 X227.238 Y81.322 E-.07877
G1 X226.927 Y81.46 E-.07856
G1 X226.596 Y81.543 E-.0788
G1 X226.18 Y81.563 E-.09617
G1 X225.618 Y81.46 E-.13193
G1 X225.545 Y81.427 E-.01843
;WIPE_END
G1 Z.6 F720
G1 X225.109 Y37.463 F10800
G1 Z.2 F720
G1 E1.2 F2100
M204 S800
;TYPE:Perimeter
G1 F1200
G1 X224.84 Y37.353 E.00911
G1 X224.388 Y37.071 E.0167
G1 X223.991 Y36.716 E.0167
G1 X223.659 Y36.3 E.01669
G1 X223.413 Y35.853 E.016
G1 X223.28 Y35.467 E.0128
G1 X223.16 Y34.908 E.01793
G1 X223.142 Y34.364 E.01707
G1 X223.24 Y33.748 E.01956
G1 X223.42 Y33.247 E.01669
G1 X223.683 Y32.784 E.0167
G1 X224.02 Y32.372 E.01669
G1 X224.423 Y32.023 E.01672
G1 X224.878 Y31.747 E.01669
G1 X225.373 Y31.551 E.01669
G1 X225.896 Y31.449 E.01671
;WIDTH:0.407983
G1 X226.427 Y31.44 E.01612
;WIDTH:0.388286
G1 X226.951 Y31.515 E.0152
;WIDTH:0.379994
G1 X227.456 Y31.673 E.01483
;WIDTH:0.38052
G1 X227.927 Y31.915 E.01486
;WIDTH:0.382526
G1 X228.35 Y32.232 E.01493
;WIDTH:0.385701
G1 X228.715 Y32.615 E.01508
G1 X229.008 Y33.056 E.01509
;WIDTH:0.385471
G1 X229.222 Y33.541 E.0151
;WIDTH:0.382382
G1 X229.35 Y34.054 E.01492
;WIDTH:0.380445
G1 X229.391 Y34.582 E.01486
;WIDTH:0.38903
G1 X229.368 Y34.912 E.00952
;WIDTH:0.393647
G1 X229.239 Y35.514 E.01795
;WIDTH:0.390229
G1 X229.023 Y36.034 E.01626
;WIDTH:0.38893
G1 X228.688 Y36.538 E.01741
;WIDTH:0.387031
